<?xml version="1.0" encoding="UTF-8"?>
<map version="1.10" tiledversion="1.11.0" orientation="hexagonal" renderorder="right-up" width="12" height="12" tilewidth="73" tileheight="64" infinite="0" hexsidelength="37" staggeraxis="x" staggerindex="odd" nextlayerid="2" nextobjectid="1">
 <tileset firstgid="1" name="terrain_atlas" tilewidth="74" tileheight="64" tilecount="64" columns="8">
  <image source="../../images/tiles/terrain_atlas_new.png" width="592" height="512"/>
 </tileset>
 <layer id="1" name="Tile Layer 1" width="12" height="12">
  <data encoding="csv">
1,1,1,1,1,1,1,1,1,1,1,1,
1,1,1,1,1,1,1,1,1,1,1,1,
1,1,1,1,1,1,1,1,1,1,1,1,
1,1,2,1,2,1,1,1,1,1,1,1,
1,1,1,1,26,1,1,1,1,1,1,1,
1,1,1,1,1,1,1,1,1,1,1,1,
1,1,1,1,1,1,1,1,1,1,1,1,
1,1,1,1,1,1,1,1,1,1,1,1,
1,1,1,1,1,1,1,1,1,1,1,1,
1,1,1,1,1,1,1,1,1,1,1,1,
1,1,1,1,1,1,1,1,1,1,1,1,
1,1,1,1,1,1,1,1,1,1,1,1
</data>
 </layer>
</map>
