<?xml version="1.0" encoding="UTF-8"?>
<map version="1.10" tiledversion="1.11.0" orientation="hexagonal" renderorder="right-up" width="60" height="60" tilewidth="74" tileheight="64" infinite="0" hexsidelength="37" staggeraxis="x" staggerindex="odd" nextlayerid="5" nextobjectid="104">
 <properties>
  <property name="metadata" value="{ &quot;version&quot;: 1, &quot;title&quot;: { &quot;en&quot;: &quot;&quot;, &quot;ru&quot;: &quot;&quot; }, &quot;description&quot;: { &quot;en&quot;: &quot;&quot;, &quot;ru&quot;: &quot;&quot; }, &quot;dates&quot;: { &quot;from&quot;: &quot;1916-07-01&quot;, &quot;to&quot;: &quot;1916-11-18&quot; }, &quot;params&quot;: { &quot;land_only_ai&quot;: true }, &quot;nations&quot;: [ { &quot;code&quot;: &quot;france&quot;, &quot;aggressiveness&quot;: &quot;aggressive&quot;, &quot;startMoney&quot;: 2500, &quot;startIndustryPoints&quot;: 2500 }, { &quot;code&quot;: &quot;greatBritain&quot;, &quot;aggressiveness&quot;: &quot;aggressive&quot;, &quot;startMoney&quot;: 2500, &quot;startIndustryPoints&quot;: 2500 }, { &quot;code&quot;: &quot;germany&quot;, &quot;aggressiveness&quot;: &quot;aggressive&quot;, &quot;startMoney&quot;: 5000, &quot;startIndustryPoints&quot;: 5000 } ], &quot;diplomacy&quot;: [ { &quot;firstNation&quot;: &quot;france&quot;, &quot;secondNation&quot;: &quot;germany&quot;, &quot;relationship&quot;: &quot;war&quot; }, { &quot;firstNation&quot;: &quot;greatBritain&quot;, &quot;secondNation&quot;: &quot;germany&quot;, &quot;relationship&quot;: &quot;war&quot; }, { &quot;firstNation&quot;: &quot;france&quot;, &quot;secondNation&quot;: &quot;greatBritain&quot;, &quot;relationship&quot;: &quot;allied&quot; } ] }"/>
 </properties>
 <tileset firstgid="1" name="terrain_atlas" tilewidth="74" tileheight="64" tilecount="88" columns="8">
  <image source="../../images/tiles/terrain_atlas_new.png" width="592" height="704"/>
 </tileset>
 <tileset firstgid="89" source="../game_objects.tsx"/>
 <layer id="1" name="Terrain" width="60" height="60">
  <data encoding="csv">
28,28,28,28,28,28,28,28,28,28,28,28,28,28,28,28,28,28,28,28,28,28,28,28,28,28,28,28,28,28,26,26,26,26,26,26,26,26,26,26,26,26,26,26,26,26,26,26,26,26,26,26,26,26,26,26,26,26,27,27,
28,28,28,28,28,28,28,28,28,28,28,28,28,28,28,28,28,28,28,28,28,28,28,28,28,28,28,28,28,28,26,26,26,26,26,26,26,26,26,26,26,26,26,26,26,26,26,26,26,26,26,26,26,26,26,26,26,26,27,27,
28,28,28,28,28,28,28,28,28,28,28,28,28,28,28,28,28,28,28,28,28,28,28,28,28,28,28,28,28,28,26,26,26,26,26,26,26,26,26,26,26,26,26,26,26,26,26,26,26,26,26,26,26,26,26,26,26,26,27,27,
28,28,28,28,28,28,28,28,28,28,28,28,28,28,28,28,28,28,28,28,28,28,28,28,28,28,28,28,28,28,26,26,26,26,26,26,26,26,26,26,26,26,26,26,26,26,26,26,26,26,26,26,26,26,26,26,26,26,27,27,
28,28,28,28,28,28,28,28,28,28,28,28,28,27,28,28,28,28,28,28,28,28,28,28,28,28,28,28,28,28,26,26,26,26,26,26,26,26,26,26,26,26,26,26,26,26,26,26,26,26,26,26,26,26,26,26,26,26,27,27,
28,28,28,28,28,28,28,28,28,28,28,28,28,28,28,28,28,28,28,28,28,28,28,28,28,28,28,28,28,28,26,26,26,26,26,26,26,26,26,26,26,26,26,26,26,26,26,26,26,26,26,26,26,26,26,26,26,26,27,27,
28,28,28,28,28,28,28,28,28,28,28,28,28,28,28,28,28,28,28,28,28,28,28,28,28,28,28,28,28,28,26,26,26,26,26,26,26,26,26,26,26,26,26,26,26,26,26,26,26,26,26,26,26,26,26,26,26,26,27,27,
28,28,28,28,28,28,28,28,28,28,28,28,28,28,28,28,28,28,28,28,28,28,28,28,28,28,28,28,28,26,26,26,26,26,26,26,26,26,26,26,26,26,26,26,26,26,26,26,26,26,26,26,26,26,26,26,26,26,27,27,
28,28,28,28,28,28,28,28,28,28,28,28,28,28,28,28,28,28,28,28,28,28,28,28,28,28,26,26,26,26,26,26,26,26,26,26,26,26,26,26,26,26,26,26,26,26,26,26,26,26,26,26,26,26,26,26,26,26,27,27,
26,26,28,26,26,28,28,28,28,28,28,28,28,28,28,28,28,28,28,28,28,28,28,28,28,28,26,26,26,26,26,26,26,26,26,26,26,26,26,26,26,26,26,26,26,26,26,26,26,26,26,26,26,26,26,26,26,26,27,12,
28,28,26,28,28,28,28,28,28,28,28,28,28,28,28,28,28,28,28,28,28,28,28,28,28,28,28,28,26,28,26,26,26,26,26,26,26,26,26,26,26,26,26,26,26,26,26,26,26,26,26,26,26,26,26,26,26,12,14,8,
28,28,28,28,28,28,28,28,28,28,28,28,28,28,28,28,28,28,28,28,28,28,28,28,28,28,28,28,28,28,26,26,26,26,26,26,26,26,26,26,26,26,26,26,26,26,26,16,12,15,16,13,14,12,16,13,15,9,11,2,
28,27,28,28,28,28,28,28,28,28,28,28,28,28,28,1,28,28,28,28,28,28,28,28,28,28,28,28,28,28,26,26,26,26,26,22,26,26,26,26,26,26,26,26,26,16,13,8,11,10,11,7,11,11,8,11,11,2,2,2,
27,26,27,28,28,28,28,28,28,28,28,28,28,1,1,1,1,1,28,28,28,28,28,28,3,3,28,28,28,28,26,26,26,26,17,21,21,26,26,26,26,26,26,26,12,11,7,2,2,2,2,2,2,2,2,2,2,2,2,2,
26,26,27,28,28,28,28,28,28,28,28,28,28,1,1,1,1,1,1,28,28,28,28,3,25,3,23,28,28,26,26,26,26,26,19,19,22,26,26,26,26,26,26,26,26,2,2,2,2,2,2,2,2,2,2,2,2,2,2,2,
26,26,27,28,28,28,28,28,28,28,28,28,28,1,1,1,1,28,28,28,28,28,28,24,3,3,3,26,26,26,26,26,26,26,18,20,17,17,26,26,26,26,26,26,10,11,2,2,2,2,2,2,2,2,2,2,2,2,2,2,
28,28,28,28,28,28,28,28,28,28,28,28,28,28,1,28,28,28,28,28,28,28,28,28,28,26,3,26,26,26,26,26,26,18,22,19,21,19,26,26,26,26,26,26,13,15,11,10,2,2,2,2,2,2,2,2,2,2,2,10,
28,28,28,28,28,28,28,28,28,28,28,28,28,28,28,28,28,28,28,28,28,28,28,28,26,26,26,26,26,26,26,26,26,17,22,21,20,20,26,26,26,26,26,26,26,26,12,14,9,10,11,11,11,10,11,9,11,11,9,12,
28,28,28,28,28,28,28,28,28,28,28,28,28,28,28,28,28,28,28,28,28,28,28,28,28,28,26,26,26,26,26,26,26,26,18,19,17,26,26,26,26,26,26,26,26,26,26,26,13,15,12,16,13,16,14,15,12,26,14,27,
28,28,28,28,28,28,28,28,28,28,28,28,28,28,28,28,28,28,28,28,28,28,28,28,28,28,28,28,26,26,26,26,26,26,26,26,26,26,26,26,26,26,26,26,26,26,26,26,26,26,26,26,26,26,26,26,26,26,27,27,
28,28,28,28,28,28,28,28,28,28,28,28,28,28,28,28,28,28,28,28,28,28,28,28,28,28,28,28,28,28,26,26,26,26,26,26,26,26,26,26,26,26,26,26,26,26,26,26,26,26,26,26,26,26,26,26,26,26,27,27,
28,28,28,28,28,28,28,28,28,28,28,28,28,28,28,28,28,28,28,28,28,28,28,28,28,28,28,28,28,28,26,26,26,26,26,26,26,26,26,26,26,26,26,26,26,26,26,26,26,26,26,26,26,26,26,26,26,26,27,27,
28,28,28,28,28,28,28,28,28,28,28,28,28,28,28,28,28,28,28,28,28,28,28,28,28,28,28,28,28,28,26,26,26,26,26,26,26,26,26,26,26,26,26,26,26,26,26,26,26,26,26,26,26,26,26,26,26,26,27,27,
28,28,28,28,28,28,28,28,28,28,28,28,28,28,28,28,28,28,28,28,28,28,28,28,28,28,28,28,28,28,26,26,26,3,3,3,26,26,26,26,26,26,26,26,26,6,26,26,26,26,26,26,26,26,26,26,26,26,27,27,
28,28,28,28,28,28,28,28,28,28,28,28,28,28,28,28,28,28,28,28,28,28,28,28,28,28,28,28,28,28,26,26,25,3,3,3,24,26,26,26,26,26,26,5,4,4,4,5,26,26,26,26,26,26,26,26,26,26,27,27,
26,26,28,28,28,28,28,28,28,28,28,28,28,28,28,28,28,28,28,28,28,28,28,28,28,28,28,28,28,28,26,26,26,3,3,3,3,26,26,26,26,26,26,6,4,4,4,6,26,26,26,26,26,26,26,26,26,26,27,27,
26,26,28,28,28,28,28,28,28,28,28,28,28,28,28,28,28,28,28,28,28,28,28,28,28,28,28,28,28,28,26,26,26,23,3,3,3,26,26,26,26,26,26,4,5,4,4,26,26,26,26,26,26,26,26,26,26,26,27,27,
26,26,28,28,28,28,28,28,28,28,28,28,28,28,28,28,28,28,28,28,28,28,28,28,28,28,28,28,28,28,26,26,26,26,3,26,26,26,26,26,26,26,26,26,6,4,4,26,26,26,26,26,26,26,26,26,26,26,27,27,
26,28,28,28,28,28,28,28,28,28,28,28,28,28,28,28,28,28,28,28,28,28,28,28,28,28,28,28,28,28,26,26,26,26,26,26,26,26,26,26,26,26,26,26,26,26,26,26,26,26,26,26,26,26,26,26,26,26,27,27,
28,28,28,28,28,28,28,28,28,28,28,28,28,28,28,28,28,28,28,28,28,28,28,28,28,28,28,28,28,28,26,26,26,26,26,26,26,26,26,26,26,26,26,26,26,26,26,26,26,26,26,26,26,26,26,26,26,26,27,27,
26,26,26,26,26,26,26,26,26,26,26,26,26,26,26,26,26,26,26,26,26,26,26,26,26,26,26,26,26,26,26,26,26,26,26,26,26,26,26,26,26,26,26,26,26,26,26,26,26,26,26,26,26,26,26,26,26,26,27,2,
26,26,26,26,26,26,26,26,26,26,26,26,26,26,26,26,26,26,26,26,26,26,26,26,26,26,26,26,26,26,26,26,26,26,26,26,26,26,26,26,26,26,26,26,26,26,26,26,26,2,26,26,26,2,26,2,26,2,2,2,
26,26,26,26,26,26,26,26,26,26,26,26,26,26,26,26,26,26,26,26,26,26,26,26,26,26,26,26,26,26,26,26,26,26,26,21,22,21,26,26,26,26,26,26,26,26,26,2,2,2,2,2,2,2,2,2,2,2,2,2,
26,26,26,26,26,26,26,26,26,26,26,26,26,26,26,26,26,26,26,26,26,26,26,26,26,26,26,26,26,26,26,26,26,26,26,26,21,22,21,26,26,26,26,26,26,2,2,2,2,2,2,2,2,2,2,2,2,2,2,2,
26,26,26,26,26,26,26,26,26,26,26,26,26,26,26,26,26,26,26,26,26,26,26,26,26,26,26,26,26,26,26,26,26,26,26,26,6,5,21,26,26,26,26,26,26,2,2,2,2,2,2,2,2,2,2,2,2,2,2,2,
26,26,26,26,26,26,26,26,26,26,26,26,26,26,26,26,26,26,26,26,26,26,26,26,26,26,26,26,26,26,26,26,26,26,26,26,4,4,26,26,26,26,26,26,26,2,2,2,2,2,2,2,2,2,2,2,2,26,2,2,
26,26,26,26,26,26,26,26,26,26,26,26,26,26,26,26,26,26,26,26,26,26,26,26,26,26,26,26,26,26,26,26,26,26,26,4,5,6,26,26,26,26,26,26,26,26,2,2,2,26,2,26,2,26,26,26,26,26,2,27,
26,26,26,26,26,26,26,26,26,26,26,26,26,26,26,26,26,26,26,26,26,26,26,26,26,26,26,26,26,26,26,26,26,26,26,5,4,26,26,26,26,26,26,26,26,26,26,26,26,26,26,26,26,26,26,26,26,26,27,27,
26,26,26,26,26,26,26,26,26,26,26,26,26,26,26,26,26,26,26,26,26,26,26,26,26,26,26,26,26,26,26,26,26,26,26,26,26,26,26,26,26,26,26,26,26,26,26,26,26,26,26,26,26,26,26,26,26,26,27,27,
26,26,26,26,26,26,26,26,26,26,26,26,26,17,26,26,26,26,26,26,26,26,26,26,26,26,26,26,26,26,26,26,26,26,26,26,26,26,26,26,26,26,26,26,26,26,26,26,26,26,26,26,26,26,26,26,26,26,27,27,
26,26,26,26,26,26,26,26,26,26,26,18,19,21,18,19,26,26,26,26,26,26,26,26,26,26,26,26,26,26,26,26,26,26,26,26,26,26,26,26,26,26,26,26,26,26,26,26,26,26,26,26,26,26,26,26,26,26,27,27,
26,26,26,26,26,26,26,26,26,26,26,17,22,20,21,17,26,26,26,26,26,26,26,26,26,26,26,26,26,26,26,26,26,26,26,26,26,26,26,26,26,26,26,26,26,26,26,26,26,26,26,26,26,26,26,26,26,26,27,27,
26,26,26,26,26,26,26,26,26,26,26,2,21,21,22,18,26,26,26,26,26,26,26,26,26,26,26,26,26,26,26,26,26,26,26,26,26,26,26,26,26,26,26,26,26,26,26,26,26,26,26,26,26,26,26,26,26,26,27,2,
2,2,2,2,2,2,2,2,2,2,2,2,2,2,19,26,26,26,26,26,26,26,26,26,26,26,26,26,26,26,26,26,26,26,26,26,26,26,26,26,26,26,26,26,26,26,26,26,26,2,2,2,2,2,2,2,2,2,2,2,
2,2,2,2,2,2,2,2,2,2,2,2,2,2,2,26,26,26,26,26,26,26,26,26,26,26,26,26,26,26,26,26,26,26,26,26,26,26,26,26,26,26,26,26,26,26,26,2,2,2,2,2,2,2,2,2,2,2,2,2,
2,2,2,2,2,2,2,2,2,2,2,2,2,2,2,26,26,26,26,26,26,26,26,26,26,26,26,26,26,26,26,26,26,26,26,26,26,26,26,26,26,26,26,26,26,2,2,2,2,2,2,2,2,2,2,2,2,2,2,2,
2,2,2,2,2,2,2,2,2,2,2,2,2,2,2,11,14,26,26,26,26,26,26,26,26,26,26,26,26,26,26,26,26,26,26,26,26,26,26,26,26,26,26,26,26,26,2,2,2,2,2,2,2,2,2,2,2,2,2,2,
2,26,2,26,2,26,2,26,2,26,2,26,2,11,7,11,13,26,26,26,26,26,26,26,26,26,26,26,26,26,26,26,26,26,26,26,26,26,26,26,26,26,26,26,26,26,26,26,2,2,2,2,2,2,2,2,2,2,2,2,
26,26,26,26,26,26,26,26,26,26,26,26,12,8,9,16,12,26,26,26,26,26,26,26,26,26,26,26,26,26,26,26,26,26,26,26,26,26,26,26,26,26,26,26,26,26,26,26,26,26,2,26,2,26,2,26,26,26,2,2,
26,26,26,26,26,26,26,26,26,26,26,26,13,14,15,26,26,26,26,26,26,26,26,26,26,26,26,26,26,26,26,26,26,26,26,26,26,26,26,26,26,26,26,26,26,26,26,26,26,26,26,26,26,26,26,26,26,26,27,27,
26,26,26,26,26,26,26,26,26,26,26,26,26,26,26,26,26,26,26,26,26,26,26,26,26,26,26,26,26,26,26,26,26,26,26,26,26,26,26,26,26,26,26,26,26,26,26,26,26,26,26,26,26,26,26,26,26,26,27,27,
26,26,26,26,26,26,26,26,26,26,26,26,26,26,26,26,26,26,26,26,26,26,26,26,26,26,26,26,26,26,26,26,26,26,26,26,26,26,26,26,26,26,26,26,26,26,26,26,26,26,26,26,26,26,26,26,26,26,27,27,
26,26,26,26,26,26,26,26,26,26,26,26,26,26,26,26,26,26,26,26,26,26,26,26,26,26,26,26,26,26,26,26,26,26,26,26,26,26,26,26,26,26,26,26,26,26,26,26,26,26,26,26,26,26,26,26,26,26,27,27,
26,26,26,26,26,26,26,26,26,26,26,26,26,26,26,26,26,26,26,26,26,26,26,26,26,26,26,26,26,26,26,26,26,26,26,26,26,26,26,26,26,26,26,26,26,26,26,26,26,26,26,26,26,26,26,26,26,26,27,27,
26,26,26,26,26,26,26,26,26,26,26,26,26,26,26,26,26,26,26,26,26,26,26,26,26,26,26,26,26,26,26,26,26,26,26,26,26,26,26,26,26,26,26,26,26,26,26,26,26,26,26,26,26,26,26,26,26,26,27,27,
26,26,26,26,26,26,26,26,26,26,26,26,26,26,26,26,26,26,26,26,26,26,26,26,26,26,26,26,26,26,26,26,26,26,26,26,26,26,26,26,26,26,26,26,26,26,26,26,26,26,26,26,26,26,26,26,26,26,27,27,
26,26,26,26,26,26,26,26,26,26,26,26,26,26,26,26,26,26,26,26,26,26,26,26,26,26,26,26,26,26,26,26,26,26,26,26,26,26,26,26,26,26,26,26,26,26,26,26,26,26,26,26,26,26,26,26,26,26,27,27,
26,26,26,26,26,26,26,26,26,26,26,26,26,26,26,26,26,26,26,26,26,26,26,26,26,26,26,26,26,26,26,26,26,26,26,26,26,26,26,26,26,26,26,26,26,26,26,26,26,26,26,26,26,26,26,26,26,26,27,27,
26,26,26,26,26,26,26,26,26,26,26,26,26,26,26,26,26,26,26,26,26,26,26,26,26,26,26,26,26,26,26,26,26,26,26,26,26,26,26,26,26,26,26,26,26,26,26,26,26,26,26,26,26,26,26,26,26,26,27,27,
26,26,26,26,26,26,26,26,26,26,26,26,26,26,26,26,26,26,26,26,26,26,26,26,26,26,26,26,26,26,26,26,26,26,26,26,26,26,26,26,26,26,26,26,26,26,26,26,26,26,26,26,26,26,26,26,26,26,27,27
</data>
 </layer>
 <layer id="2" name="RoadsAndRivers" width="60" height="60">
  <data encoding="csv">
0,0,0,0,0,0,0,0,0,0,0,0,0,0,37,0,0,0,0,0,0,53,0,0,0,0,0,0,0,0,0,0,0,0,0,0,0,0,0,0,0,0,0,0,0,0,0,0,0,0,0,0,0,0,0,0,0,0,0,0,
0,0,0,0,0,0,0,0,0,0,0,0,0,0,37,0,0,0,0,0,0,53,0,0,0,0,0,0,0,0,0,0,0,0,0,0,0,0,0,0,0,0,0,0,0,0,0,0,0,0,0,0,0,0,0,0,0,0,0,0,
0,0,0,0,0,0,0,0,0,0,0,0,0,0,37,0,0,0,0,0,0,53,0,0,0,0,0,0,0,0,0,0,0,0,0,0,0,0,0,0,0,0,0,0,0,0,0,0,0,0,0,0,0,0,0,0,0,0,0,0,
0,0,0,0,0,0,0,0,0,0,0,0,0,0,37,0,0,0,0,0,0,53,0,0,0,0,0,0,0,0,0,0,0,0,0,0,0,0,0,0,0,0,0,0,0,0,0,0,0,0,0,0,0,0,0,0,0,0,0,0,
0,0,0,0,0,0,0,0,0,0,0,0,0,0,37,0,0,0,0,0,0,52,0,0,0,0,0,0,0,0,0,0,0,0,0,0,0,0,0,0,0,0,0,0,0,0,0,0,0,0,0,0,0,0,0,0,0,0,0,0,
0,0,0,0,0,0,0,0,0,0,0,0,0,0,37,0,0,0,0,50,50,0,0,0,0,0,0,0,0,0,0,0,0,0,0,0,0,0,0,0,0,0,0,0,0,0,0,0,0,0,0,0,0,0,0,0,0,0,0,0,
0,0,0,0,0,0,0,0,0,0,0,0,0,0,38,33,0,0,70,0,0,0,0,0,0,0,0,0,0,0,0,0,0,0,0,0,0,0,0,0,0,0,0,0,0,0,0,0,0,0,0,0,0,0,0,0,0,0,0,0,
0,0,0,0,0,0,0,0,0,0,0,0,0,0,0,0,33,29,52,0,0,0,0,0,0,0,0,0,0,0,0,0,0,0,0,0,0,0,0,0,0,0,0,0,0,0,0,0,0,0,0,0,0,0,0,0,0,0,0,0,
0,0,0,0,0,0,0,0,0,0,0,0,0,0,0,50,50,0,33,32,0,0,0,0,0,0,0,0,0,0,0,0,0,0,0,0,0,0,0,0,0,0,0,0,0,0,0,0,0,0,0,0,0,0,0,0,0,0,0,0,
0,0,0,0,0,0,0,0,0,0,0,0,0,51,50,0,0,0,0,36,0,0,0,0,0,0,0,0,0,0,0,0,0,0,0,0,0,0,0,0,0,0,0,0,0,0,0,0,0,0,0,0,0,0,0,0,0,0,0,0,
0,0,0,0,0,0,0,0,0,0,0,0,0,53,0,0,0,0,35,0,0,0,0,0,0,0,0,0,0,0,0,0,0,0,0,0,0,0,0,0,0,0,0,0,0,0,0,0,0,0,0,0,0,0,0,0,0,0,0,0,
0,0,0,0,0,0,0,0,0,0,0,0,0,53,0,0,0,0,37,0,0,0,0,0,0,0,0,0,0,0,0,0,0,0,0,0,0,0,0,0,0,0,0,0,0,0,0,0,0,0,0,0,0,0,0,0,0,0,0,0,
0,0,0,0,0,0,0,0,0,0,0,0,0,53,0,0,0,0,37,0,0,0,0,0,0,0,0,0,0,0,0,0,0,0,0,0,0,0,0,0,0,0,0,0,0,0,0,0,0,0,0,0,0,0,0,0,0,0,0,0,
0,0,0,0,0,0,0,0,0,0,0,0,0,54,0,0,0,0,37,0,0,68,0,0,0,0,0,0,0,0,0,0,0,0,0,0,0,0,0,0,0,0,0,0,0,0,0,0,0,0,0,0,0,0,0,0,0,0,0,0,
0,0,0,0,0,0,0,0,0,0,0,0,0,0,49,49,0,34,36,50,50,0,49,49,0,0,0,0,0,0,0,0,0,0,0,0,0,0,0,0,0,0,0,0,0,0,0,0,0,0,0,0,0,0,0,0,0,0,0,0,
0,0,0,0,0,0,0,0,0,0,0,0,0,0,0,34,30,69,50,0,0,0,0,0,49,49,0,0,0,0,0,0,0,0,0,0,0,0,0,0,0,0,0,0,0,0,0,0,0,0,0,0,0,0,0,0,0,0,0,0,
0,0,0,0,0,0,0,0,0,0,0,0,0,0,35,0,0,0,0,0,0,0,0,0,0,0,49,49,0,0,0,0,0,0,0,0,0,0,0,0,0,0,0,0,0,0,0,0,0,0,0,0,0,0,0,0,0,0,0,0,
0,0,0,0,0,0,0,0,0,0,0,0,0,0,37,0,0,0,0,0,0,0,0,0,0,0,0,0,49,49,0,0,0,0,0,0,0,0,0,0,0,0,0,0,0,0,0,0,0,0,0,0,0,0,0,0,0,0,0,0,
0,0,0,0,0,0,0,0,0,0,0,0,0,0,42,0,0,0,0,0,0,0,0,0,0,0,0,0,0,0,49,49,0,0,0,0,0,0,0,0,0,0,0,0,0,0,0,0,0,0,0,0,0,0,0,0,0,0,0,0,
0,0,0,0,0,0,0,0,0,0,0,0,0,0,0,0,0,0,0,0,0,0,0,0,0,0,0,0,0,0,0,0,49,49,0,0,0,0,0,0,0,0,0,0,0,0,0,0,0,0,0,0,0,0,0,0,0,0,0,0,
0,0,0,0,0,0,0,0,0,0,0,0,0,0,0,0,0,0,0,0,0,0,0,0,0,0,0,0,0,0,0,0,0,0,71,0,0,0,0,0,0,0,0,0,0,0,0,0,0,0,0,0,0,0,0,0,0,0,0,0,
0,0,0,0,0,0,0,0,0,0,0,0,0,0,0,0,0,0,0,0,0,0,0,0,0,0,0,0,0,0,0,0,0,0,53,0,0,0,0,0,0,0,0,0,0,0,0,0,0,0,0,0,0,0,0,0,0,0,0,0,
0,0,0,0,0,0,0,0,0,0,0,0,0,0,0,0,0,0,0,0,0,17,18,19,0,0,0,0,0,0,0,0,0,0,53,0,0,0,0,0,0,0,0,0,0,0,0,0,0,0,0,0,0,0,0,0,0,0,0,0,
0,0,0,0,0,0,0,0,0,0,15,12,0,0,0,0,0,0,0,0,0,0,20,18,0,0,0,0,0,0,0,0,0,0,53,0,0,0,0,0,0,0,0,0,0,0,0,0,0,0,0,0,0,0,0,0,0,0,0,0,
0,0,0,0,0,0,0,0,0,16,12,15,0,0,0,0,0,0,0,0,0,0,18,18,0,0,0,0,0,0,0,0,0,0,53,0,0,0,0,0,0,0,0,0,0,0,0,0,0,0,0,0,0,0,0,0,0,0,0,0,
0,0,0,0,0,0,0,0,0,12,9,12,0,0,0,0,0,0,0,0,0,0,19,0,0,0,0,0,0,0,0,0,0,0,53,0,0,0,0,0,0,0,0,0,0,0,0,0,0,0,0,0,0,0,0,0,0,0,0,0,
0,0,0,0,0,0,0,0,0,13,15,12,0,0,0,0,0,0,0,0,0,0,0,0,0,0,0,0,0,0,0,0,0,0,53,0,0,0,0,0,0,0,0,0,0,0,0,0,0,0,0,0,0,0,0,0,0,0,0,0,
0,0,0,0,0,0,0,0,0,0,12,0,0,0,0,6,0,0,0,0,0,0,0,0,0,0,0,0,0,0,0,0,0,0,53,0,0,0,0,0,0,0,0,0,0,0,0,0,0,0,0,0,0,0,0,0,0,0,0,0,
0,0,0,0,0,0,0,0,0,0,0,0,0,4,5,5,5,0,0,0,0,0,0,0,0,0,0,0,0,0,0,0,0,0,53,0,0,0,0,0,0,0,0,0,0,0,0,0,0,0,0,0,0,0,0,0,0,0,0,0,
0,0,0,0,0,0,0,0,0,0,0,0,0,5,5,5,6,0,0,0,0,0,0,0,0,0,0,0,0,0,0,0,0,0,53,0,0,0,0,0,0,0,0,0,0,0,0,0,0,0,0,0,0,0,0,0,0,0,0,3,
0,0,0,0,0,0,0,0,0,0,0,0,0,5,6,0,0,0,0,0,0,0,0,0,0,0,0,0,0,0,0,0,0,0,53,0,0,0,0,0,0,0,0,0,0,0,0,0,0,25,0,0,0,3,0,3,0,3,3,0,
0,0,0,0,0,0,0,0,0,0,0,0,0,0,0,0,0,0,0,0,0,0,0,0,0,0,0,0,0,0,0,0,0,0,53,0,0,0,0,0,0,0,0,0,0,0,0,3,3,0,3,3,3,0,23,0,3,0,0,0,
0,0,0,0,0,0,0,0,0,0,0,0,0,0,0,0,0,0,0,0,0,0,0,0,0,0,0,0,0,0,0,0,0,0,53,0,0,0,0,0,0,0,0,0,0,3,24,0,0,0,0,0,0,0,0,0,0,0,0,0,
0,0,0,0,0,0,0,0,0,0,0,0,0,0,0,0,0,0,0,0,0,0,0,0,0,0,0,0,0,0,0,0,0,0,54,48,0,0,0,0,0,0,0,0,3,0,0,0,0,0,0,0,0,0,0,0,0,0,0,0,
0,0,0,0,0,0,0,0,0,0,0,0,0,0,0,0,0,0,0,0,0,0,0,0,0,0,0,0,0,0,0,0,0,0,0,53,0,0,0,0,0,0,0,0,3,0,0,0,0,0,0,0,0,0,0,0,0,0,0,0,
0,0,0,0,0,0,0,0,0,0,0,0,0,0,0,0,0,0,0,0,0,0,0,0,0,0,0,0,0,0,0,0,0,0,0,52,0,0,0,0,0,0,0,0,3,0,0,0,0,0,0,0,0,0,0,0,0,3,0,0,
0,0,0,0,0,0,0,0,0,0,0,0,0,0,0,0,0,0,0,0,0,0,0,0,0,0,0,0,0,0,0,0,0,51,50,0,0,0,0,0,0,0,0,0,3,23,0,0,0,3,0,3,0,3,3,3,3,3,0,3,
0,0,0,0,0,0,0,0,0,0,0,0,0,0,0,0,0,0,0,0,0,0,0,0,0,0,0,0,0,0,0,0,0,53,0,0,0,0,0,0,0,0,0,0,0,0,3,3,3,0,3,0,24,0,0,0,0,0,25,0,
0,0,0,0,0,0,0,0,0,0,0,0,0,0,0,0,0,0,0,0,0,0,0,0,0,0,0,0,0,0,0,0,0,53,0,0,0,0,0,0,0,0,0,0,0,0,0,0,0,0,0,0,0,0,0,0,0,0,0,0,
0,0,0,0,0,0,0,0,0,0,0,0,0,0,0,0,0,0,0,0,0,0,0,0,0,0,0,0,0,0,0,0,0,53,0,0,0,0,0,0,0,0,0,0,0,0,0,0,0,0,0,0,0,0,0,0,0,0,0,0,
0,0,0,0,0,0,0,0,0,0,0,0,0,0,0,0,0,0,0,0,0,0,0,0,0,0,0,0,0,0,0,0,0,55,0,0,0,0,0,0,0,0,0,0,0,0,0,0,0,0,0,0,0,0,0,0,0,0,0,0,
0,0,0,0,0,0,0,0,0,0,0,0,0,0,0,0,0,0,0,0,0,0,0,0,0,0,0,0,0,0,0,0,51,83,49,49,0,0,0,0,0,0,0,0,0,0,0,0,0,0,0,0,0,0,0,0,0,0,0,0,
0,0,0,0,0,0,0,0,0,0,0,0,0,0,0,0,0,0,0,0,0,0,0,0,0,0,0,0,0,0,0,0,54,48,0,0,49,49,0,0,0,0,0,0,83,64,0,0,0,0,0,0,0,0,0,0,0,0,0,0,
0,0,0,0,0,0,0,0,0,0,0,0,0,0,0,0,0,0,0,0,0,0,0,0,0,0,0,0,0,0,0,0,0,53,0,0,0,0,49,49,0,0,0,35,34,0,33,33,0,0,0,0,0,0,0,0,0,0,0,0,
0,0,0,0,0,0,0,0,0,0,0,0,0,0,0,0,0,0,0,0,0,0,0,0,0,0,0,0,0,0,0,0,0,53,0,0,0,0,0,0,49,49,0,37,0,0,0,0,0,0,0,0,0,0,0,0,0,0,0,0,
0,0,0,0,0,0,0,0,0,0,0,0,0,0,0,0,0,0,0,0,0,0,0,0,0,0,0,0,0,0,0,0,0,53,0,0,0,0,0,0,0,0,49,31,0,0,0,0,0,0,0,0,0,0,0,0,0,0,0,0,
0,0,0,0,0,0,0,0,0,0,0,0,0,0,0,0,0,0,0,0,0,0,0,0,0,0,0,0,0,0,0,0,0,53,0,0,0,0,0,0,0,0,0,37,49,48,0,0,0,0,0,0,0,0,0,0,0,0,0,0,
0,0,0,0,0,0,0,0,0,0,0,0,0,0,0,0,0,0,0,0,0,0,0,0,0,0,0,0,0,0,0,0,0,53,0,0,0,0,0,0,0,0,0,38,84,58,0,34,0,0,0,0,0,0,0,0,0,0,0,0,
0,0,0,0,0,0,0,0,0,0,0,0,0,0,0,0,0,0,0,0,0,0,0,0,0,0,0,0,0,0,0,0,0,53,0,0,0,0,0,0,0,0,0,0,33,40,34,0,0,0,0,0,0,0,0,0,0,0,0,0,
0,0,0,0,0,0,0,0,0,0,0,0,0,0,0,0,0,0,0,0,0,0,0,0,0,0,0,0,0,0,0,0,0,53,0,0,0,0,0,0,0,0,0,0,0,37,0,0,0,0,0,0,0,0,0,0,0,0,0,0,
0,0,0,0,0,0,0,0,0,0,0,0,0,0,0,0,0,0,0,0,0,0,0,0,0,0,0,0,0,0,0,0,0,53,0,0,0,0,0,0,0,0,0,0,0,37,0,0,0,0,0,0,0,0,0,0,0,0,0,0,
0,0,0,0,0,0,0,0,0,0,0,0,0,0,0,0,0,0,0,0,0,0,0,0,0,0,0,0,0,0,0,0,0,53,0,0,0,0,0,0,0,0,0,0,0,38,0,0,0,0,0,0,0,0,0,0,0,0,0,0,
0,0,0,0,0,0,0,0,0,0,0,0,0,0,0,0,0,0,0,0,0,0,0,0,0,0,0,0,0,0,0,0,0,53,0,0,0,0,0,0,0,0,0,0,0,0,33,33,0,0,0,0,0,0,0,0,0,0,0,0,
0,0,0,0,0,0,0,0,0,0,0,0,0,0,0,0,0,0,0,0,0,0,0,0,0,0,0,0,0,0,0,0,0,53,0,0,0,0,0,0,0,0,0,0,0,0,0,0,32,0,0,0,0,0,0,0,0,0,0,0,
0,0,0,0,0,0,0,0,0,0,0,0,0,0,0,0,0,0,0,0,0,0,0,0,0,0,0,0,0,0,0,0,0,53,0,0,0,0,0,0,0,0,0,0,0,0,0,0,37,0,0,0,0,0,0,0,0,0,0,0,
0,0,0,0,0,0,0,0,0,0,0,0,0,0,0,0,0,0,0,0,0,0,0,0,0,0,0,0,0,0,0,0,0,53,0,0,0,0,0,0,0,0,0,0,0,0,0,0,37,0,0,0,0,0,0,0,0,0,0,0,
0,0,0,0,0,0,0,0,0,0,0,0,0,0,0,0,0,0,0,0,0,0,0,0,0,0,0,0,0,0,0,0,0,53,0,0,0,0,0,0,0,0,0,0,0,0,0,0,37,0,0,0,0,0,0,0,0,0,0,0,
0,0,0,0,0,0,0,0,0,0,0,0,0,0,0,0,0,0,0,0,0,0,0,0,0,0,0,0,0,0,0,0,0,53,0,0,0,0,0,0,0,0,0,0,0,0,0,0,37,0,0,0,0,0,0,0,0,0,0,0,
0,0,0,0,0,0,0,0,0,0,0,0,0,0,0,0,0,0,0,0,0,0,0,0,0,0,0,0,0,0,0,0,0,53,0,0,0,0,0,0,0,0,0,0,0,0,0,0,37,0,0,0,0,0,0,0,0,0,0,0,
0,0,0,0,0,0,0,0,0,0,0,0,0,0,0,0,0,0,0,0,0,0,0,0,0,0,0,0,0,0,0,0,0,53,0,0,0,0,0,0,0,0,0,0,0,0,0,0,37,0,0,0,0,0,0,0,0,0,0,0
</data>
 </layer>
 <objectgroup id="3" name="GameObjects">
  <object id="1" name="greatBritain" type="ownership" gid="123" x="1880.08" y="1604.05" width="64" height="64">
   <properties>
    <property name="productionCenter" type="object" value="7"/>
    <property name="terrainModifier" type="object" value="0"/>
    <property name="unit1" type="object" value="0"/>
    <property name="unit2" type="object" value="0"/>
    <property name="unit3" type="object" value="0"/>
    <property name="unit4" type="object" value="0"/>
   </properties>
  </object>
  <object id="2" name="greatBritain" type="ownership" gid="123" x="1928.57" y="1696.84" width="64" height="64">
   <properties>
    <property name="productionCenter" type="object" value="10"/>
    <property name="terrainModifier" type="object" value="0"/>
    <property name="unit1" type="object" value="0"/>
    <property name="unit2" type="object" value="0"/>
    <property name="unit3" type="object" value="0"/>
    <property name="unit4" type="object" value="0"/>
   </properties>
  </object>
  <object id="3" name="greatBritain" type="ownership" gid="123" x="1872.68" y="1727.31" width="64" height="64">
   <properties>
    <property name="productionCenter" type="object" value="8"/>
    <property name="terrainModifier" type="object" value="0"/>
    <property name="unit1" type="object" value="0"/>
    <property name="unit2" type="object" value="0"/>
    <property name="unit3" type="object" value="0"/>
    <property name="unit4" type="object" value="0"/>
   </properties>
  </object>
  <object id="4" name="greatBritain" type="ownership" gid="123" x="1928.28" y="1636.35" width="64" height="64">
   <properties>
    <property name="productionCenter" type="object" value="9"/>
    <property name="terrainModifier" type="object" value="0"/>
    <property name="unit1" type="object" value="0"/>
    <property name="unit2" type="object" value="0"/>
    <property name="unit3" type="object" value="0"/>
    <property name="unit4" type="object" value="0"/>
   </properties>
  </object>
  <object id="5" name="greatBritain" type="ownership" gid="123" x="1873.94" y="1662.22" width="64" height="64">
   <properties>
    <property name="productionCenter" type="object" value="6"/>
    <property name="terrainModifier" type="object" value="0"/>
    <property name="unit1" type="object" value="0"/>
    <property name="unit2" type="object" value="0"/>
    <property name="unit3" type="object" value="0"/>
    <property name="unit4" type="object" value="0"/>
   </properties>
  </object>
  <object id="6" name="level2" type="city" gid="105" x="2012.92" y="1500.37" width="64" height="64">
   <properties>
    <property name="name_en" value=""/>
    <property name="name_ru" value=""/>
   </properties>
  </object>
  <object id="7" name="level1" type="city" gid="104" x="2100.23" y="1502.18" width="64" height="64">
   <properties>
    <property name="name_en" value=""/>
    <property name="name_ru" value=""/>
   </properties>
  </object>
  <object id="8" name="level3" type="city" gid="106" x="1921.04" y="1496.02" width="64" height="64">
   <properties>
    <property name="name_en" value=""/>
    <property name="name_ru" value=""/>
   </properties>
  </object>
  <object id="9" name="level4" type="city" gid="107" x="1835.63" y="1497.22" width="64" height="64">
   <properties>
    <property name="name_en" value=""/>
    <property name="name_ru" value=""/>
   </properties>
  </object>
  <object id="10" name="capital" type="city" gid="108" x="1746.22" y="1475.6" width="64" height="64">
   <properties>
    <property name="name_en" value=""/>
    <property name="name_ru" value=""/>
   </properties>
  </object>
  <object id="11" name="greatBritain" type="ownership" gid="123" x="1928.19" y="2329.32" width="64" height="64">
   <properties>
    <property name="productionCenter" type="object" value="18"/>
    <property name="terrainModifier" type="object" value="0"/>
    <property name="unit1" type="object" value="0"/>
    <property name="unit2" type="object" value="0"/>
    <property name="unit3" type="object" value="0"/>
    <property name="unit4" type="object" value="0"/>
   </properties>
  </object>
  <object id="12" name="greatBritain" type="ownership" gid="123" x="1930.56" y="2263.4" width="64" height="64">
   <properties>
    <property name="productionCenter" type="object" value="17"/>
    <property name="terrainModifier" type="object" value="0"/>
    <property name="unit1" type="object" value="0"/>
    <property name="unit2" type="object" value="0"/>
    <property name="unit3" type="object" value="0"/>
    <property name="unit4" type="object" value="0"/>
   </properties>
  </object>
  <object id="13" name="greatBritain" type="ownership" gid="123" x="1875.04" y="2307.5" width="64" height="64">
   <properties>
    <property name="productionCenter" type="object" value="16"/>
    <property name="terrainModifier" type="object" value="0"/>
    <property name="unit1" type="object" value="0"/>
    <property name="unit2" type="object" value="0"/>
    <property name="unit3" type="object" value="0"/>
    <property name="unit4" type="object" value="0"/>
   </properties>
  </object>
  <object id="14" name="greatBritain" type="ownership" gid="123" x="1875.39" y="2236.32" width="64" height="64">
   <properties>
    <property name="productionCenter" type="object" value="15"/>
    <property name="terrainModifier" type="object" value="0"/>
    <property name="unit1" type="object" value="0"/>
    <property name="unit2" type="object" value="0"/>
    <property name="unit3" type="object" value="0"/>
    <property name="unit4" type="object" value="0"/>
   </properties>
  </object>
  <object id="15" name="level1" type="factory" gid="100" x="1692.36" y="2090.25" width="64" height="64">
   <properties>
    <property name="name_en" value=""/>
    <property name="name_ru" value=""/>
   </properties>
  </object>
  <object id="16" name="level2" type="factory" gid="101" x="1692.36" y="2167.94" width="64" height="64">
   <properties>
    <property name="name_en" value=""/>
    <property name="name_ru" value=""/>
   </properties>
  </object>
  <object id="17" name="level3" type="factory" gid="102" x="1692.36" y="2257.67" width="64" height="64">
   <properties>
    <property name="name_en" value=""/>
    <property name="name_ru" value=""/>
   </properties>
  </object>
  <object id="18" name="level4" type="factory" gid="103" x="1692.36" y="2335.24" width="64" height="64">
   <properties>
    <property name="name_en" value=""/>
    <property name="name_ru" value=""/>
   </properties>
  </object>
  <object id="20" name="greatBritain" type="ownership" gid="123" x="2484.36" y="2270.44" width="64" height="64">
   <properties>
    <property name="productionCenter" type="object" value="22"/>
    <property name="terrainModifier" type="object" value="0"/>
    <property name="unit1" type="object" value="0"/>
    <property name="unit2" type="object" value="0"/>
    <property name="unit3" type="object" value="0"/>
    <property name="unit4" type="object" value="0"/>
   </properties>
  </object>
  <object id="21" name="greatBritain" type="ownership" gid="123" x="2482.4" y="2335.28" width="64" height="64">
   <properties>
    <property name="productionCenter" type="object" value="24"/>
    <property name="terrainModifier" type="object" value="0"/>
    <property name="unit1" type="object" value="0"/>
    <property name="unit2" type="object" value="0"/>
    <property name="unit3" type="object" value="0"/>
    <property name="unit4" type="object" value="0"/>
   </properties>
  </object>
  <object id="24" name="level3" type="navalBase" gid="97" x="2358.48" y="2359.53" width="64" height="64">
   <properties>
    <property name="name_en" value=""/>
    <property name="name_ru" value=""/>
   </properties>
  </object>
  <object id="23" name="level1" type="navalBase" gid="95" x="2358.48" y="2190.43" width="64" height="64">
   <properties>
    <property name="name_en" value=""/>
    <property name="name_ru" value=""/>
   </properties>
  </object>
  <object id="22" name="level2" type="navalBase" gid="96" x="2358.48" y="2271.77" width="64" height="64">
   <properties>
    <property name="name_en" value=""/>
    <property name="name_ru" value=""/>
   </properties>
  </object>
  <object id="25" name="greatBritain" type="ownership" gid="123" x="2482.91" y="2205.63" width="64" height="64">
   <properties>
    <property name="productionCenter" type="object" value="23"/>
    <property name="terrainModifier" type="object" value="0"/>
    <property name="unit1" type="object" value="0"/>
    <property name="unit2" type="object" value="0"/>
    <property name="unit3" type="object" value="0"/>
    <property name="unit4" type="object" value="0"/>
   </properties>
  </object>
  <object id="26" name="greatBritain" type="ownership" gid="123" x="1384.32" y="993.934" width="64" height="64">
   <properties>
    <property name="productionCenter" type="object" value="0"/>
    <property name="terrainModifier" type="object" value="0"/>
    <property name="unit1" type="object" value="28"/>
    <property name="unit2" type="object" value="29"/>
    <property name="unit3" type="object" value="30"/>
    <property name="unit4" type="object" value="31"/>
   </properties>
  </object>
  <object id="27" name="landFort" type="terrainModifier" gid="92" x="909.152" y="797.445" width="64" height="64"/>
  <object id="28" name="infantry" type="unit" gid="115" x="1025.71" y="792.026" width="64" height="64">
   <properties>
    <property name="boost1" value=""/>
    <property name="boost2" value=""/>
    <property name="boost3" value=""/>
    <property name="experienceRank" value="rookies"/>
    <property name="fatigue" type="float" value="1"/>
    <property name="health" type="float" value="1"/>
    <property name="isDefence" type="bool" value="false"/>
    <property name="movementPoints" type="float" value="1"/>
   </properties>
  </object>
  <object id="29" name="cavalry" type="unit" gid="114" x="1103.13" y="780.644" width="64" height="64">
   <properties>
    <property name="boost1" value=""/>
    <property name="boost2" value=""/>
    <property name="boost3" value=""/>
    <property name="experienceRank" value="rookies"/>
    <property name="fatigue" type="float" value="1"/>
    <property name="health" type="float" value="1"/>
    <property name="isDefence" type="bool" value="false"/>
    <property name="movementPoints" type="float" value="1"/>
   </properties>
  </object>
  <object id="30" name="tank" type="unit" gid="113" x="1175.33" y="792.019" width="64" height="64">
   <properties>
    <property name="boost1" value=""/>
    <property name="boost2" value=""/>
    <property name="boost3" value=""/>
    <property name="experienceRank" value="rookies"/>
    <property name="fatigue" type="float" value="1"/>
    <property name="health" type="float" value="1"/>
    <property name="isDefence" type="bool" value="false"/>
    <property name="movementPoints" type="float" value="1"/>
   </properties>
  </object>
  <object id="31" name="machineGunnersCart" type="unit" gid="112" x="1249.62" y="797.727" width="64" height="64">
   <properties>
    <property name="boost1" value=""/>
    <property name="boost2" value=""/>
    <property name="boost3" value=""/>
    <property name="experienceRank" value="rookies"/>
    <property name="fatigue" type="float" value="1"/>
    <property name="health" type="float" value="1"/>
    <property name="isDefence" type="bool" value="false"/>
    <property name="movementPoints" type="float" value="1"/>
   </properties>
  </object>
  <object id="33" name="infantry" type="unit" gid="115" x="2491.19" y="1637.63" width="64" height="64">
   <properties>
    <property name="boost1" value="attack"/>
    <property name="boost2" value="defence"/>
    <property name="boost3" value="transport"/>
    <property name="experienceRank" value="veterans"/>
    <property name="fatigue" type="float" value="1"/>
    <property name="health" type="float" value="1"/>
    <property name="isDefence" type="bool" value="false"/>
    <property name="movementPoints" type="float" value="1"/>
   </properties>
  </object>
  <object id="34" name="greatBritain" type="ownership" gid="123" x="2481.93" y="1695.33" width="64" height="64">
   <properties>
    <property name="productionCenter" type="object" value="0"/>
    <property name="terrainModifier" type="object" value="0"/>
    <property name="unit1" type="object" value="33"/>
    <property name="unit2" type="object" value="33"/>
    <property name="unit3" type="object" value="33"/>
    <property name="unit4" type="object" value="33"/>
   </properties>
  </object>
  <object id="35" name="greatBritain" type="ownership" gid="123" x="774.283" y="2881.23" width="64" height="64">
   <properties>
    <property name="productionCenter" type="object" value="0"/>
    <property name="terrainModifier" type="object" value="0"/>
    <property name="unit1" type="object" value="42"/>
    <property name="unit2" type="object" value="0"/>
    <property name="unit3" type="object" value="0"/>
    <property name="unit4" type="object" value="0"/>
   </properties>
  </object>
  <object id="36" name="greatBritain" type="ownership" gid="123" x="772.273" y="2944.55" width="64" height="64">
   <properties>
    <property name="productionCenter" type="object" value="0"/>
    <property name="terrainModifier" type="object" value="0"/>
    <property name="unit1" type="object" value="41"/>
    <property name="unit2" type="object" value="0"/>
    <property name="unit3" type="object" value="0"/>
    <property name="unit4" type="object" value="0"/>
   </properties>
  </object>
  <object id="37" name="greatBritain" type="ownership" gid="123" x="773.664" y="3008.06" width="64" height="64">
   <properties>
    <property name="productionCenter" type="object" value="0"/>
    <property name="terrainModifier" type="object" value="0"/>
    <property name="unit1" type="object" value="40"/>
    <property name="unit2" type="object" value="0"/>
    <property name="unit3" type="object" value="0"/>
    <property name="unit4" type="object" value="0"/>
   </properties>
  </object>
  <object id="38" name="greatBritain" type="ownership" gid="123" x="828.759" y="2910.96" width="64" height="64">
   <properties>
    <property name="productionCenter" type="object" value="0"/>
    <property name="terrainModifier" type="object" value="0"/>
    <property name="unit1" type="object" value="44"/>
    <property name="unit2" type="object" value="0"/>
    <property name="unit3" type="object" value="0"/>
    <property name="unit4" type="object" value="0"/>
   </properties>
  </object>
  <object id="39" name="greatBritain" type="ownership" gid="123" x="831.471" y="2976.18" width="64" height="64">
   <properties>
    <property name="productionCenter" type="object" value="0"/>
    <property name="terrainModifier" type="object" value="0"/>
    <property name="unit1" type="object" value="43"/>
    <property name="unit2" type="object" value="0"/>
    <property name="unit3" type="object" value="0"/>
    <property name="unit4" type="object" value="0"/>
   </properties>
  </object>
  <object id="40" name="battleship" type="unit" gid="116" x="597.687" y="3001" width="64" height="64">
   <properties>
    <property name="boost1" value=""/>
    <property name="boost2" value=""/>
    <property name="boost3" value=""/>
    <property name="experienceRank" value="rookies"/>
    <property name="fatigue" type="float" value="1"/>
    <property name="health" type="float" value="1"/>
    <property name="isDefence" type="bool" value="false"/>
    <property name="movementPoints" type="float" value="1"/>
   </properties>
  </object>
  <object id="41" name="cruiser" type="unit" gid="117" x="597.687" y="2939.3" width="64" height="64">
   <properties>
    <property name="boost1" value=""/>
    <property name="boost2" value=""/>
    <property name="boost3" value=""/>
    <property name="experienceRank" value="rookies"/>
    <property name="fatigue" type="float" value="1"/>
    <property name="health" type="float" value="1"/>
    <property name="isDefence" type="bool" value="false"/>
    <property name="movementPoints" type="float" value="1"/>
   </properties>
  </object>
  <object id="42" name="destroyer" type="unit" gid="118" x="597.687" y="2878.01" width="64" height="64">
   <properties>
    <property name="boost1" value=""/>
    <property name="boost2" value=""/>
    <property name="boost3" value=""/>
    <property name="experienceRank" value="rookies"/>
    <property name="fatigue" type="float" value="1"/>
    <property name="health" type="float" value="1"/>
    <property name="isDefence" type="bool" value="false"/>
    <property name="movementPoints" type="float" value="1"/>
   </properties>
  </object>
  <object id="43" name="tank" type="unit" gid="113" x="664.174" y="1533.62" width="64" height="64">
   <properties>
    <property name="boost1" value=""/>
    <property name="boost2" value=""/>
    <property name="boost3" value=""/>
    <property name="experienceRank" value="rookies"/>
    <property name="fatigue" type="float" value="1"/>
    <property name="health" type="float" value="1"/>
    <property name="isDefence" type="bool" value="false"/>
    <property name="movementPoints" type="float" value="1"/>
   </properties>
  </object>
  <object id="44" name="artillery" type="unit" gid="110" x="514.038" y="2937.29" width="64" height="64">
   <properties>
    <property name="boost1" value=""/>
    <property name="boost2" value=""/>
    <property name="boost3" value=""/>
    <property name="experienceRank" value="rookies"/>
    <property name="fatigue" type="float" value="1"/>
    <property name="health" type="float" value="1"/>
    <property name="isDefence" type="bool" value="false"/>
    <property name="movementPoints" type="float" value="1"/>
   </properties>
  </object>
  <object id="45" name="greatBritain" type="ownership" gid="123" x="719.354" y="1691.26" width="64" height="64">
   <properties>
    <property name="productionCenter" type="object" value="0"/>
    <property name="terrainModifier" type="object" value="0"/>
    <property name="unit1" type="object" value="49"/>
    <property name="unit2" type="object" value="0"/>
    <property name="unit3" type="object" value="0"/>
    <property name="unit4" type="object" value="0"/>
   </properties>
  </object>
  <object id="46" name="greatBritain" type="ownership" gid="123" x="722.086" y="1629.42" width="64" height="64">
   <properties>
    <property name="productionCenter" type="object" value="0"/>
    <property name="terrainModifier" type="object" value="0"/>
    <property name="unit1" type="object" value="43"/>
    <property name="unit2" type="object" value="0"/>
    <property name="unit3" type="object" value="0"/>
    <property name="unit4" type="object" value="0"/>
   </properties>
  </object>
  <object id="47" name="greatBritain" type="ownership" gid="123" x="723.482" y="1568.28" width="64" height="64">
   <properties>
    <property name="productionCenter" type="object" value="0"/>
    <property name="terrainModifier" type="object" value="0"/>
    <property name="unit1" type="object" value="51"/>
    <property name="unit2" type="object" value="0"/>
    <property name="unit3" type="object" value="0"/>
    <property name="unit4" type="object" value="0"/>
   </properties>
  </object>
  <object id="48" name="greatBritain" type="ownership" gid="123" x="718.999" y="1757.26" width="64" height="64">
   <properties>
    <property name="productionCenter" type="object" value="0"/>
    <property name="terrainModifier" type="object" value="0"/>
    <property name="unit1" type="object" value="50"/>
    <property name="unit2" type="object" value="0"/>
    <property name="unit3" type="object" value="0"/>
    <property name="unit4" type="object" value="0"/>
   </properties>
  </object>
  <object id="49" name="machineGunnersCart" type="unit" gid="112" x="664.69" y="1590.43" width="64" height="64">
   <properties>
    <property name="boost1" value=""/>
    <property name="boost2" value=""/>
    <property name="boost3" value=""/>
    <property name="experienceRank" value="rookies"/>
    <property name="fatigue" type="float" value="1"/>
    <property name="health" type="float" value="1"/>
    <property name="isDefence" type="bool" value="false"/>
    <property name="movementPoints" type="float" value="1"/>
   </properties>
  </object>
  <object id="50" name="machineGuns" type="unit" gid="111" x="666.226" y="1666.05" width="64" height="64">
   <properties>
    <property name="boost1" value=""/>
    <property name="boost2" value=""/>
    <property name="boost3" value=""/>
    <property name="experienceRank" value="rookies"/>
    <property name="fatigue" type="float" value="1"/>
    <property name="health" type="float" value="1"/>
    <property name="isDefence" type="bool" value="false"/>
    <property name="movementPoints" type="float" value="1"/>
   </properties>
  </object>
  <object id="51" name="armoredCar" type="unit" gid="109" x="662.582" y="1724.11" width="64" height="64">
   <properties>
    <property name="boost1" value=""/>
    <property name="boost2" value=""/>
    <property name="boost3" value=""/>
    <property name="experienceRank" value="rookies"/>
    <property name="fatigue" type="float" value="1"/>
    <property name="health" type="float" value="1"/>
    <property name="isDefence" type="bool" value="false"/>
    <property name="movementPoints" type="float" value="1"/>
   </properties>
  </object>
  <object id="52" name="infantry" type="unit" gid="115" x="895.452" y="1606.92" width="64" height="64">
   <properties>
    <property name="boost1" value=""/>
    <property name="boost2" value=""/>
    <property name="boost3" value=""/>
    <property name="experienceRank" value="rookies"/>
    <property name="fatigue" type="float" value="1"/>
    <property name="health" type="float" value="1"/>
    <property name="isDefence" type="bool" value="false"/>
    <property name="movementPoints" type="float" value="1"/>
   </properties>
  </object>
  <object id="53" name="cavalry" type="unit" gid="114" x="891.622" y="1670.52" width="64" height="64">
   <properties>
    <property name="boost1" value=""/>
    <property name="boost2" value=""/>
    <property name="boost3" value=""/>
    <property name="experienceRank" value="rookies"/>
    <property name="fatigue" type="float" value="1"/>
    <property name="health" type="float" value="1"/>
    <property name="isDefence" type="bool" value="false"/>
    <property name="movementPoints" type="float" value="1"/>
   </properties>
  </object>
  <object id="55" name="machineGunnersCart" type="unit" gid="112" x="891.595" y="1726.71" width="64" height="64">
   <properties>
    <property name="boost1" value=""/>
    <property name="boost2" value=""/>
    <property name="boost3" value=""/>
    <property name="experienceRank" value="rookies"/>
    <property name="fatigue" type="float" value="1"/>
    <property name="health" type="float" value="1"/>
    <property name="isDefence" type="bool" value="false"/>
    <property name="movementPoints" type="float" value="1"/>
   </properties>
  </object>
  <object id="56" name="machineGuns" type="unit" gid="111" x="889.731" y="1786.95" width="64" height="64">
   <properties>
    <property name="boost1" value=""/>
    <property name="boost2" value=""/>
    <property name="boost3" value=""/>
    <property name="experienceRank" value="rookies"/>
    <property name="fatigue" type="float" value="1"/>
    <property name="health" type="float" value="1"/>
    <property name="isDefence" type="bool" value="false"/>
    <property name="movementPoints" type="float" value="1"/>
   </properties>
  </object>
  <object id="59" name="germany" type="ownership" gid="134" x="832.208" y="1572.28" width="64" height="64">
   <properties>
    <property name="productionCenter" type="object" value="0"/>
    <property name="terrainModifier" type="object" value="0"/>
    <property name="unit1" type="object" value="52"/>
    <property name="unit2" type="object" value="0"/>
    <property name="unit3" type="object" value="0"/>
    <property name="unit4" type="object" value="0"/>
   </properties>
  </object>
  <object id="60" name="germany" type="ownership" gid="134" x="836.363" y="1632.72" width="64" height="64">
   <properties>
    <property name="productionCenter" type="object" value="0"/>
    <property name="terrainModifier" type="object" value="0"/>
    <property name="unit1" type="object" value="53"/>
    <property name="unit2" type="object" value="0"/>
    <property name="unit3" type="object" value="0"/>
    <property name="unit4" type="object" value="0"/>
   </properties>
  </object>
  <object id="61" name="germany" type="ownership" gid="134" x="833.646" y="1700.17" width="64" height="64">
   <properties>
    <property name="productionCenter" type="object" value="0"/>
    <property name="terrainModifier" type="object" value="0"/>
    <property name="unit1" type="object" value="55"/>
    <property name="unit2" type="object" value="0"/>
    <property name="unit3" type="object" value="0"/>
    <property name="unit4" type="object" value="0"/>
   </properties>
  </object>
  <object id="62" name="germany" type="ownership" gid="134" x="835.894" y="1761.73" width="64" height="64">
   <properties>
    <property name="productionCenter" type="object" value="0"/>
    <property name="terrainModifier" type="object" value="0"/>
    <property name="unit1" type="object" value="56"/>
    <property name="unit2" type="object" value="0"/>
    <property name="unit3" type="object" value="0"/>
    <property name="unit4" type="object" value="0"/>
   </properties>
  </object>
  <object id="63" name="greatBritain" type="ownership" gid="123" x="2482.29" y="993.49" width="64" height="64">
   <properties>
    <property name="productionCenter" type="object" value="0"/>
    <property name="terrainModifier" type="object" value="0"/>
    <property name="unit1" type="object" value="64"/>
    <property name="unit2" type="object" value="0"/>
    <property name="unit3" type="object" value="0"/>
    <property name="unit4" type="object" value="0"/>
   </properties>
  </object>
  <object id="64" name="carrier" type="unit" gid="119" x="2699.38" y="1028.14" width="64" height="64">
   <properties>
    <property name="boost1" value=""/>
    <property name="boost2" value=""/>
    <property name="boost3" value=""/>
    <property name="experienceRank" value="rookies"/>
    <property name="fatigue" type="float" value="1"/>
    <property name="health" type="float" value="1"/>
    <property name="isDefence" type="bool" value="false"/>
    <property name="movementPoints" type="float" value="1"/>
    <property name="unit1" type="object" value="0"/>
    <property name="unit2" type="object" value="0"/>
    <property name="unit3" type="object" value="0"/>
    <property name="unit4" type="object" value="0"/>
   </properties>
  </object>
  <object id="65" name="france" type="ownership" gid="135" x="1322.79" y="1730.74" width="64" height="64">
   <properties>
    <property name="productionCenter" type="object" value="0"/>
    <property name="terrainModifier" type="object" value="0"/>
    <property name="unit1" type="object" value="67"/>
    <property name="unit2" type="object" value="0"/>
    <property name="unit3" type="object" value="0"/>
    <property name="unit4" type="object" value="0"/>
   </properties>
  </object>
  <object id="66" name="france" type="ownership" gid="135" x="1381.49" y="1701.39" width="64" height="64">
   <properties>
    <property name="productionCenter" type="object" value="68"/>
    <property name="terrainModifier" type="object" value="0"/>
    <property name="unit1" type="object" value="0"/>
    <property name="unit2" type="object" value="0"/>
    <property name="unit3" type="object" value="0"/>
    <property name="unit4" type="object" value="0"/>
   </properties>
  </object>
  <object id="67" name="infantry" type="unit" gid="115" x="1330.94" y="1673.67" width="64" height="64">
   <properties>
    <property name="boost1" value=""/>
    <property name="boost2" value=""/>
    <property name="boost3" value=""/>
    <property name="experienceRank" value="rookies"/>
    <property name="fatigue" type="float" value="1"/>
    <property name="health" type="float" value="1"/>
    <property name="isDefence" type="bool" value="false"/>
    <property name="movementPoints" type="float" value="1"/>
   </properties>
  </object>
  <object id="68" name="level2" type="city" gid="105" x="1379.9" y="1634.36" width="64" height="64">
   <properties>
    <property name="name_en" value=""/>
    <property name="name_ru" value=""/>
   </properties>
  </object>
  <object id="69" name="greatBritain" type="ownership" gid="123" x="2533.42" y="2940.79" width="64" height="64">
   <properties>
    <property name="productionCenter" type="object" value="83"/>
    <property name="terrainModifier" type="object" value="0"/>
    <property name="unit1" type="object" value="0"/>
    <property name="unit2" type="object" value="0"/>
    <property name="unit3" type="object" value="0"/>
    <property name="unit4" type="object" value="0"/>
   </properties>
  </object>
  <object id="70" name="greatBritain" type="ownership" gid="123" x="2534.21" y="3073.83" width="64" height="64">
   <properties>
    <property name="productionCenter" type="object" value="91"/>
    <property name="terrainModifier" type="object" value="0"/>
    <property name="unit1" type="object" value="0"/>
    <property name="unit2" type="object" value="0"/>
    <property name="unit3" type="object" value="0"/>
    <property name="unit4" type="object" value="0"/>
   </properties>
  </object>
  <object id="71" name="greatBritain" type="ownership" gid="123" x="2536.06" y="3010.8" width="64" height="64">
   <properties>
    <property name="productionCenter" type="object" value="81"/>
    <property name="terrainModifier" type="object" value="0"/>
    <property name="unit1" type="object" value="0"/>
    <property name="unit2" type="object" value="0"/>
    <property name="unit3" type="object" value="0"/>
    <property name="unit4" type="object" value="0"/>
   </properties>
  </object>
  <object id="72" name="greatBritain" type="ownership" gid="123" x="2429.07" y="2943.43" width="64" height="64">
   <properties>
    <property name="productionCenter" type="object" value="85"/>
    <property name="terrainModifier" type="object" value="0"/>
    <property name="unit1" type="object" value="0"/>
    <property name="unit2" type="object" value="0"/>
    <property name="unit3" type="object" value="0"/>
    <property name="unit4" type="object" value="0"/>
   </properties>
  </object>
  <object id="73" name="greatBritain" type="ownership" gid="123" x="2477.64" y="2908.2" width="64" height="64">
   <properties>
    <property name="productionCenter" type="object" value="84"/>
    <property name="terrainModifier" type="object" value="0"/>
    <property name="unit1" type="object" value="0"/>
    <property name="unit2" type="object" value="0"/>
    <property name="unit3" type="object" value="0"/>
    <property name="unit4" type="object" value="0"/>
   </properties>
  </object>
  <object id="74" name="greatBritain" type="ownership" gid="123" x="2534.32" y="2878.47" width="64" height="64">
   <properties>
    <property name="productionCenter" type="object" value="86"/>
    <property name="terrainModifier" type="object" value="0"/>
    <property name="unit1" type="object" value="0"/>
    <property name="unit2" type="object" value="0"/>
    <property name="unit3" type="object" value="0"/>
    <property name="unit4" type="object" value="0"/>
   </properties>
  </object>
  <object id="75" name="greatBritain" type="ownership" gid="123" x="2425.01" y="2878.69" width="64" height="64">
   <properties>
    <property name="productionCenter" type="object" value="87"/>
    <property name="terrainModifier" type="object" value="0"/>
    <property name="unit1" type="object" value="0"/>
    <property name="unit2" type="object" value="0"/>
    <property name="unit3" type="object" value="0"/>
    <property name="unit4" type="object" value="0"/>
   </properties>
  </object>
  <object id="76" name="greatBritain" type="ownership" gid="123" x="2480.59" y="2848.72" width="64" height="64">
   <properties>
    <property name="productionCenter" type="object" value="88"/>
    <property name="terrainModifier" type="object" value="0"/>
    <property name="unit1" type="object" value="0"/>
    <property name="unit2" type="object" value="0"/>
    <property name="unit3" type="object" value="0"/>
    <property name="unit4" type="object" value="0"/>
   </properties>
  </object>
  <object id="77" name="greatBritain" type="ownership" gid="123" x="2423.87" y="3009.63" width="64" height="64">
   <properties>
    <property name="productionCenter" type="object" value="89"/>
    <property name="terrainModifier" type="object" value="0"/>
    <property name="unit1" type="object" value="0"/>
    <property name="unit2" type="object" value="0"/>
    <property name="unit3" type="object" value="0"/>
    <property name="unit4" type="object" value="0"/>
   </properties>
  </object>
  <object id="78" name="greatBritain" type="ownership" gid="123" x="2478.65" y="3037.02" width="64" height="64">
   <properties>
    <property name="productionCenter" type="object" value="90"/>
    <property name="terrainModifier" type="object" value="0"/>
    <property name="unit1" type="object" value="0"/>
    <property name="unit2" type="object" value="0"/>
    <property name="unit3" type="object" value="0"/>
    <property name="unit4" type="object" value="0"/>
   </properties>
  </object>
  <object id="79" name="greatBritain" type="ownership" gid="123" x="2477.61" y="2968.81" width="64" height="64">
   <properties>
    <property name="productionCenter" type="object" value="82"/>
    <property name="terrainModifier" type="object" value="0"/>
    <property name="unit1" type="object" value="0"/>
    <property name="unit2" type="object" value="0"/>
    <property name="unit3" type="object" value="0"/>
    <property name="unit4" type="object" value="0"/>
   </properties>
  </object>
  <object id="80" name="greatBritain" type="ownership" gid="123" x="2421.27" y="3073.44" width="64" height="64">
   <properties>
    <property name="productionCenter" type="object" value="92"/>
    <property name="terrainModifier" type="object" value="0"/>
    <property name="unit1" type="object" value="0"/>
    <property name="unit2" type="object" value="0"/>
    <property name="unit3" type="object" value="0"/>
    <property name="unit4" type="object" value="0"/>
   </properties>
  </object>
  <object id="81" name="level3" type="navalBase" gid="97" x="2622.8" y="3051.2" width="64" height="64">
   <properties>
    <property name="name_en" value=""/>
    <property name="name_ru" value=""/>
   </properties>
  </object>
  <object id="82" name="level1" type="navalBase" gid="95" x="2622.8" y="2882.1" width="64" height="64">
   <properties>
    <property name="name_en" value=""/>
    <property name="name_ru" value=""/>
   </properties>
  </object>
  <object id="83" name="level2" type="navalBase" gid="96" x="2622.8" y="2963.44" width="64" height="64">
   <properties>
    <property name="name_en" value=""/>
    <property name="name_ru" value=""/>
   </properties>
  </object>
  <object id="84" name="level2" type="city" gid="105" x="2485.01" y="2744.97" width="64" height="64">
   <properties>
    <property name="name_en" value=""/>
    <property name="name_ru" value=""/>
   </properties>
  </object>
  <object id="85" name="level1" type="city" gid="104" x="2554.72" y="2752.17" width="64" height="64">
   <properties>
    <property name="name_en" value=""/>
    <property name="name_ru" value=""/>
   </properties>
  </object>
  <object id="86" name="level3" type="city" gid="106" x="2412.81" y="2764.25" width="64" height="64">
   <properties>
    <property name="name_en" value=""/>
    <property name="name_ru" value=""/>
   </properties>
  </object>
  <object id="87" name="level4" type="city" gid="107" x="2343.51" y="2804.79" width="64" height="64">
   <properties>
    <property name="name_en" value=""/>
    <property name="name_ru" value=""/>
   </properties>
  </object>
  <object id="88" name="capital" type="city" gid="108" x="2322.9" y="2881.45" width="64" height="64">
   <properties>
    <property name="name_en" value=""/>
    <property name="name_ru" value=""/>
   </properties>
  </object>
  <object id="89" name="level1" type="factory" gid="100" x="2332.71" y="3051.97" width="64" height="64">
   <properties>
    <property name="name_en" value=""/>
    <property name="name_ru" value=""/>
   </properties>
  </object>
  <object id="90" name="level2" type="factory" gid="101" x="2349.73" y="3129.66" width="64" height="64">
   <properties>
    <property name="name_en" value=""/>
    <property name="name_ru" value=""/>
   </properties>
  </object>
  <object id="91" name="level3" type="factory" gid="102" x="2440.85" y="3166.33" width="64" height="64">
   <properties>
    <property name="name_en" value=""/>
    <property name="name_ru" value=""/>
   </properties>
  </object>
  <object id="92" name="level4" type="factory" gid="103" x="2519.95" y="3178.81" width="64" height="64">
   <properties>
    <property name="name_en" value=""/>
    <property name="name_ru" value=""/>
   </properties>
  </object>
  <object id="93" name="infantry" type="unit" gid="115" x="1874.64" y="961.127" width="64" height="64">
   <properties>
    <property name="boost1" value=""/>
    <property name="boost2" value=""/>
    <property name="boost3" value=""/>
    <property name="experienceRank" value="fighters"/>
    <property name="fatigue" type="float" value="1"/>
    <property name="health" type="float" value="1"/>
    <property name="isDefence" type="bool" value="false"/>
    <property name="movementPoints" type="float" value="1"/>
   </properties>
  </object>
  <object id="94" name="greatBritain" type="ownership" gid="123" x="1930.06" y="991.547" width="64" height="64">
   <properties>
    <property name="productionCenter" type="object" value="0"/>
    <property name="terrainModifier" type="object" value="0"/>
    <property name="unit1" type="object" value="93"/>
    <property name="unit2" type="object" value="0"/>
    <property name="unit3" type="object" value="0"/>
    <property name="unit4" type="object" value="0"/>
   </properties>
  </object>
  <object id="95" name="infantry" type="unit" gid="115" x="1879.94" y="886.917" width="64" height="64">
   <properties>
    <property name="boost1" value=""/>
    <property name="boost2" value=""/>
    <property name="boost3" value=""/>
    <property name="experienceRank" value="rookies"/>
    <property name="fatigue" type="float" value="1"/>
    <property name="health" type="float" value="1"/>
    <property name="isDefence" type="bool" value="false"/>
    <property name="movementPoints" type="float" value="1"/>
   </properties>
  </object>
  <object id="96" name="infantry" type="unit" gid="115" x="1876.77" y="1025.17" width="64" height="64">
   <properties>
    <property name="boost1" value=""/>
    <property name="boost2" value=""/>
    <property name="boost3" value=""/>
    <property name="experienceRank" value="proficients"/>
    <property name="fatigue" type="float" value="1"/>
    <property name="health" type="float" value="1"/>
    <property name="isDefence" type="bool" value="false"/>
    <property name="movementPoints" type="float" value="1"/>
   </properties>
  </object>
  <object id="97" name="infantry" type="unit" gid="115" x="1873.6" y="1087.96" width="64" height="64">
   <properties>
    <property name="boost1" value=""/>
    <property name="boost2" value=""/>
    <property name="boost3" value=""/>
    <property name="experienceRank" value="veterans"/>
    <property name="fatigue" type="float" value="1"/>
    <property name="health" type="float" value="1"/>
    <property name="isDefence" type="bool" value="false"/>
    <property name="movementPoints" type="float" value="1"/>
   </properties>
  </object>
  <object id="98" name="infantry" type="unit" gid="115" x="1875.5" y="1146.3" width="64" height="64">
   <properties>
    <property name="boost1" value=""/>
    <property name="boost2" value=""/>
    <property name="boost3" value=""/>
    <property name="experienceRank" value="elite"/>
    <property name="fatigue" type="float" value="1"/>
    <property name="health" type="float" value="1"/>
    <property name="isDefence" type="bool" value="false"/>
    <property name="movementPoints" type="float" value="1"/>
   </properties>
  </object>
  <object id="99" name="greatBritain" type="ownership" gid="123" x="1933.85" y="925.597" width="64" height="64">
   <properties>
    <property name="productionCenter" type="object" value="0"/>
    <property name="terrainModifier" type="object" value="0"/>
    <property name="unit1" type="object" value="95"/>
    <property name="unit2" type="object" value="0"/>
    <property name="unit3" type="object" value="0"/>
    <property name="unit4" type="object" value="0"/>
   </properties>
  </object>
  <object id="100" name="greatBritain" type="ownership" gid="123" x="1933.21" y="1058.15" width="64" height="64">
   <properties>
    <property name="productionCenter" type="object" value="0"/>
    <property name="terrainModifier" type="object" value="0"/>
    <property name="unit1" type="object" value="96"/>
    <property name="unit2" type="object" value="0"/>
    <property name="unit3" type="object" value="0"/>
    <property name="unit4" type="object" value="0"/>
   </properties>
  </object>
  <object id="101" name="greatBritain" type="ownership" gid="123" x="1935.12" y="1113.96" width="64" height="64">
   <properties>
    <property name="productionCenter" type="object" value="0"/>
    <property name="terrainModifier" type="object" value="0"/>
    <property name="unit1" type="object" value="97"/>
    <property name="unit2" type="object" value="0"/>
    <property name="unit3" type="object" value="0"/>
    <property name="unit4" type="object" value="0"/>
   </properties>
  </object>
  <object id="102" name="greatBritain" type="ownership" gid="123" x="1935.75" y="1180.55" width="64" height="64">
   <properties>
    <property name="productionCenter" type="object" value="0"/>
    <property name="terrainModifier" type="object" value="0"/>
    <property name="unit1" type="object" value="98"/>
    <property name="unit2" type="object" value="0"/>
    <property name="unit3" type="object" value="0"/>
    <property name="unit4" type="object" value="0"/>
   </properties>
  </object>
  <object id="32" name="germany" type="ownership" gid="134" x="828.261" y="992.669" width="64" height="64">
   <properties>
    <property name="productionCenter" type="object" value="0"/>
    <property name="terrainModifier" type="object" value="27"/>
    <property name="unit1" type="object" value="28"/>
    <property name="unit2" type="object" value="29"/>
    <property name="unit3" type="object" value="30"/>
    <property name="unit4" type="object" value="31"/>
   </properties>
  </object>
  <object id="103" name="greatBritain" type="ownership" gid="123" x="1376.12" y="1765.03" width="64" height="64">
   <properties>
    <property name="productionCenter" type="object" value="0"/>
    <property name="terrainModifier" type="object" value="0"/>
    <property name="unit1" type="object" value="28"/>
    <property name="unit2" type="object" value="0"/>
    <property name="unit3" type="object" value="0"/>
    <property name="unit4" type="object" value="0"/>
   </properties>
  </object>
 </objectgroup>
 <objectgroup id="4" name="Templates">
  <object id="1" name="level2" type="navalBase" gid="96" x="177.606" y="-718.954" width="64" height="64">
   <properties>
    <property name="name_en" value=""/>
    <property name="name_ru" value=""/>
   </properties>
  </object>
  <object id="2" name="level1" type="navalBase" gid="95" x="177.606" y="-800.294" width="64" height="64">
   <properties>
    <property name="name_en" value=""/>
    <property name="name_ru" value=""/>
   </properties>
  </object>
  <object id="3" name="level3" type="navalBase" gid="97" x="177.606" y="-631.193" width="64" height="64">
   <properties>
    <property name="name_en" value=""/>
    <property name="name_ru" value=""/>
   </properties>
  </object>
  <object id="4" name="level1" type="airField" gid="98" x="100.789" y="-718.874" width="64" height="64">
   <properties>
    <property name="name_en" value=""/>
    <property name="name_ru" value=""/>
   </properties>
  </object>
  <object id="5" name="level2" type="airField" gid="99" x="100.786" y="-637.248" width="64" height="64">
   <properties>
    <property name="name_en" value=""/>
    <property name="name_ru" value=""/>
   </properties>
  </object>
  <object id="6" name="level1" type="factory" gid="100" x="21.7785" y="-799.994" width="64" height="64">
   <properties>
    <property name="name_en" value=""/>
    <property name="name_ru" value=""/>
   </properties>
  </object>
  <object id="7" name="level2" type="factory" gid="101" x="21.7755" y="-722.304" width="64" height="64">
   <properties>
    <property name="name_en" value=""/>
    <property name="name_ru" value=""/>
   </properties>
  </object>
  <object id="8" name="level3" type="factory" gid="102" x="21.7755" y="-632.572" width="64" height="64">
   <properties>
    <property name="name_en" value=""/>
    <property name="name_ru" value=""/>
   </properties>
  </object>
  <object id="9" name="level4" type="factory" gid="103" x="21.7755" y="-555.005" width="64" height="64">
   <properties>
    <property name="name_en" value=""/>
    <property name="name_ru" value=""/>
   </properties>
  </object>
  <object id="10" name="level2" type="city" gid="105" x="-51.7045" y="-721.474" width="64" height="64">
   <properties>
    <property name="name_en" value=""/>
    <property name="name_ru" value=""/>
   </properties>
  </object>
  <object id="11" name="level1" type="city" gid="104" x="-51.7095" y="-796.904" width="64" height="64">
   <properties>
    <property name="name_en" value=""/>
    <property name="name_ru" value=""/>
   </properties>
  </object>
  <object id="12" name="level3" type="city" gid="106" x="-51.7045" y="-643.071" width="64" height="64">
   <properties>
    <property name="name_en" value=""/>
    <property name="name_ru" value=""/>
   </properties>
  </object>
  <object id="13" name="level4" type="city" gid="107" x="-51.7045" y="-556.069" width="64" height="64">
   <properties>
    <property name="name_en" value=""/>
    <property name="name_ru" value=""/>
   </properties>
  </object>
  <object id="14" name="capital" type="city" gid="108" x="-51.7045" y="-480.015" width="64" height="64">
   <properties>
    <property name="name_en" value=""/>
    <property name="name_ru" value=""/>
   </properties>
  </object>
  <object id="15" name="antiAirGun" type="terrainModifier" gid="94" x="328.495" y="-551.106" width="64" height="64"/>
  <object id="16" name="trench" type="terrainModifier" gid="91" x="331.854" y="-808.344" width="64" height="64"/>
  <object id="17" name="barbedWire" type="terrainModifier" gid="93" x="331.338" y="-632.885" width="64" height="64"/>
  <object id="18" name="seaMine" type="terrainModifier" gid="89" x="328.155" y="-441.815" width="64" height="64"/>
  <object id="19" name="landMine" type="terrainModifier" gid="90" x="329.007" y="-351.682" width="64" height="64"/>
  <object id="20" name="infantry" type="unit" gid="115" x="517.758" y="-800.704" width="64" height="64">
   <properties>
    <property name="boost1" value=""/>
    <property name="boost2" value=""/>
    <property name="boost3" value=""/>
    <property name="experienceRank" value="rookies"/>
    <property name="fatigue" type="float" value="1"/>
    <property name="health" type="float" value="1"/>
    <property name="isDefence" type="bool" value="false"/>
    <property name="movementPoints" type="float" value="1"/>
   </properties>
  </object>
  <object id="21" name="cavalry" type="unit" gid="114" x="517.756" y="-687.57" width="64" height="64">
   <properties>
    <property name="boost1" value=""/>
    <property name="boost2" value=""/>
    <property name="boost3" value=""/>
    <property name="experienceRank" value="rookies"/>
    <property name="fatigue" type="float" value="1"/>
    <property name="health" type="float" value="1"/>
    <property name="isDefence" type="bool" value="false"/>
    <property name="movementPoints" type="float" value="1"/>
   </properties>
  </object>
  <object id="22" name="tank" type="unit" gid="113" x="517.756" y="-572.606" width="64" height="64">
   <properties>
    <property name="boost1" value=""/>
    <property name="boost2" value=""/>
    <property name="boost3" value=""/>
    <property name="experienceRank" value="rookies"/>
    <property name="fatigue" type="float" value="1"/>
    <property name="health" type="float" value="1"/>
    <property name="isDefence" type="bool" value="false"/>
    <property name="movementPoints" type="float" value="1"/>
   </properties>
  </object>
  <object id="23" name="machineGunnersCart" type="unit" gid="112" x="517.756" y="-483.19" width="64" height="64">
   <properties>
    <property name="boost1" value=""/>
    <property name="boost2" value=""/>
    <property name="boost3" value=""/>
    <property name="experienceRank" value="rookies"/>
    <property name="fatigue" type="float" value="1"/>
    <property name="health" type="float" value="1"/>
    <property name="isDefence" type="bool" value="false"/>
    <property name="movementPoints" type="float" value="1"/>
   </properties>
  </object>
  <object id="24" name="machineGuns" type="unit" gid="111" x="517.756" y="-393.774" width="64" height="64">
   <properties>
    <property name="boost1" value=""/>
    <property name="boost2" value=""/>
    <property name="boost3" value=""/>
    <property name="experienceRank" value="rookies"/>
    <property name="fatigue" type="float" value="1"/>
    <property name="health" type="float" value="1"/>
    <property name="isDefence" type="bool" value="false"/>
    <property name="movementPoints" type="float" value="1"/>
   </properties>
  </object>
  <object id="25" name="artillery" type="unit" gid="110" x="517.756" y="-293.409" width="64" height="64">
   <properties>
    <property name="boost1" value=""/>
    <property name="boost2" value=""/>
    <property name="boost3" value=""/>
    <property name="experienceRank" value="rookies"/>
    <property name="fatigue" type="float" value="1"/>
    <property name="health" type="float" value="1"/>
    <property name="isDefence" type="bool" value="false"/>
    <property name="movementPoints" type="float" value="1"/>
   </properties>
  </object>
  <object id="26" name="armoredCar" type="unit" gid="109" x="517.756" y="-191.219" width="64" height="64">
   <properties>
    <property name="boost1" value=""/>
    <property name="boost2" value=""/>
    <property name="boost3" value=""/>
    <property name="experienceRank" value="rookies"/>
    <property name="fatigue" type="float" value="1"/>
    <property name="health" type="float" value="1"/>
    <property name="isDefence" type="bool" value="false"/>
    <property name="movementPoints" type="float" value="1"/>
   </properties>
  </object>
  <object id="27" name="carrier" type="unit" gid="119" x="713.94" y="-795.774" width="64" height="64">
   <properties>
    <property name="boost1" value=""/>
    <property name="boost2" value=""/>
    <property name="boost3" value=""/>
    <property name="experienceRank" value="rookies"/>
    <property name="fatigue" type="float" value="1"/>
    <property name="health" type="float" value="1"/>
    <property name="isDefence" type="bool" value="false"/>
    <property name="movementPoints" type="float" value="1"/>
    <property name="unit1" type="object" value="0"/>
    <property name="unit2" type="object" value="0"/>
    <property name="unit3" type="object" value="0"/>
    <property name="unit4" type="object" value="0"/>
   </properties>
  </object>
  <object id="28" name="battleship" type="unit" gid="116" x="713.936" y="-474.34" width="64" height="64">
   <properties>
    <property name="boost1" value=""/>
    <property name="boost2" value=""/>
    <property name="boost3" value=""/>
    <property name="experienceRank" value="rookies"/>
    <property name="fatigue" type="float" value="1"/>
    <property name="health" type="float" value="1"/>
    <property name="isDefence" type="bool" value="false"/>
    <property name="movementPoints" type="float" value="1"/>
   </properties>
  </object>
  <object id="29" name="cruiser" type="unit" gid="117" x="713.936" y="-576.56" width="64" height="64">
   <properties>
    <property name="boost1" value=""/>
    <property name="boost2" value=""/>
    <property name="boost3" value=""/>
    <property name="experienceRank" value="rookies"/>
    <property name="fatigue" type="float" value="1"/>
    <property name="health" type="float" value="1"/>
    <property name="isDefence" type="bool" value="false"/>
    <property name="movementPoints" type="float" value="1"/>
   </properties>
  </object>
  <object id="30" name="destroyer" type="unit" gid="118" x="713.936" y="-679.672" width="64" height="64">
   <properties>
    <property name="boost1" value=""/>
    <property name="boost2" value=""/>
    <property name="boost3" value=""/>
    <property name="experienceRank" value="rookies"/>
    <property name="fatigue" type="float" value="1"/>
    <property name="health" type="float" value="1"/>
    <property name="isDefence" type="bool" value="false"/>
    <property name="movementPoints" type="float" value="1"/>
   </properties>
  </object>
  <object id="31" name="austriaHungary" type="ownership" gid="139" x="849.946" y="-800.214" width="64" height="64">
   <properties>
    <property name="productionCenter" type="object" value="0"/>
    <property name="terrainModifier" type="object" value="0"/>
    <property name="unit1" type="object" value="0"/>
    <property name="unit2" type="object" value="0"/>
    <property name="unit3" type="object" value="0"/>
    <property name="unit4" type="object" value="0"/>
   </properties>
  </object>
  <object id="32" name="usa" type="ownership" gid="120" x="1128.46" y="-538.084" width="64" height="64">
   <properties>
    <property name="productionCenter" type="object" value="0"/>
    <property name="terrainModifier" type="object" value="0"/>
    <property name="unit1" type="object" value="0"/>
    <property name="unit2" type="object" value="0"/>
    <property name="unit3" type="object" value="0"/>
    <property name="unit4" type="object" value="0"/>
   </properties>
  </object>
  <object id="33" name="usSouth" type="ownership" gid="121" x="1208.71" y="-800.214" width="64" height="64">
   <properties>
    <property name="productionCenter" type="object" value="0"/>
    <property name="terrainModifier" type="object" value="0"/>
    <property name="unit1" type="object" value="0"/>
    <property name="unit2" type="object" value="0"/>
    <property name="unit3" type="object" value="0"/>
    <property name="unit4" type="object" value="0"/>
   </properties>
  </object>
  <object id="34" name="usNorth" type="ownership" gid="122" x="1134.37" y="-449.654" width="64" height="64">
   <properties>
    <property name="productionCenter" type="object" value="0"/>
    <property name="terrainModifier" type="object" value="0"/>
    <property name="unit1" type="object" value="0"/>
    <property name="unit2" type="object" value="0"/>
    <property name="unit3" type="object" value="0"/>
    <property name="unit4" type="object" value="0"/>
   </properties>
  </object>
  <object id="35" name="greatBritain" type="ownership" gid="123" x="955.977" y="-709.244" width="64" height="64">
   <properties>
    <property name="productionCenter" type="object" value="0"/>
    <property name="terrainModifier" type="object" value="0"/>
    <property name="unit1" type="object" value="0"/>
    <property name="unit2" type="object" value="0"/>
    <property name="unit3" type="object" value="0"/>
    <property name="unit4" type="object" value="0"/>
   </properties>
  </object>
  <object id="36" name="turkey" type="ownership" gid="124" x="1134.38" y="-623.444" width="64" height="64">
   <properties>
    <property name="productionCenter" type="object" value="0"/>
    <property name="terrainModifier" type="object" value="0"/>
    <property name="unit1" type="object" value="0"/>
    <property name="unit2" type="object" value="0"/>
    <property name="unit3" type="object" value="0"/>
    <property name="unit4" type="object" value="0"/>
   </properties>
  </object>
  <object id="37" name="serbia" type="ownership" gid="125" x="1128.36" y="-709.244" width="64" height="64">
   <properties>
    <property name="productionCenter" type="object" value="0"/>
    <property name="terrainModifier" type="object" value="0"/>
    <property name="unit1" type="object" value="0"/>
    <property name="unit2" type="object" value="0"/>
    <property name="unit3" type="object" value="0"/>
    <property name="unit4" type="object" value="0"/>
   </properties>
  </object>
  <object id="38" name="russia" type="ownership" gid="126" x="1050.98" y="-449.654" width="64" height="64">
   <properties>
    <property name="productionCenter" type="object" value="0"/>
    <property name="terrainModifier" type="object" value="0"/>
    <property name="unit1" type="object" value="0"/>
    <property name="unit2" type="object" value="0"/>
    <property name="unit3" type="object" value="0"/>
    <property name="unit4" type="object" value="0"/>
   </properties>
  </object>
  <object id="39" name="romania" type="ownership" gid="127" x="1127.51" y="-800.214" width="64" height="64">
   <properties>
    <property name="productionCenter" type="object" value="0"/>
    <property name="terrainModifier" type="object" value="0"/>
    <property name="unit1" type="object" value="0"/>
    <property name="unit2" type="object" value="0"/>
    <property name="unit3" type="object" value="0"/>
    <property name="unit4" type="object" value="0"/>
   </properties>
  </object>
  <object id="40" name="montenegro" type="ownership" gid="128" x="1047.34" y="-538.084" width="64" height="64">
   <properties>
    <property name="productionCenter" type="object" value="0"/>
    <property name="terrainModifier" type="object" value="0"/>
    <property name="unit1" type="object" value="0"/>
    <property name="unit2" type="object" value="0"/>
    <property name="unit3" type="object" value="0"/>
    <property name="unit4" type="object" value="0"/>
   </properties>
  </object>
  <object id="41" name="mongolia" type="ownership" gid="129" x="1042.85" y="-623.444" width="64" height="64">
   <properties>
    <property name="productionCenter" type="object" value="0"/>
    <property name="terrainModifier" type="object" value="0"/>
    <property name="unit1" type="object" value="0"/>
    <property name="unit2" type="object" value="0"/>
    <property name="unit3" type="object" value="0"/>
    <property name="unit4" type="object" value="0"/>
   </properties>
  </object>
  <object id="42" name="mexico" type="ownership" gid="130" x="1045.36" y="-709.244" width="64" height="64">
   <properties>
    <property name="productionCenter" type="object" value="0"/>
    <property name="terrainModifier" type="object" value="0"/>
    <property name="unit1" type="object" value="0"/>
    <property name="unit2" type="object" value="0"/>
    <property name="unit3" type="object" value="0"/>
    <property name="unit4" type="object" value="0"/>
   </properties>
  </object>
  <object id="43" name="korea" type="ownership" gid="131" x="1045.57" y="-800.214" width="64" height="64">
   <properties>
    <property name="productionCenter" type="object" value="0"/>
    <property name="terrainModifier" type="object" value="0"/>
    <property name="unit1" type="object" value="0"/>
    <property name="unit2" type="object" value="0"/>
    <property name="unit3" type="object" value="0"/>
    <property name="unit4" type="object" value="0"/>
   </properties>
  </object>
  <object id="44" name="japan" type="ownership" gid="132" x="959.439" y="-449.654" width="64" height="64">
   <properties>
    <property name="productionCenter" type="object" value="0"/>
    <property name="terrainModifier" type="object" value="0"/>
    <property name="unit1" type="object" value="0"/>
    <property name="unit2" type="object" value="0"/>
    <property name="unit3" type="object" value="0"/>
    <property name="unit4" type="object" value="0"/>
   </properties>
  </object>
  <object id="45" name="italy" type="ownership" gid="133" x="955.679" y="-538.084" width="64" height="64">
   <properties>
    <property name="productionCenter" type="object" value="0"/>
    <property name="terrainModifier" type="object" value="0"/>
    <property name="unit1" type="object" value="0"/>
    <property name="unit2" type="object" value="0"/>
    <property name="unit3" type="object" value="0"/>
    <property name="unit4" type="object" value="0"/>
   </properties>
  </object>
  <object id="46" name="germany" type="ownership" gid="134" x="957.964" y="-800.214" width="64" height="64">
   <properties>
    <property name="productionCenter" type="object" value="0"/>
    <property name="terrainModifier" type="object" value="0"/>
    <property name="unit1" type="object" value="0"/>
    <property name="unit2" type="object" value="0"/>
    <property name="unit3" type="object" value="0"/>
    <property name="unit4" type="object" value="0"/>
   </properties>
  </object>
  <object id="47" name="france" type="ownership" gid="135" x="853.158" y="-449.656" width="64" height="64">
   <properties>
    <property name="productionCenter" type="object" value="0"/>
    <property name="terrainModifier" type="object" value="0"/>
    <property name="unit1" type="object" value="0"/>
    <property name="unit2" type="object" value="0"/>
    <property name="unit3" type="object" value="0"/>
    <property name="unit4" type="object" value="0"/>
   </properties>
  </object>
  <object id="48" name="china" type="ownership" gid="136" x="853.221" y="-538.084" width="64" height="64">
   <properties>
    <property name="productionCenter" type="object" value="0"/>
    <property name="terrainModifier" type="object" value="0"/>
    <property name="unit1" type="object" value="0"/>
    <property name="unit2" type="object" value="0"/>
    <property name="unit3" type="object" value="0"/>
    <property name="unit4" type="object" value="0"/>
   </properties>
  </object>
  <object id="49" name="bulgaria" type="ownership" gid="137" x="851.506" y="-623.442" width="64" height="64">
   <properties>
    <property name="productionCenter" type="object" value="0"/>
    <property name="terrainModifier" type="object" value="0"/>
    <property name="unit1" type="object" value="0"/>
    <property name="unit2" type="object" value="0"/>
    <property name="unit3" type="object" value="0"/>
    <property name="unit4" type="object" value="0"/>
   </properties>
  </object>
  <object id="50" name="belgium" type="ownership" gid="138" x="847.866" y="-709.244" width="64" height="64">
   <properties>
    <property name="productionCenter" type="object" value="0"/>
    <property name="terrainModifier" type="object" value="0"/>
    <property name="unit1" type="object" value="0"/>
    <property name="unit2" type="object" value="0"/>
    <property name="unit3" type="object" value="0"/>
    <property name="unit4" type="object" value="0"/>
   </properties>
  </object>
  <object id="51" name="greece" type="ownership" gid="140" x="955.166" y="-623.444" width="64" height="64">
   <properties>
    <property name="productionCenter" type="object" value="0"/>
    <property name="terrainModifier" type="object" value="0"/>
    <property name="unit1" type="object" value="0"/>
    <property name="unit2" type="object" value="0"/>
    <property name="unit3" type="object" value="0"/>
    <property name="unit4" type="object" value="0"/>
   </properties>
  </object>
  <object id="52" name="landFort" type="terrainModifier" gid="92" x="327.226" y="-742.56" width="64" height="64"/>
 </objectgroup>
</map>
