<?xml version="1.0" encoding="UTF-8"?>
<map version="1.10" tiledversion="1.11.0" orientation="hexagonal" renderorder="right-up" width="25" height="25" tilewidth="74" tileheight="64" infinite="0" hexsidelength="37" staggeraxis="x" staggerindex="odd" nextlayerid="6" nextobjectid="137">
 <properties>
  <property name="metadata" value="{ &quot;version&quot;: 1, &quot;title&quot;: { &quot;en&quot;: &quot;Battle of Amiens&quot;, &quot;ru&quot;: &quot;Битва при Амьене&quot; }, &quot;description&quot;: { &quot;en&quot;: &quot;The Battle of Amiens was a major Allied victory on the Western Front. British and French forces attacked with surprise, tanks, artillery, and air support, breaking through German lines and advancing several miles on the first day.\n\nThe battle shocked German commanders so badly that Erich Ludendorff called 8 August “the black day of the German Army.”\n\nAmiens helped push the Germans back toward the Hindenburg Line and set the stage for the end of World War I&quot;, &quot;ru&quot;: &quot;Битва при Амьене стала крупной победой союзников на Западном фронте. Британские и французские войска атаковали внезапно, используя танки, артиллерию и авиацию, прорвав немецкие линии и продвинувшись на несколько миль в первый же день.\n\nБитва настолько потрясла немецких командиров, что Эрих Людендорф назвал 8 августа «черным днем ​​немецкой армии».\n\nАмьен помог оттеснить немцев к линии Гинденбурга и подготовил почву для окончания Первой мировой войны.&quot; }, &quot;dates&quot;: { &quot;from&quot;: &quot;1918-08-08&quot;, &quot;to&quot;: &quot;1918-08-12&quot; }, &quot;params&quot;: { &quot;land_only_ai&quot;: true }, &quot;nations&quot;: [ { &quot;code&quot;: &quot;germany&quot;, &quot;aggressiveness&quot;: &quot;aggressive&quot;, &quot;startMoney&quot;: 4000, &quot;startIndustryPoints&quot;: 2000 }, { &quot;code&quot;: &quot;greatBritain&quot;, &quot;aggressiveness&quot;: &quot;aggressive&quot;, &quot;startMoney&quot;: 2000, &quot;startIndustryPoints&quot;: 1000 }, { &quot;code&quot;: &quot;france&quot;, &quot;aggressiveness&quot;: &quot;aggressive&quot;, &quot;startMoney&quot;: 2000, &quot;startIndustryPoints&quot;: 1000 } ], &quot;diplomacy&quot;: [ { &quot;firstNation&quot;: &quot;germany&quot;, &quot;secondNation&quot;: &quot;greatBritain&quot;, &quot;relationship&quot;: &quot;war&quot; }, { &quot;firstNation&quot;: &quot;germany&quot;, &quot;secondNation&quot;: &quot;france&quot;, &quot;relationship&quot;: &quot;war&quot; }, { &quot;firstNation&quot;: &quot;greatBritain&quot;, &quot;secondNation&quot;: &quot;france&quot;, &quot;relationship&quot;: &quot;allied&quot; } ] }"/>
 </properties>
 <tileset firstgid="1" name="terrain_atlas" tilewidth="74" tileheight="64" tilecount="72" columns="8">
  <image source="../images/tiles/terrain_atlas_new.png" width="592" height="576"/>
 </tileset>
 <tileset firstgid="73" source="game_objects.tsx"/>
 <layer id="1" name="Terrain" width="25" height="25">
  <data encoding="csv">
28,28,28,28,28,28,28,28,28,28,28,6,5,28,28,28,28,28,28,28,28,28,28,27,28,
28,28,28,13,14,12,28,28,27,28,28,4,4,28,28,28,28,28,28,28,27,28,28,28,28,
28,12,16,28,15,28,28,28,28,28,28,4,6,28,28,28,28,28,28,28,28,28,15,28,28,
28,28,28,28,28,28,28,28,28,28,28,28,28,28,28,28,28,28,28,28,28,28,16,28,28,
28,28,6,28,28,28,18,17,18,28,27,28,28,28,28,28,28,28,28,28,28,28,28,28,28,
28,28,5,28,28,19,17,17,19,28,28,28,28,28,28,5,28,28,28,28,28,28,14,13,28,
28,28,28,18,17,19,18,17,17,28,28,28,28,28,28,28,4,4,6,28,28,28,12,13,28,
27,28,28,28,17,19,18,28,28,28,28,28,28,28,28,28,4,5,4,28,28,28,28,28,28,
28,27,27,28,28,28,28,28,28,28,28,28,28,28,28,28,28,28,28,27,28,28,28,27,28,
28,28,28,28,27,28,28,28,28,28,28,28,28,12,28,28,28,28,28,28,28,28,28,28,28,
28,28,28,28,28,28,28,28,28,28,28,28,15,28,28,28,28,28,28,28,28,28,28,12,28,
28,28,28,28,28,28,28,28,28,28,28,28,28,28,28,28,28,28,28,28,28,28,28,28,28,
28,28,28,28,28,28,28,28,28,28,28,28,28,28,28,28,28,28,28,16,28,28,28,28,28,
28,28,28,28,28,28,28,28,28,28,28,27,28,20,20,28,28,28,15,12,13,28,28,28,28,
28,28,28,28,28,28,28,28,28,28,28,28,28,28,22,20,28,28,28,28,28,28,28,28,28,
28,28,28,28,28,28,28,28,28,28,28,28,28,28,28,28,28,28,20,22,20,28,28,27,28,
28,28,28,28,28,28,28,28,28,28,27,24,23,28,28,28,28,20,28,20,20,28,28,28,28,
28,28,28,28,28,28,28,28,28,4,28,28,25,28,28,28,28,28,21,28,28,28,28,28,28,
16,14,16,28,28,28,28,28,28,28,4,28,28,28,12,28,28,5,28,28,28,28,28,28,28,
14,12,28,28,28,14,16,28,28,28,4,28,28,28,28,28,28,6,28,28,28,28,28,28,28,
28,28,28,28,15,28,28,28,28,28,28,28,28,28,28,28,28,28,4,4,28,28,27,28,28,
28,28,28,28,12,28,28,28,28,28,28,28,28,28,28,28,28,28,4,28,4,28,28,28,28,
28,28,28,28,28,6,28,28,28,28,28,15,16,28,28,28,28,28,28,28,28,28,28,28,28,
28,27,28,6,5,6,6,28,28,28,28,12,13,28,28,28,27,28,28,28,28,28,27,28,28,
28,28,28,28,28,28,28,28,28,28,28,28,28,28,28,28,28,28,28,28,28,28,28,28,28
</data>
 </layer>
 <layer id="2" name="RoadsAndRivers" width="25" height="25">
  <data encoding="csv">
0,0,0,0,0,0,0,0,0,0,0,0,72,38,49,49,0,0,0,0,0,0,0,0,0,
0,0,0,0,0,0,0,0,0,0,0,0,0,0,33,32,49,48,0,0,0,0,0,0,0,
0,0,0,0,0,0,0,0,0,0,0,0,0,0,0,39,0,54,0,0,0,0,0,0,0,
0,0,0,0,0,0,0,0,0,0,0,0,0,35,34,0,33,47,49,48,0,0,0,0,0,
0,0,0,0,0,0,0,0,0,0,0,0,0,37,0,0,0,0,0,54,0,0,0,0,0,
0,0,0,0,0,0,0,0,0,0,0,0,0,36,0,0,0,0,0,0,48,0,0,0,0,
0,0,0,0,0,0,0,0,0,0,0,35,34,0,0,0,0,0,0,0,53,0,0,0,0,
0,0,0,0,0,0,0,0,0,50,68,31,0,68,0,0,0,0,0,0,54,48,0,0,0,
0,0,0,0,0,0,0,50,50,0,72,36,69,0,49,49,0,0,0,0,0,53,0,0,0,
0,0,0,0,0,50,50,0,0,34,34,0,0,0,0,0,49,69,68,49,0,53,0,0,0,
0,0,0,50,50,0,0,35,34,0,0,0,0,0,0,34,64,67,64,33,49,49,0,0,0,
0,0,51,0,0,0,0,39,0,34,64,33,0,34,34,0,0,0,0,0,33,66,49,49,0,
49,69,55,49,0,34,34,0,67,0,0,0,67,0,0,0,0,0,0,0,0,37,0,0,49,
33,67,64,40,30,49,0,68,0,68,0,0,0,0,0,0,0,0,0,0,0,37,0,0,0,
0,0,0,38,0,0,56,0,69,0,49,69,68,48,0,0,0,0,0,0,0,37,0,0,0,
0,0,0,0,66,0,54,49,0,0,0,0,0,54,0,0,0,0,0,0,0,38,0,0,0,
0,0,0,0,37,0,0,0,49,49,0,0,0,0,49,49,0,0,0,0,0,0,32,0,0,
0,0,0,35,39,33,0,0,0,0,49,71,0,0,0,0,49,49,0,0,0,0,38,32,0,
0,0,0,37,0,0,33,33,0,0,0,54,0,0,0,0,0,0,71,0,0,0,0,38,0,
0,0,0,37,0,0,0,0,33,66,0,0,49,49,0,0,0,0,54,49,0,0,0,0,33,
0,0,0,36,0,0,0,0,0,38,0,64,0,0,49,49,0,0,0,0,49,49,0,0,0,
0,0,43,0,0,0,0,0,0,0,67,0,33,67,64,33,49,49,0,0,0,0,71,0,0,
0,0,0,0,0,0,0,0,0,0,0,0,0,0,0,0,47,0,49,48,0,0,54,49,0,
0,0,0,0,0,0,0,0,0,0,0,0,0,0,0,0,0,0,0,54,0,0,0,0,49,
0,0,0,0,0,0,0,0,0,0,0,0,0,0,0,0,0,0,0,0,49,49,0,0,0
</data>
 </layer>
 <objectgroup id="4" name="GameObjects">
  <object id="5" name="level1" type="city" gid="88" x="1019.8" y="1401.01" width="64" height="64">
   <properties>
    <property name="name_en" value="Roye"/>
    <property name="name_ru" value="Руа"/>
   </properties>
  </object>
  <object id="6" name="level1" type="city" gid="88" x="1021.07" y="1019.36" width="64" height="64">
   <properties>
    <property name="name_en" value="Chaulnes"/>
    <property name="name_ru" value="Шольн"/>
   </properties>
  </object>
  <object id="7" name="level1" type="city" gid="88" x="793.017" y="532.771" width="64" height="64">
   <properties>
    <property name="name_en" value="Albert"/>
    <property name="name_ru" value="Альбер"/>
   </properties>
  </object>
  <object id="8" name="level1" type="city" gid="88" x="393.261" y="913.391" width="64" height="64">
   <properties>
    <property name="name_en" value="Villers-Bretonneux"/>
    <property name="name_ru" value="Виллер-Бретоннё"/>
   </properties>
  </object>
  <object id="9" name="level1" type="city" gid="88" x="909.345" y="915.534" width="64" height="64">
   <properties>
    <property name="name_en" value="Framerville"/>
    <property name="name_ru" value="Фрамервиль"/>
   </properties>
  </object>
  <object id="10" name="level1" type="city" gid="88" x="449.11" y="1212.19" width="64" height="64">
   <properties>
    <property name="name_en" value="Moreuil"/>
    <property name="name_ru" value="Морёй"/>
   </properties>
  </object>
  <object id="11" name="level1" type="city" gid="88" x="683.372" y="1217.05" width="64" height="64">
   <properties>
    <property name="name_en" value="Fresnoy"/>
    <property name="name_ru" value="Френуа"/>
   </properties>
  </object>
  <object id="14" name="level1" type="city" gid="88" x="410.492" y="1433.8" width="64" height="64">
   <properties>
    <property name="name_en" value="Mailly"/>
    <property name="name_ru" value="Маи"/>
   </properties>
  </object>
  <object id="16" name="level1" type="city" gid="88" x="274.131" y="1249.14" width="64" height="64">
   <properties>
    <property name="name_en" value="Remiencourt"/>
    <property name="name_ru" value="Ремянкур"/>
   </properties>
  </object>
  <object id="18" name="level1" type="city" gid="88" x="245.498" y="249.914" width="64" height="64">
   <properties>
    <property name="name_en" value="Hazebrouck"/>
    <property name="name_ru" value="Азбрук"/>
   </properties>
  </object>
  <object id="22" name="level1" type="city" gid="88" x="118.322" y="102.62" width="64" height="64">
   <properties>
    <property name="name_en" value="St. Oner"/>
    <property name="name_ru" value="Сент-Омер"/>
   </properties>
  </object>
  <object id="23" name="level2" type="factory" gid="85" x="3.36333" y="865.814" width="64" height="64">
   <properties>
    <property name="name_en" value="Amiens"/>
    <property name="name_ru" value="Амьен"/>
   </properties>
  </object>
  <object id="24" name="level2" type="factory" gid="85" x="1115.75" y="1253.85" width="64" height="64">
   <properties>
    <property name="name_en" value="Nesle"/>
    <property name="name_ru" value="Нель"/>
   </properties>
  </object>
  <object id="25" name="level1" type="factory" gid="84" x="1050.2" y="227.81" width="64" height="64">
   <properties>
    <property name="name_en" value="Bapaume"/>
    <property name="name_ru" value="Бапом"/>
   </properties>
  </object>
  <object id="26" name="level1" type="factory" gid="84" x="330.624" y="576.358" width="64" height="64">
   <properties>
    <property name="name_en" value="Arras"/>
    <property name="name_ru" value="Аррас"/>
   </properties>
  </object>
  <object id="27" name="level2" type="city" gid="89" x="16.8881" y="1447.25" width="64" height="64">
   <properties>
    <property name="name_en" value="Chantilly"/>
    <property name="name_ru" value="Шантийи"/>
   </properties>
  </object>
  <object id="28" name="level2" type="city" gid="89" x="532.889" y="126.75" width="64" height="64">
   <properties>
    <property name="name_en" value="Ypres"/>
    <property name="name_ru" value="Ипр"/>
   </properties>
  </object>
  <object id="29" name="level2" type="city" gid="89" x="1223.9" y="673.637" width="64" height="64">
   <properties>
    <property name="name_en" value="Peronne"/>
    <property name="name_ru" value="Перон"/>
   </properties>
  </object>
  <object id="30" name="germany" type="ownershipRegion" x="1386.47" y="6.39223">
   <polygon points="0,0 -1.27845,1615.32 -832.268,1617.23 -828.433,1442.09 -880.21,1286.76 -988.878,1158.91 -979.289,1112.89 -889.159,1029.79 -886.602,962.03 -802.864,896.19 -760.675,804.781 -710.816,728.075 -701.227,597.034 -678.215,422.526 -657.121,210.304 -678.855,154.692 -620.685,-3.83534"/>
  </object>
  <object id="31" name="greatBritain" type="ownershipRegion" x="3.83534" y="4.47456">
   <polygon points="0,0 758.118,0 701.227,155.97 724.239,215.418 679.494,600.23 669.905,729.992 620.512,801.24 589.45,851.242 463.094,832.282 425.799,814.706 257.125,790.15 0.73147,771.23"/>
  </object>
  <object id="32" name="france" type="ownershipRegion" x="1.9572" y="1628.39">
   <polygon points="0,0 549.322,-2.6096 553.888,-181.367 499.739,-335.986 394.05,-459.29 403.184,-508.873 494.52,-594.99 495.825,-660.23 581.942,-726.775 598.336,-767.646 423.139,-804.735 257.046,-831.159 3.91441,-850.078"/>
  </object>
  <object id="33" name="germany" type="ownership" gid="118" x="994.185" y="258.524" width="64" height="64">
   <properties>
    <property name="productionCenter" type="object" value="25"/>
    <property name="terrainModifier" type="object" value="0"/>
    <property name="unit1" type="object" value="82"/>
    <property name="unit2" type="object" value="83"/>
    <property name="unit3" type="object" value="0"/>
    <property name="unit4" type="object" value="0"/>
   </properties>
  </object>
  <object id="34" name="germany" type="ownership" gid="118" x="719.285" y="541.349" width="64" height="64">
   <properties>
    <property name="productionCenter" type="object" value="7"/>
    <property name="terrainModifier" type="object" value="0"/>
    <property name="unit1" type="object" value="76"/>
    <property name="unit2" type="object" value="77"/>
    <property name="unit3" type="object" value="0"/>
    <property name="unit4" type="object" value="0"/>
   </properties>
  </object>
  <object id="35" name="germany" type="ownership" gid="118" x="1163.48" y="737.027" width="64" height="64">
   <properties>
    <property name="productionCenter" type="object" value="29"/>
    <property name="terrainModifier" type="object" value="0"/>
    <property name="unit1" type="object" value="74"/>
    <property name="unit2" type="object" value="75"/>
    <property name="unit3" type="object" value="0"/>
    <property name="unit4" type="object" value="0"/>
   </properties>
  </object>
  <object id="36" name="germany" type="ownership" gid="118" x="830.294" y="930.813" width="64" height="64">
   <properties>
    <property name="productionCenter" type="object" value="9"/>
    <property name="terrainModifier" type="object" value="0"/>
    <property name="unit1" type="object" value="72"/>
    <property name="unit2" type="object" value="73"/>
    <property name="unit3" type="object" value="0"/>
    <property name="unit4" type="object" value="0"/>
   </properties>
  </object>
  <object id="37" name="germany" type="ownership" gid="118" x="998.394" y="1092.2" width="64" height="64">
   <properties>
    <property name="productionCenter" type="object" value="6"/>
    <property name="terrainModifier" type="object" value="0"/>
    <property name="unit1" type="object" value="72"/>
    <property name="unit2" type="object" value="73"/>
    <property name="unit3" type="object" value="0"/>
    <property name="unit4" type="object" value="0"/>
   </properties>
  </object>
  <object id="38" name="germany" type="ownership" gid="118" x="1050.93" y="1314.34" width="64" height="64">
   <properties>
    <property name="productionCenter" type="object" value="24"/>
    <property name="terrainModifier" type="object" value="0"/>
    <property name="unit1" type="object" value="70"/>
    <property name="unit2" type="object" value="71"/>
    <property name="unit3" type="object" value="0"/>
    <property name="unit4" type="object" value="0"/>
   </properties>
  </object>
  <object id="39" name="germany" type="ownership" gid="118" x="941.358" y="1447.92" width="64" height="64">
   <properties>
    <property name="productionCenter" type="object" value="5"/>
    <property name="terrainModifier" type="object" value="0"/>
    <property name="unit1" type="object" value="70"/>
    <property name="unit2" type="object" value="71"/>
    <property name="unit3" type="object" value="0"/>
    <property name="unit4" type="object" value="0"/>
   </properties>
  </object>
  <object id="40" name="germany" type="ownership" gid="118" x="613.403" y="1248.3" width="64" height="64">
   <properties>
    <property name="productionCenter" type="object" value="11"/>
    <property name="terrainModifier" type="object" value="0"/>
    <property name="unit1" type="object" value="63"/>
    <property name="unit2" type="object" value="64"/>
    <property name="unit3" type="object" value="0"/>
    <property name="unit4" type="object" value="0"/>
   </properties>
  </object>
  <object id="42" name="germany" type="ownership" gid="118" x="389.764" y="1189.01" width="64" height="64">
   <properties>
    <property name="productionCenter" type="object" value="10"/>
    <property name="terrainModifier" type="object" value="0"/>
    <property name="unit1" type="object" value="63"/>
    <property name="unit2" type="object" value="64"/>
    <property name="unit3" type="object" value="0"/>
    <property name="unit4" type="object" value="0"/>
   </properties>
  </object>
  <object id="46" name="france" type="ownership" gid="119" x="336.48" y="1406.65" width="64" height="64">
   <properties>
    <property name="productionCenter" type="object" value="14"/>
    <property name="terrainModifier" type="object" value="0"/>
    <property name="unit1" type="object" value="63"/>
    <property name="unit2" type="object" value="64"/>
    <property name="unit3" type="object" value="0"/>
    <property name="unit4" type="object" value="0"/>
   </properties>
  </object>
  <object id="47" name="france" type="ownership" gid="119" x="55.8049" y="1507.96" width="64" height="64">
   <properties>
    <property name="productionCenter" type="object" value="27"/>
    <property name="terrainModifier" type="object" value="0"/>
    <property name="unit1" type="object" value="65"/>
    <property name="unit2" type="object" value="66"/>
    <property name="unit3" type="object" value="0"/>
    <property name="unit4" type="object" value="0"/>
   </properties>
  </object>
  <object id="48" name="france" type="ownership" gid="119" x="223.91" y="1216.03" width="64" height="64">
   <properties>
    <property name="productionCenter" type="object" value="16"/>
    <property name="terrainModifier" type="object" value="0"/>
    <property name="unit1" type="object" value="67"/>
    <property name="unit2" type="object" value="68"/>
    <property name="unit3" type="object" value="0"/>
    <property name="unit4" type="object" value="0"/>
   </properties>
  </object>
  <object id="49" name="france" type="ownership" gid="119" x="492.578" y="932.353" width="64" height="64">
   <properties>
    <property name="productionCenter" type="object" value="8"/>
    <property name="terrainModifier" type="object" value="0"/>
    <property name="unit1" type="object" value="61"/>
    <property name="unit2" type="object" value="62"/>
    <property name="unit3" type="object" value="0"/>
    <property name="unit4" type="object" value="0"/>
   </properties>
  </object>
  <object id="50" name="france" type="ownership" gid="119" x="63.3096" y="868.563" width="64" height="64">
   <properties>
    <property name="productionCenter" type="object" value="23"/>
    <property name="terrainModifier" type="object" value="0"/>
    <property name="unit1" type="object" value="78"/>
    <property name="unit2" type="object" value="79"/>
    <property name="unit3" type="object" value="0"/>
    <property name="unit4" type="object" value="0"/>
   </properties>
  </object>
  <object id="51" name="greatBritain" type="ownership" gid="107" x="396.162" y="606.42" width="64" height="64">
   <properties>
    <property name="productionCenter" type="object" value="26"/>
    <property name="terrainModifier" type="object" value="0"/>
    <property name="unit1" type="object" value="80"/>
    <property name="unit2" type="object" value="81"/>
    <property name="unit3" type="object" value="0"/>
    <property name="unit4" type="object" value="0"/>
   </properties>
  </object>
  <object id="52" name="greatBritain" type="ownership" gid="107" x="559.908" y="187.178" width="64" height="64">
   <properties>
    <property name="productionCenter" type="object" value="28"/>
    <property name="terrainModifier" type="object" value="0"/>
    <property name="unit1" type="object" value="59"/>
    <property name="unit2" type="object" value="60"/>
    <property name="unit3" type="object" value="0"/>
    <property name="unit4" type="object" value="0"/>
   </properties>
  </object>
  <object id="53" name="greatBritain" type="ownership" gid="107" x="227.955" y="317.793" width="64" height="64">
   <properties>
    <property name="productionCenter" type="object" value="18"/>
    <property name="terrainModifier" type="object" value="0"/>
    <property name="unit1" type="object" value="57"/>
    <property name="unit2" type="object" value="58"/>
    <property name="unit3" type="object" value="0"/>
    <property name="unit4" type="object" value="0"/>
   </properties>
  </object>
  <object id="54" name="greatBritain" type="ownership" gid="107" x="60.3861" y="155.321" width="64" height="64">
   <properties>
    <property name="productionCenter" type="object" value="22"/>
    <property name="terrainModifier" type="object" value="0"/>
    <property name="unit1" type="object" value="57"/>
    <property name="unit2" type="object" value="58"/>
    <property name="unit3" type="object" value="0"/>
    <property name="unit4" type="object" value="0"/>
   </properties>
  </object>
  <object id="57" name="infantry" type="unit" gid="99" x="112.113" y="256.15" width="64" height="64">
   <properties>
    <property name="boost1" value=""/>
    <property name="boost2" value=""/>
    <property name="boost3" value=""/>
    <property name="experienceRank" value="rookies"/>
    <property name="fatigue" type="float" value="1"/>
    <property name="health" type="float" value="1"/>
    <property name="isDefence" type="bool" value="true"/>
    <property name="movementPoints" type="float" value="1"/>
   </properties>
  </object>
  <object id="58" name="machineGuns" type="unit" gid="95" x="162.336" y="229.722" width="64" height="64">
   <properties>
    <property name="boost1" value=""/>
    <property name="boost2" value=""/>
    <property name="boost3" value=""/>
    <property name="experienceRank" value="rookies"/>
    <property name="fatigue" type="float" value="1"/>
    <property name="health" type="float" value="1"/>
    <property name="isDefence" type="bool" value="true"/>
    <property name="movementPoints" type="float" value="1"/>
   </properties>
  </object>
  <object id="59" name="infantry" type="unit" gid="99" x="591.652" y="111.649" width="64" height="64">
   <properties>
    <property name="boost1" value=""/>
    <property name="boost2" value=""/>
    <property name="boost3" value=""/>
    <property name="experienceRank" value="rookies"/>
    <property name="fatigue" type="float" value="1"/>
    <property name="health" type="float" value="1"/>
    <property name="isDefence" type="bool" value="true"/>
    <property name="movementPoints" type="float" value="1"/>
   </properties>
  </object>
  <object id="60" name="machineGuns" type="unit" gid="95" x="642.728" y="94.5984" width="64" height="64">
   <properties>
    <property name="boost1" value=""/>
    <property name="boost2" value=""/>
    <property name="boost3" value=""/>
    <property name="experienceRank" value="rookies"/>
    <property name="fatigue" type="float" value="1"/>
    <property name="health" type="float" value="1"/>
    <property name="isDefence" type="bool" value="true"/>
    <property name="movementPoints" type="float" value="1"/>
   </properties>
  </object>
  <object id="61" name="infantry" type="unit" gid="99" x="446.298" y="875.929" width="64" height="64">
   <properties>
    <property name="boost1" value=""/>
    <property name="boost2" value=""/>
    <property name="boost3" value=""/>
    <property name="experienceRank" value="rookies"/>
    <property name="fatigue" type="float" value="1"/>
    <property name="health" type="float" value="1"/>
    <property name="isDefence" type="bool" value="true"/>
    <property name="movementPoints" type="float" value="1"/>
   </properties>
  </object>
  <object id="62" name="machineGuns" type="unit" gid="95" x="497.374" y="858.878" width="64" height="64">
   <properties>
    <property name="boost1" value=""/>
    <property name="boost2" value=""/>
    <property name="boost3" value=""/>
    <property name="experienceRank" value="rookies"/>
    <property name="fatigue" type="float" value="1"/>
    <property name="health" type="float" value="1"/>
    <property name="isDefence" type="bool" value="true"/>
    <property name="movementPoints" type="float" value="1"/>
   </properties>
  </object>
  <object id="63" name="infantry" type="unit" gid="99" x="472.044" y="1320.58" width="64" height="64">
   <properties>
    <property name="boost1" value=""/>
    <property name="boost2" value=""/>
    <property name="boost3" value=""/>
    <property name="experienceRank" value="rookies"/>
    <property name="fatigue" type="float" value="1"/>
    <property name="health" type="float" value="1"/>
    <property name="isDefence" type="bool" value="true"/>
    <property name="movementPoints" type="float" value="1"/>
   </properties>
  </object>
  <object id="64" name="machineGuns" type="unit" gid="95" x="523.12" y="1303.53" width="64" height="64">
   <properties>
    <property name="boost1" value=""/>
    <property name="boost2" value=""/>
    <property name="boost3" value=""/>
    <property name="experienceRank" value="rookies"/>
    <property name="fatigue" type="float" value="1"/>
    <property name="health" type="float" value="1"/>
    <property name="isDefence" type="bool" value="true"/>
    <property name="movementPoints" type="float" value="1"/>
   </properties>
  </object>
  <object id="65" name="infantry" type="unit" gid="99" x="-81.5137" y="1527.9" width="64" height="64">
   <properties>
    <property name="boost1" value=""/>
    <property name="boost2" value=""/>
    <property name="boost3" value=""/>
    <property name="experienceRank" value="rookies"/>
    <property name="fatigue" type="float" value="1"/>
    <property name="health" type="float" value="1"/>
    <property name="isDefence" type="bool" value="true"/>
    <property name="movementPoints" type="float" value="1"/>
   </properties>
  </object>
  <object id="66" name="machineGuns" type="unit" gid="95" x="-72.7479" y="1461.48" width="64" height="64">
   <properties>
    <property name="boost1" value=""/>
    <property name="boost2" value=""/>
    <property name="boost3" value=""/>
    <property name="experienceRank" value="rookies"/>
    <property name="fatigue" type="float" value="1"/>
    <property name="health" type="float" value="1"/>
    <property name="isDefence" type="bool" value="true"/>
    <property name="movementPoints" type="float" value="1"/>
   </properties>
  </object>
  <object id="67" name="infantry" type="unit" gid="99" x="149.782" y="1183.07" width="64" height="64">
   <properties>
    <property name="boost1" value=""/>
    <property name="boost2" value=""/>
    <property name="boost3" value=""/>
    <property name="experienceRank" value="rookies"/>
    <property name="fatigue" type="float" value="1"/>
    <property name="health" type="float" value="1"/>
    <property name="isDefence" type="bool" value="true"/>
    <property name="movementPoints" type="float" value="1"/>
   </properties>
  </object>
  <object id="68" name="machineGuns" type="unit" gid="95" x="150.791" y="1134.99" width="64" height="64">
   <properties>
    <property name="boost1" value=""/>
    <property name="boost2" value=""/>
    <property name="boost3" value=""/>
    <property name="experienceRank" value="rookies"/>
    <property name="fatigue" type="float" value="1"/>
    <property name="health" type="float" value="1"/>
    <property name="isDefence" type="bool" value="true"/>
    <property name="movementPoints" type="float" value="1"/>
   </properties>
  </object>
  <object id="70" name="infantry" type="unit" gid="99" x="966.367" y="1355.13" width="64" height="64">
   <properties>
    <property name="boost1" value=""/>
    <property name="boost2" value=""/>
    <property name="boost3" value=""/>
    <property name="experienceRank" value="rookies"/>
    <property name="fatigue" type="float" value="1"/>
    <property name="health" type="float" value="1"/>
    <property name="isDefence" type="bool" value="true"/>
    <property name="movementPoints" type="float" value="1"/>
   </properties>
  </object>
  <object id="71" name="machineGuns" type="unit" gid="95" x="970.902" y="1305.64" width="64" height="64">
   <properties>
    <property name="boost1" value=""/>
    <property name="boost2" value=""/>
    <property name="boost3" value=""/>
    <property name="experienceRank" value="rookies"/>
    <property name="fatigue" type="float" value="1"/>
    <property name="health" type="float" value="1"/>
    <property name="isDefence" type="bool" value="true"/>
    <property name="movementPoints" type="float" value="1"/>
   </properties>
  </object>
  <object id="72" name="infantry" type="unit" gid="99" x="907.838" y="1031.46" width="64" height="64">
   <properties>
    <property name="boost1" value=""/>
    <property name="boost2" value=""/>
    <property name="boost3" value=""/>
    <property name="experienceRank" value="rookies"/>
    <property name="fatigue" type="float" value="1"/>
    <property name="health" type="float" value="1"/>
    <property name="isDefence" type="bool" value="true"/>
    <property name="movementPoints" type="float" value="1"/>
   </properties>
  </object>
  <object id="73" name="machineGuns" type="unit" gid="95" x="912.373" y="981.969" width="64" height="64">
   <properties>
    <property name="boost1" value=""/>
    <property name="boost2" value=""/>
    <property name="boost3" value=""/>
    <property name="experienceRank" value="rookies"/>
    <property name="fatigue" type="float" value="1"/>
    <property name="health" type="float" value="1"/>
    <property name="isDefence" type="bool" value="true"/>
    <property name="movementPoints" type="float" value="1"/>
   </properties>
  </object>
  <object id="74" name="infantry" type="unit" gid="99" x="1223.05" y="786.766" width="64" height="64">
   <properties>
    <property name="boost1" value=""/>
    <property name="boost2" value=""/>
    <property name="boost3" value=""/>
    <property name="experienceRank" value="rookies"/>
    <property name="fatigue" type="float" value="1"/>
    <property name="health" type="float" value="1"/>
    <property name="isDefence" type="bool" value="true"/>
    <property name="movementPoints" type="float" value="1"/>
   </properties>
  </object>
  <object id="75" name="machineGuns" type="unit" gid="95" x="1227.58" y="737.275" width="64" height="64">
   <properties>
    <property name="boost1" value=""/>
    <property name="boost2" value=""/>
    <property name="boost3" value=""/>
    <property name="experienceRank" value="rookies"/>
    <property name="fatigue" type="float" value="1"/>
    <property name="health" type="float" value="1"/>
    <property name="isDefence" type="bool" value="true"/>
    <property name="movementPoints" type="float" value="1"/>
   </properties>
  </object>
  <object id="76" name="infantry" type="unit" gid="99" x="755.457" y="484.771" width="64" height="64">
   <properties>
    <property name="boost1" value=""/>
    <property name="boost2" value=""/>
    <property name="boost3" value=""/>
    <property name="experienceRank" value="rookies"/>
    <property name="fatigue" type="float" value="1"/>
    <property name="health" type="float" value="1"/>
    <property name="isDefence" type="bool" value="true"/>
    <property name="movementPoints" type="float" value="1"/>
   </properties>
  </object>
  <object id="77" name="machineGuns" type="unit" gid="95" x="759.987" y="435.28" width="64" height="64">
   <properties>
    <property name="boost1" value=""/>
    <property name="boost2" value=""/>
    <property name="boost3" value=""/>
    <property name="experienceRank" value="rookies"/>
    <property name="fatigue" type="float" value="1"/>
    <property name="health" type="float" value="1"/>
    <property name="isDefence" type="bool" value="true"/>
    <property name="movementPoints" type="float" value="1"/>
   </properties>
  </object>
  <object id="78" name="machineGunnersCart" type="unit" gid="96" x="-83.8451" y="810.387" width="64" height="64">
   <properties>
    <property name="boost1" value=""/>
    <property name="boost2" value=""/>
    <property name="boost3" value=""/>
    <property name="experienceRank" value="rookies"/>
    <property name="fatigue" type="float" value="1"/>
    <property name="health" type="float" value="1"/>
    <property name="isDefence" type="bool" value="true"/>
    <property name="movementPoints" type="float" value="1"/>
   </properties>
  </object>
  <object id="79" name="artillery" type="unit" gid="94" x="-85.8782" y="868.014" width="64" height="64">
   <properties>
    <property name="boost1" value=""/>
    <property name="boost2" value=""/>
    <property name="boost3" value=""/>
    <property name="experienceRank" value="rookies"/>
    <property name="fatigue" type="float" value="1"/>
    <property name="health" type="float" value="1"/>
    <property name="isDefence" type="bool" value="true"/>
    <property name="movementPoints" type="float" value="1"/>
   </properties>
  </object>
  <object id="80" name="machineGunnersCart" type="unit" gid="96" x="368.529" y="642.653" width="64" height="64">
   <properties>
    <property name="boost1" value=""/>
    <property name="boost2" value=""/>
    <property name="boost3" value=""/>
    <property name="experienceRank" value="rookies"/>
    <property name="fatigue" type="float" value="1"/>
    <property name="health" type="float" value="1"/>
    <property name="isDefence" type="bool" value="true"/>
    <property name="movementPoints" type="float" value="1"/>
   </properties>
  </object>
  <object id="81" name="artillery" type="unit" gid="94" x="428.506" y="636.236" width="64" height="64">
   <properties>
    <property name="boost1" value=""/>
    <property name="boost2" value=""/>
    <property name="boost3" value=""/>
    <property name="experienceRank" value="rookies"/>
    <property name="fatigue" type="float" value="1"/>
    <property name="health" type="float" value="1"/>
    <property name="isDefence" type="bool" value="true"/>
    <property name="movementPoints" type="float" value="1"/>
   </properties>
  </object>
  <object id="82" name="machineGunnersCart" type="unit" gid="96" x="1009.98" y="305.152" width="64" height="64">
   <properties>
    <property name="boost1" value=""/>
    <property name="boost2" value=""/>
    <property name="boost3" value=""/>
    <property name="experienceRank" value="rookies"/>
    <property name="fatigue" type="float" value="1"/>
    <property name="health" type="float" value="1"/>
    <property name="isDefence" type="bool" value="true"/>
    <property name="movementPoints" type="float" value="1"/>
   </properties>
  </object>
  <object id="83" name="artillery" type="unit" gid="94" x="1054.71" y="279.42" width="64" height="64">
   <properties>
    <property name="boost1" value=""/>
    <property name="boost2" value=""/>
    <property name="boost3" value=""/>
    <property name="experienceRank" value="rookies"/>
    <property name="fatigue" type="float" value="1"/>
    <property name="health" type="float" value="1"/>
    <property name="isDefence" type="bool" value="true"/>
    <property name="movementPoints" type="float" value="1"/>
   </properties>
  </object>
  <object id="85" name="germany" type="ownership" gid="118" x="666.912" y="516.972" width="64" height="64">
   <properties>
    <property name="productionCenter" type="object" value="0"/>
    <property name="terrainModifier" type="object" value="136"/>
    <property name="unit1" type="object" value="76"/>
    <property name="unit2" type="object" value="77"/>
    <property name="unit3" type="object" value="0"/>
    <property name="unit4" type="object" value="0"/>
   </properties>
  </object>
  <object id="86" name="germany" type="ownership" gid="118" x="662.866" y="580.227" width="64" height="64">
   <properties>
    <property name="productionCenter" type="object" value="0"/>
    <property name="terrainModifier" type="object" value="136"/>
    <property name="unit1" type="object" value="76"/>
    <property name="unit2" type="object" value="77"/>
    <property name="unit3" type="object" value="0"/>
    <property name="unit4" type="object" value="0"/>
   </properties>
  </object>
  <object id="87" name="infantry" type="unit" gid="99" x="543.06" y="1051.5" width="64" height="64">
   <properties>
    <property name="boost1" value=""/>
    <property name="boost2" value=""/>
    <property name="boost3" value=""/>
    <property name="experienceRank" value="rookies"/>
    <property name="fatigue" type="float" value="1"/>
    <property name="health" type="float" value="1"/>
    <property name="isDefence" type="bool" value="false"/>
    <property name="movementPoints" type="float" value="1"/>
   </properties>
  </object>
  <object id="88" name="cavalry" type="unit" gid="98" x="171.318" y="1248.96" width="64" height="64">
   <properties>
    <property name="boost1" value=""/>
    <property name="boost2" value=""/>
    <property name="boost3" value=""/>
    <property name="experienceRank" value="rookies"/>
    <property name="fatigue" type="float" value="1"/>
    <property name="health" type="float" value="1"/>
    <property name="isDefence" type="bool" value="false"/>
    <property name="movementPoints" type="float" value="1"/>
   </properties>
  </object>
  <object id="89" name="machineGuns" type="unit" gid="95" x="487.083" y="1051.31" width="64" height="64">
   <properties>
    <property name="boost1" value=""/>
    <property name="boost2" value=""/>
    <property name="boost3" value=""/>
    <property name="experienceRank" value="rookies"/>
    <property name="fatigue" type="float" value="1"/>
    <property name="health" type="float" value="1"/>
    <property name="isDefence" type="bool" value="false"/>
    <property name="movementPoints" type="float" value="1"/>
   </properties>
  </object>
  <object id="90" name="artillery" type="unit" gid="94" x="586.498" y="1062.61" width="64" height="64">
   <properties>
    <property name="boost1" value=""/>
    <property name="boost2" value=""/>
    <property name="boost3" value=""/>
    <property name="experienceRank" value="rookies"/>
    <property name="fatigue" type="float" value="1"/>
    <property name="health" type="float" value="1"/>
    <property name="isDefence" type="bool" value="false"/>
    <property name="movementPoints" type="float" value="1"/>
   </properties>
  </object>
  <object id="91" name="germany" type="ownership" gid="118" x="497.262" y="1114.31" width="64" height="64">
   <properties>
    <property name="productionCenter" type="object" value="0"/>
    <property name="terrainModifier" type="object" value="0"/>
    <property name="unit1" type="object" value="87"/>
    <property name="unit2" type="object" value="87"/>
    <property name="unit3" type="object" value="89"/>
    <property name="unit4" type="object" value="90"/>
   </properties>
  </object>
  <object id="93" name="germany" type="ownership" gid="118" x="443.651" y="1155.04" width="64" height="64">
   <properties>
    <property name="productionCenter" type="object" value="0"/>
    <property name="terrainModifier" type="object" value="0"/>
    <property name="unit1" type="object" value="87"/>
    <property name="unit2" type="object" value="87"/>
    <property name="unit3" type="object" value="89"/>
    <property name="unit4" type="object" value="90"/>
   </properties>
  </object>
  <object id="94" name="germany" type="ownership" gid="118" x="554.656" y="1156.23" width="64" height="64">
   <properties>
    <property name="productionCenter" type="object" value="0"/>
    <property name="terrainModifier" type="object" value="0"/>
    <property name="unit1" type="object" value="87"/>
    <property name="unit2" type="object" value="87"/>
    <property name="unit3" type="object" value="89"/>
    <property name="unit4" type="object" value="90"/>
   </properties>
  </object>
  <object id="95" name="germany" type="ownership" gid="118" x="557.043" y="1085.81" width="64" height="64">
   <properties>
    <property name="productionCenter" type="object" value="0"/>
    <property name="terrainModifier" type="object" value="0"/>
    <property name="unit1" type="object" value="87"/>
    <property name="unit2" type="object" value="87"/>
    <property name="unit3" type="object" value="89"/>
    <property name="unit4" type="object" value="90"/>
   </properties>
  </object>
  <object id="97" name="germany" type="ownership" gid="118" x="499.153" y="1245.75" width="64" height="64">
   <properties>
    <property name="productionCenter" type="object" value="0"/>
    <property name="terrainModifier" type="object" value="0"/>
    <property name="unit1" type="object" value="87"/>
    <property name="unit2" type="object" value="87"/>
    <property name="unit3" type="object" value="89"/>
    <property name="unit4" type="object" value="90"/>
   </properties>
  </object>
  <object id="98" name="infantry" type="unit" gid="99" x="258.048" y="1312.3" width="64" height="64">
   <properties>
    <property name="boost1" value=""/>
    <property name="boost2" value=""/>
    <property name="boost3" value=""/>
    <property name="experienceRank" value="rookies"/>
    <property name="fatigue" type="float" value="1"/>
    <property name="health" type="float" value="1"/>
    <property name="isDefence" type="bool" value="false"/>
    <property name="movementPoints" type="float" value="1"/>
   </properties>
  </object>
  <object id="99" name="machineGuns" type="unit" gid="95" x="202.071" y="1312.11" width="64" height="64">
   <properties>
    <property name="boost1" value=""/>
    <property name="boost2" value=""/>
    <property name="boost3" value=""/>
    <property name="experienceRank" value="rookies"/>
    <property name="fatigue" type="float" value="1"/>
    <property name="health" type="float" value="1"/>
    <property name="isDefence" type="bool" value="false"/>
    <property name="movementPoints" type="float" value="1"/>
   </properties>
  </object>
  <object id="100" name="artillery" type="unit" gid="94" x="301.486" y="1323.41" width="64" height="64">
   <properties>
    <property name="boost1" value=""/>
    <property name="boost2" value=""/>
    <property name="boost3" value=""/>
    <property name="experienceRank" value="rookies"/>
    <property name="fatigue" type="float" value="1"/>
    <property name="health" type="float" value="1"/>
    <property name="isDefence" type="bool" value="false"/>
    <property name="movementPoints" type="float" value="1"/>
   </properties>
  </object>
  <object id="101" name="france" type="ownership" gid="119" x="385.769" y="1316" width="64" height="64">
   <properties>
    <property name="productionCenter" type="object" value="0"/>
    <property name="terrainModifier" type="object" value="0"/>
    <property name="unit1" type="object" value="98"/>
    <property name="unit2" type="object" value="98"/>
    <property name="unit3" type="object" value="99"/>
    <property name="unit4" type="object" value="100"/>
   </properties>
  </object>
  <object id="102" name="france" type="ownership" gid="119" x="337.029" y="1277.71" width="64" height="64">
   <properties>
    <property name="productionCenter" type="object" value="0"/>
    <property name="terrainModifier" type="object" value="0"/>
    <property name="unit1" type="object" value="133"/>
    <property name="unit2" type="object" value="133"/>
    <property name="unit3" type="object" value="132"/>
    <property name="unit4" type="object" value="132"/>
   </properties>
  </object>
  <object id="103" name="france" type="ownership" gid="119" x="337.029" y="1091.8" width="64" height="64">
   <properties>
    <property name="productionCenter" type="object" value="0"/>
    <property name="terrainModifier" type="object" value="0"/>
    <property name="unit1" type="object" value="98"/>
    <property name="unit2" type="object" value="98"/>
    <property name="unit3" type="object" value="99"/>
    <property name="unit4" type="object" value="100"/>
   </properties>
  </object>
  <object id="104" name="france" type="ownership" gid="119" x="279.934" y="1128.01" width="64" height="64">
   <properties>
    <property name="productionCenter" type="object" value="0"/>
    <property name="terrainModifier" type="object" value="0"/>
    <property name="unit1" type="object" value="98"/>
    <property name="unit2" type="object" value="98"/>
    <property name="unit3" type="object" value="99"/>
    <property name="unit4" type="object" value="100"/>
   </properties>
  </object>
  <object id="105" name="france" type="ownership" gid="119" x="448.434" y="1346.64" width="64" height="64">
   <properties>
    <property name="productionCenter" type="object" value="0"/>
    <property name="terrainModifier" type="object" value="0"/>
    <property name="unit1" type="object" value="88"/>
    <property name="unit2" type="object" value="88"/>
    <property name="unit3" type="object" value="88"/>
    <property name="unit4" type="object" value="88"/>
   </properties>
  </object>
  <object id="106" name="france" type="ownership" gid="119" x="276.453" y="1056.98" width="64" height="64">
   <properties>
    <property name="productionCenter" type="object" value="0"/>
    <property name="terrainModifier" type="object" value="0"/>
    <property name="unit1" type="object" value="88"/>
    <property name="unit2" type="object" value="88"/>
    <property name="unit3" type="object" value="88"/>
    <property name="unit4" type="object" value="88"/>
   </properties>
  </object>
  <object id="107" name="germany" type="ownership" gid="118" x="829.956" y="294.359" width="64" height="64">
   <properties>
    <property name="productionCenter" type="object" value="0"/>
    <property name="terrainModifier" type="object" value="0"/>
    <property name="unit1" type="object" value="87"/>
    <property name="unit2" type="object" value="87"/>
    <property name="unit3" type="object" value="89"/>
    <property name="unit4" type="object" value="90"/>
   </properties>
  </object>
  <object id="108" name="germany" type="ownership" gid="118" x="832.587" y="360.157" width="64" height="64">
   <properties>
    <property name="productionCenter" type="object" value="0"/>
    <property name="terrainModifier" type="object" value="0"/>
    <property name="unit1" type="object" value="87"/>
    <property name="unit2" type="object" value="87"/>
    <property name="unit3" type="object" value="89"/>
    <property name="unit4" type="object" value="90"/>
   </properties>
  </object>
  <object id="109" name="germany" type="ownership" gid="118" x="770.692" y="333.307" width="64" height="64">
   <properties>
    <property name="productionCenter" type="object" value="0"/>
    <property name="terrainModifier" type="object" value="0"/>
    <property name="unit1" type="object" value="87"/>
    <property name="unit2" type="object" value="87"/>
    <property name="unit3" type="object" value="89"/>
    <property name="unit4" type="object" value="90"/>
   </properties>
  </object>
  <object id="110" name="germany" type="ownership" gid="118" x="780.858" y="388.288" width="64" height="64">
   <properties>
    <property name="productionCenter" type="object" value="0"/>
    <property name="terrainModifier" type="object" value="0"/>
    <property name="unit1" type="object" value="87"/>
    <property name="unit2" type="object" value="87"/>
    <property name="unit3" type="object" value="89"/>
    <property name="unit4" type="object" value="90"/>
   </properties>
  </object>
  <object id="111" name="germany" type="ownership" gid="118" x="773.174" y="455.255" width="64" height="64">
   <properties>
    <property name="productionCenter" type="object" value="0"/>
    <property name="terrainModifier" type="object" value="0"/>
    <property name="unit1" type="object" value="87"/>
    <property name="unit2" type="object" value="87"/>
    <property name="unit3" type="object" value="89"/>
    <property name="unit4" type="object" value="90"/>
   </properties>
  </object>
  <object id="112" name="germany" type="ownership" gid="118" x="613.093" y="869.72" width="64" height="64">
   <properties>
    <property name="productionCenter" type="object" value="0"/>
    <property name="terrainModifier" type="object" value="0"/>
    <property name="unit1" type="object" value="87"/>
    <property name="unit2" type="object" value="87"/>
    <property name="unit3" type="object" value="89"/>
    <property name="unit4" type="object" value="90"/>
   </properties>
  </object>
  <object id="113" name="germany" type="ownership" gid="118" x="615.913" y="933.172" width="64" height="64">
   <properties>
    <property name="productionCenter" type="object" value="0"/>
    <property name="terrainModifier" type="object" value="0"/>
    <property name="unit1" type="object" value="87"/>
    <property name="unit2" type="object" value="87"/>
    <property name="unit3" type="object" value="89"/>
    <property name="unit4" type="object" value="90"/>
   </properties>
  </object>
  <object id="114" name="france" type="ownership" gid="119" x="498.88" y="864.785" width="64" height="64">
   <properties>
    <property name="productionCenter" type="object" value="0"/>
    <property name="terrainModifier" type="object" value="0"/>
    <property name="unit1" type="object" value="98"/>
    <property name="unit2" type="object" value="98"/>
    <property name="unit3" type="object" value="99"/>
    <property name="unit4" type="object" value="100"/>
   </properties>
  </object>
  <object id="115" name="france" type="ownership" gid="119" x="448.118" y="892.986" width="64" height="64">
   <properties>
    <property name="productionCenter" type="object" value="0"/>
    <property name="terrainModifier" type="object" value="0"/>
    <property name="unit1" type="object" value="88"/>
    <property name="unit2" type="object" value="88"/>
    <property name="unit3" type="object" value="88"/>
    <property name="unit4" type="object" value="88"/>
   </properties>
  </object>
  <object id="116" name="germany" type="ownership" gid="118" x="773.133" y="641.294" width="64" height="64">
   <properties>
    <property name="productionCenter" type="object" value="0"/>
    <property name="terrainModifier" type="object" value="0"/>
    <property name="unit1" type="object" value="87"/>
    <property name="unit2" type="object" value="87"/>
    <property name="unit3" type="object" value="120"/>
    <property name="unit4" type="object" value="90"/>
   </properties>
  </object>
  <object id="117" name="germany" type="ownership" gid="118" x="773.838" y="704.746" width="64" height="64">
   <properties>
    <property name="productionCenter" type="object" value="0"/>
    <property name="terrainModifier" type="object" value="0"/>
    <property name="unit1" type="object" value="87"/>
    <property name="unit2" type="object" value="87"/>
    <property name="unit3" type="object" value="120"/>
    <property name="unit4" type="object" value="90"/>
   </properties>
  </object>
  <object id="118" name="cavalry" type="unit" gid="98" x="881.001" y="637.064" width="64" height="64">
   <properties>
    <property name="boost1" value=""/>
    <property name="boost2" value=""/>
    <property name="boost3" value=""/>
    <property name="experienceRank" value="rookies"/>
    <property name="fatigue" type="float" value="1"/>
    <property name="health" type="float" value="1"/>
    <property name="isDefence" type="bool" value="false"/>
    <property name="movementPoints" type="float" value="1"/>
   </properties>
  </object>
  <object id="119" name="germany" type="ownership" gid="118" x="831.649" y="671.61" width="64" height="64">
   <properties>
    <property name="productionCenter" type="object" value="0"/>
    <property name="terrainModifier" type="object" value="0"/>
    <property name="unit1" type="object" value="118"/>
    <property name="unit2" type="object" value="118"/>
    <property name="unit3" type="object" value="118"/>
    <property name="unit4" type="object" value="118"/>
   </properties>
  </object>
  <object id="120" name="machineGunnersCart" type="unit" gid="96" x="706.861" y="636.359" width="64" height="64">
   <properties>
    <property name="boost1" value=""/>
    <property name="boost2" value=""/>
    <property name="boost3" value=""/>
    <property name="experienceRank" value="rookies"/>
    <property name="fatigue" type="float" value="1"/>
    <property name="health" type="float" value="1"/>
    <property name="isDefence" type="bool" value="false"/>
    <property name="movementPoints" type="float" value="1"/>
   </properties>
  </object>
  <object id="121" name="greatBritain" type="ownership" gid="107" x="609.568" y="672.315" width="64" height="64">
   <properties>
    <property name="productionCenter" type="object" value="0"/>
    <property name="terrainModifier" type="object" value="0"/>
    <property name="unit1" type="object" value="120"/>
    <property name="unit2" type="object" value="120"/>
    <property name="unit3" type="object" value="120"/>
    <property name="unit4" type="object" value="120"/>
   </properties>
  </object>
  <object id="122" name="infantry" type="unit" gid="99" x="448.748" y="730.306" width="64" height="64">
   <properties>
    <property name="boost1" value=""/>
    <property name="boost2" value=""/>
    <property name="boost3" value=""/>
    <property name="experienceRank" value="rookies"/>
    <property name="fatigue" type="float" value="1"/>
    <property name="health" type="float" value="1"/>
    <property name="isDefence" type="bool" value="false"/>
    <property name="movementPoints" type="float" value="1"/>
   </properties>
  </object>
  <object id="123" name="machineGuns" type="unit" gid="95" x="392.771" y="730.116" width="64" height="64">
   <properties>
    <property name="boost1" value=""/>
    <property name="boost2" value=""/>
    <property name="boost3" value=""/>
    <property name="experienceRank" value="rookies"/>
    <property name="fatigue" type="float" value="1"/>
    <property name="health" type="float" value="1"/>
    <property name="isDefence" type="bool" value="false"/>
    <property name="movementPoints" type="float" value="1"/>
   </properties>
  </object>
  <object id="124" name="artillery" type="unit" gid="94" x="492.186" y="741.416" width="64" height="64">
   <properties>
    <property name="boost1" value=""/>
    <property name="boost2" value=""/>
    <property name="boost3" value=""/>
    <property name="experienceRank" value="rookies"/>
    <property name="fatigue" type="float" value="1"/>
    <property name="health" type="float" value="1"/>
    <property name="isDefence" type="bool" value="false"/>
    <property name="movementPoints" type="float" value="1"/>
   </properties>
  </object>
  <object id="125" name="greatBritain" type="ownership" gid="107" x="551.051" y="706.156" width="64" height="64">
   <properties>
    <property name="productionCenter" type="object" value="0"/>
    <property name="terrainModifier" type="object" value="0"/>
    <property name="unit1" type="object" value="122"/>
    <property name="unit2" type="object" value="122"/>
    <property name="unit3" type="object" value="123"/>
    <property name="unit4" type="object" value="124"/>
   </properties>
  </object>
  <object id="126" name="greatBritain" type="ownership" gid="107" x="608.863" y="285.259" width="64" height="64">
   <properties>
    <property name="productionCenter" type="object" value="0"/>
    <property name="terrainModifier" type="object" value="0"/>
    <property name="unit1" type="object" value="122"/>
    <property name="unit2" type="object" value="122"/>
    <property name="unit3" type="object" value="123"/>
    <property name="unit4" type="object" value="124"/>
   </properties>
  </object>
  <object id="127" name="greatBritain" type="ownership" gid="107" x="612.388" y="348.006" width="64" height="64">
   <properties>
    <property name="productionCenter" type="object" value="0"/>
    <property name="terrainModifier" type="object" value="0"/>
    <property name="unit1" type="object" value="122"/>
    <property name="unit2" type="object" value="122"/>
    <property name="unit3" type="object" value="123"/>
    <property name="unit4" type="object" value="124"/>
   </properties>
  </object>
  <object id="128" name="greatBritain" type="ownership" gid="107" x="553.166" y="383.962" width="64" height="64">
   <properties>
    <property name="productionCenter" type="object" value="0"/>
    <property name="terrainModifier" type="object" value="0"/>
    <property name="unit1" type="object" value="131"/>
    <property name="unit2" type="object" value="131"/>
    <property name="unit3" type="object" value="130"/>
    <property name="unit4" type="object" value="130"/>
   </properties>
  </object>
  <object id="129" name="greatBritain" type="ownership" gid="107" x="610.978" y="419.918" width="64" height="64">
   <properties>
    <property name="productionCenter" type="object" value="0"/>
    <property name="terrainModifier" type="object" value="0"/>
    <property name="unit1" type="object" value="120"/>
    <property name="unit2" type="object" value="120"/>
    <property name="unit3" type="object" value="120"/>
    <property name="unit4" type="object" value="120"/>
   </properties>
  </object>
  <object id="130" name="tank" type="unit" gid="97" x="499.511" y="319.172" width="64" height="64">
   <properties>
    <property name="boost1" value=""/>
    <property name="boost2" value=""/>
    <property name="boost3" value=""/>
    <property name="experienceRank" value="rookies"/>
    <property name="fatigue" type="float" value="1"/>
    <property name="health" type="float" value="1"/>
    <property name="isDefence" type="bool" value="false"/>
    <property name="movementPoints" type="float" value="1"/>
   </properties>
  </object>
  <object id="131" name="armoredCar" type="unit" gid="93" x="498.821" y="376.82" width="64" height="64">
   <properties>
    <property name="boost1" value=""/>
    <property name="boost2" value=""/>
    <property name="boost3" value=""/>
    <property name="experienceRank" value="rookies"/>
    <property name="fatigue" type="float" value="1"/>
    <property name="health" type="float" value="1"/>
    <property name="isDefence" type="bool" value="false"/>
    <property name="movementPoints" type="float" value="1"/>
   </properties>
  </object>
  <object id="132" name="tank" type="unit" gid="97" x="274.827" y="1434.31" width="64" height="64">
   <properties>
    <property name="boost1" value=""/>
    <property name="boost2" value=""/>
    <property name="boost3" value=""/>
    <property name="experienceRank" value="rookies"/>
    <property name="fatigue" type="float" value="1"/>
    <property name="health" type="float" value="1"/>
    <property name="isDefence" type="bool" value="false"/>
    <property name="movementPoints" type="float" value="1"/>
   </properties>
  </object>
  <object id="133" name="armoredCar" type="unit" gid="93" x="269.995" y="1373.92" width="64" height="64">
   <properties>
    <property name="boost1" value=""/>
    <property name="boost2" value=""/>
    <property name="boost3" value=""/>
    <property name="experienceRank" value="rookies"/>
    <property name="fatigue" type="float" value="1"/>
    <property name="health" type="float" value="1"/>
    <property name="isDefence" type="bool" value="false"/>
    <property name="movementPoints" type="float" value="1"/>
   </properties>
  </object>
  <object id="134" name="germany" type="ownership" gid="118" x="500.201" y="1062.77" width="64" height="64">
   <properties>
    <property name="productionCenter" type="object" value="0"/>
    <property name="terrainModifier" type="object" value="0"/>
    <property name="unit1" type="object" value="87"/>
    <property name="unit2" type="object" value="87"/>
    <property name="unit3" type="object" value="89"/>
    <property name="unit4" type="object" value="90"/>
   </properties>
  </object>
  <object id="135" name="germany" type="ownership" gid="118" x="886.755" y="322.111" width="64" height="64">
   <properties>
    <property name="productionCenter" type="object" value="0"/>
    <property name="terrainModifier" type="object" value="0"/>
    <property name="unit1" type="object" value="87"/>
    <property name="unit2" type="object" value="87"/>
    <property name="unit3" type="object" value="89"/>
    <property name="unit4" type="object" value="90"/>
   </properties>
  </object>
  <object id="136" name="trench" type="terrainModifier" gid="75" x="715.649" y="481.707" width="64" height="64"/>
 </objectgroup>
</map>
