<?xml version="1.0" encoding="UTF-8"?>
<map version="1.10" tiledversion="1.11.0" orientation="hexagonal" renderorder="right-up" width="20" height="20" tilewidth="74" tileheight="64" infinite="0" hexsidelength="37" staggeraxis="x" staggerindex="odd" nextlayerid="5" nextobjectid="148">
 <properties>
  <property name="metadata" value="{ &quot;version&quot;: 1, &quot;title&quot;: { &quot;en&quot;: &quot;Battle of Passchendaele&quot;, &quot;ru&quot;: &quot;Битва при Пашендейле&quot; }, &quot;description&quot;: { &quot;en&quot;: &quot;Battle of Passchendaele (also known as The Third Battle of Ypres) was a campaign, fought by the Allies against the Germany.\n\nThe battle took place on the Western Front, for control of the ridges south and east of the Belgian city of Ypres in West Flanders, as part of a strategy decided by the Allies at conferences in November 1916 and May 1917.&quot;, &quot;ru&quot;: &quot;Битва при Пашендейле (также известная как Третья Битва при Ипре) была кампанией, которую вели союзники против Германии. Битва произошла на Западном фронте за контроль над хребтами к югу и востоку от бельгийского города Ипр в Западной Фландрии, как часть стратегии, принятой союзниками на конференциях в ноябре 1916 и мае 1917.&quot; }, &quot;dates&quot;: { &quot;from&quot;: &quot;1917-07-31&quot;, &quot;to&quot;: &quot;1917-11-10&quot; }, &quot;params&quot;: { &quot;land_only_ai&quot;: true }, &quot;nations&quot;: [ { &quot;code&quot;: &quot;france&quot;, &quot;aggressiveness&quot;: &quot;aggressive&quot;, &quot;startMoney&quot;: 2000, &quot;startIndustryPoints&quot;: 2000 }, { &quot;code&quot;: &quot;greatBritain&quot;, &quot;aggressiveness&quot;: &quot;aggressive&quot;, &quot;startMoney&quot;: 3000, &quot;startIndustryPoints&quot;: 3000 }, { &quot;code&quot;: &quot;germany&quot;, &quot;aggressiveness&quot;: &quot;aggressive&quot;, &quot;startMoney&quot;: 5000, &quot;startIndustryPoints&quot;: 5000 } ], &quot;diplomacy&quot;: [ { &quot;firstNation&quot;: &quot;france&quot;, &quot;secondNation&quot;: &quot;germany&quot;, &quot;relationship&quot;: &quot;war&quot; }, { &quot;firstNation&quot;: &quot;greatBritain&quot;, &quot;secondNation&quot;: &quot;germany&quot;, &quot;relationship&quot;: &quot;war&quot; }, { &quot;firstNation&quot;: &quot;france&quot;, &quot;secondNation&quot;: &quot;greatBritain&quot;, &quot;relationship&quot;: &quot;allied&quot; } ] }"/>
 </properties>
 <tileset firstgid="1" name="terrain_atlas" tilewidth="74" tileheight="64" tilecount="88" columns="8">
  <image source="../../../images/tiles/terrain_atlas_new.png" width="592" height="704"/>
 </tileset>
 <tileset firstgid="89" source="../../game_objects.tsx"/>
 <tileset firstgid="143" name="TempBackground" tilewidth="1000" tileheight="1142" tilecount="1" columns="1">
  <image source="../../../images/temp_backgrounds/battle_of_passchendaele_1.webp" width="1000" height="1142"/>
 </tileset>
 <objectgroup id="5" name="TempBackground" visible="0" locked="1">
  <object id="1" gid="143" x="0.154474" y="1312.02" width="1118.23" height="1311.99"/>
 </objectgroup>
 <layer id="1" name="Terrain" width="20" height="20">
  <data encoding="csv">
27,27,27,27,27,27,20,19,18,20,17,27,4,5,6,27,27,27,27,27,
27,27,27,28,27,27,27,27,17,27,18,27,5,27,6,27,27,26,27,27,
27,27,26,28,27,27,27,27,27,27,27,27,27,27,27,28,28,27,27,27,
27,27,28,27,27,27,27,27,27,27,27,27,27,27,14,27,27,27,27,27,
27,27,27,27,27,27,27,27,27,27,27,28,27,27,27,27,27,27,27,27,
27,27,27,27,27,27,27,27,27,27,27,27,26,12,27,27,27,27,27,27,
27,27,27,27,26,27,27,27,27,27,26,27,27,27,27,15,27,27,27,27,
27,27,27,26,27,27,27,28,27,27,28,27,27,27,27,27,27,27,27,27,
27,27,27,27,27,27,27,27,27,27,27,26,27,20,27,27,27,27,26,27,
27,27,27,27,27,27,27,27,27,19,27,27,22,21,27,27,27,27,27,27,
27,27,27,27,27,27,27,27,17,18,20,27,20,27,27,27,27,27,27,27,
27,27,27,27,27,26,27,27,20,27,27,27,27,13,27,27,27,27,27,27,
27,27,27,27,27,27,27,27,26,27,12,15,27,27,27,27,27,27,27,27,
27,27,27,27,27,26,27,27,27,27,27,27,27,27,14,16,27,27,27,27,
27,27,27,12,27,27,27,13,27,27,27,27,27,27,27,27,28,27,27,27,
13,27,27,27,26,27,15,12,27,27,27,27,27,28,26,27,27,27,28,27,
12,27,15,27,15,12,16,27,27,27,27,27,27,27,27,27,27,27,27,27,
16,27,13,27,28,27,26,28,27,27,27,27,27,27,26,27,27,27,27,27,
27,27,27,27,27,27,13,27,27,27,27,27,27,27,27,27,27,27,27,27,
27,27,27,27,27,27,26,27,27,27,27,27,27,27,27,27,27,27,27,27
</data>
 </layer>
 <layer id="2" name="RoadsAndRivers" width="20" height="20">
  <data encoding="csv">
60,31,33,33,0,0,0,0,0,0,0,0,0,0,0,0,0,0,0,0,
53,38,49,48,33,32,0,0,0,0,0,0,0,0,0,0,0,0,0,0,
53,0,32,54,0,38,0,0,0,0,0,0,0,0,0,0,0,53,0,0,
53,0,38,32,49,49,33,32,0,0,0,49,0,0,0,0,0,52,0,0,
54,48,0,37,0,0,48,38,0,0,0,0,49,49,0,50,50,0,0,0,
0,53,0,38,0,0,54,49,33,32,0,0,0,0,56,0,0,0,0,0,
0,53,0,0,32,0,0,0,48,38,0,68,0,0,53,0,0,0,0,0,
0,53,49,49,37,0,0,51,55,56,29,32,49,49,52,0,0,0,0,0,
0,53,0,0,31,48,0,53,72,52,0,42,0,0,49,49,0,0,0,0,
0,53,0,0,37,60,0,50,50,0,0,0,0,0,0,0,48,0,0,0,
0,53,0,0,38,32,69,0,0,0,0,0,0,68,0,68,53,0,0,0,
0,53,0,0,0,37,0,0,0,51,68,69,50,0,69,0,54,48,0,0,
0,53,0,0,0,38,0,64,0,52,0,0,0,0,0,0,0,53,0,0,
0,53,0,0,0,0,67,50,29,33,0,0,0,0,0,0,0,53,0,0,
0,53,0,0,0,51,50,0,0,0,32,0,0,0,0,0,0,53,0,0,
0,53,0,51,68,63,0,0,0,0,38,29,68,48,0,68,0,0,0,0,
0,53,0,53,0,0,0,68,0,50,50,0,32,0,50,0,69,64,0,0,
0,53,0,55,0,50,50,0,69,0,0,0,38,40,64,67,34,0,33,33,
0,59,50,0,69,0,0,0,0,0,0,0,0,36,0,0,0,0,0,0,
0,0,0,0,0,0,0,0,0,34,64,67,34,0,0,0,0,0,0,0
</data>
 </layer>
 <objectgroup id="3" name="GameObjects">
  <object id="53" name="level1" type="city" gid="104" x="304.114" y="1024.78" width="33.0961" height="33.464">
   <properties>
    <property name="name_en" value="Wytschaete"/>
    <property name="name_ru" value="Витчате"/>
   </properties>
  </object>
  <object id="54" name="level1" type="city" gid="104" x="359.416" y="1118.19" width="31.9923" height="31.9923">
   <properties>
    <property name="name_en" value="Messines"/>
    <property name="name_ru" value="Мессины"/>
   </properties>
  </object>
  <object id="56" name="level1" type="city" gid="104" x="409.518" y="645.389" width="43.3736" height="43.3736">
   <properties>
    <property name="name_en" value="White Chateau"/>
    <property name="name_ru" value="Уайт Шато"/>
   </properties>
  </object>
  <object id="58" name="level1" type="city" gid="104" x="466.622" y="419.979" width="39.5314" height="37.2375">
   <properties>
    <property name="name_en" value="St. Julien"/>
    <property name="name_ru" value="Сен-Жюльен"/>
   </properties>
  </object>
  <object id="59" name="level1" type="city" gid="104" x="568.775" y="232.053" width="44.8839" height="45.6486">
   <properties>
    <property name="name_en" value="Poelcapelle"/>
    <property name="name_ru" value="Поэлкапелле"/>
   </properties>
  </object>
  <object id="61" name="level1" type="city" gid="104" x="734.221" y="528.728" width="44.1193" height="44.1193">
   <properties>
    <property name="name_en" value="Broodsiende"/>
    <property name="name_ru" value="Брудсенде"/>
   </properties>
  </object>
  <object id="63" name="level1" type="city" gid="104" x="15.3916" y="46.0066" width="48.7212" height="46.4293">
   <properties>
    <property name="name_en" value="Poesele"/>
    <property name="name_ru" value="Поселе"/>
   </properties>
  </object>
  <object id="64" name="level1" type="city" gid="104" x="349.612" y="301.361" width="44.8839" height="45.6486">
   <properties>
    <property name="name_en" value="Langemarke"/>
    <property name="name_ru" value="Ланжмарк"/>
   </properties>
  </object>
  <object id="66" name="level2" type="factory" gid="101" x="786.497" y="365.908" width="47.1779" height="47.9425">
   <properties>
    <property name="name_en" value="Passchendaele"/>
    <property name="name_ru" value="Пашендейле"/>
   </properties>
  </object>
  <object id="67" name="level2" type="factory" gid="101" x="296.316" y="654.966" width="45.6654" height="45.6654">
   <properties>
    <property name="name_en" value="Ypres"/>
    <property name="name_ru" value="Ипр"/>
   </properties>
  </object>
  <object id="68" name="level1" type="city" gid="104" x="957.092" y="1038.72" width="43.8515" height="44.4271">
   <properties>
    <property name="name_en" value="Kruiseik"/>
    <property name="name_ru" value="Крузейк"/>
   </properties>
  </object>
  <object id="69" name="level1" type="city" gid="104" x="735.088" y="1097.9" width="44.4271" height="42.7001">
   <properties>
    <property name="name_en" value="Zandvoorde"/>
    <property name="name_ru" value="Зандвуд"/>
   </properties>
  </object>
  <object id="70" name="level1" type="city" gid="104" x="956.376" y="136.927" width="41.8254" height="41.8254">
   <properties>
    <property name="name_en" value="Westroosebeke"/>
    <property name="name_ru" value="Веструсебеке"/>
   </properties>
  </object>
  <object id="71" name="level1" type="city" gid="104" x="900.92" y="751.489" width="48.7071" height="47.1779">
   <properties>
    <property name="name_en" value="Reutel"/>
    <property name="name_ru" value="Рейтел"/>
   </properties>
  </object>
  <object id="72" name="level2" type="factory" gid="101" x="183.228" y="201.284" width="44.8839" height="46.4132">
   <properties>
    <property name="name_en" value="Bixschoote"/>
    <property name="name_ru" value="Биксхоте"/>
   </properties>
  </object>
  <object id="73" name="level1" type="city" gid="104" x="75.373" y="839.761" width="44.9015" height="46.4293">
   <properties>
    <property name="name_en" value="Poperinghe"/>
    <property name="name_ru" value="Поперинже"/>
   </properties>
  </object>
  <object id="74" name="level1" type="city" gid="104" x="75.6484" y="460.854" width="47.9572" height="44.1375">
   <properties>
    <property name="name_en" value="Elverdinghe"/>
    <property name="name_ru" value="Элвердинже"/>
   </properties>
  </object>
  <object id="75" name="level2" type="city" gid="105" x="76.903" y="1220.15" width="42.6096" height="41.8457">
   <properties>
    <property name="name_en" value="Armentières"/>
    <property name="name_ru" value="Армантьер"/>
   </properties>
  </object>
  <object id="76" name="greatBritain" type="ownership" gid="123" x="53.7889" y="492.445" width="64" height="64">
   <properties>
    <property name="productionCenter" type="object" value="74"/>
    <property name="terrainModifier" type="object" value="0"/>
    <property name="unit1" type="object" value="97"/>
    <property name="unit2" type="object" value="97"/>
    <property name="unit3" type="object" value="0"/>
    <property name="unit4" type="object" value="0"/>
   </properties>
  </object>
  <object id="77" name="germany" type="ownership" gid="134" x="163.448" y="240.061" width="64" height="64">
   <properties>
    <property name="productionCenter" type="object" value="72"/>
    <property name="terrainModifier" type="object" value="0"/>
    <property name="unit1" type="object" value="97"/>
    <property name="unit2" type="object" value="97"/>
    <property name="unit3" type="object" value="0"/>
    <property name="unit4" type="object" value="0"/>
   </properties>
  </object>
  <object id="78" name="france" type="ownership" gid="135" x="1.46652" y="75.0845" width="54.8327" height="50.249">
   <properties>
    <property name="productionCenter" type="object" value="63"/>
    <property name="terrainModifier" type="object" value="0"/>
    <property name="unit1" type="object" value="97"/>
    <property name="unit2" type="object" value="97"/>
    <property name="unit3" type="object" value="0"/>
    <property name="unit4" type="object" value="0"/>
   </properties>
  </object>
  <object id="79" name="greatBritain" type="ownership" gid="123" x="50.5057" y="875.563" width="64" height="64">
   <properties>
    <property name="productionCenter" type="object" value="73"/>
    <property name="terrainModifier" type="object" value="0"/>
    <property name="unit1" type="object" value="97"/>
    <property name="unit2" type="object" value="97"/>
    <property name="unit3" type="object" value="0"/>
    <property name="unit4" type="object" value="0"/>
   </properties>
  </object>
  <object id="80" name="greatBritain" type="ownership" gid="123" x="53.5615" y="1259.83" width="64" height="64">
   <properties>
    <property name="productionCenter" type="object" value="75"/>
    <property name="terrainModifier" type="object" value="0"/>
    <property name="unit1" type="object" value="97"/>
    <property name="unit2" type="object" value="97"/>
    <property name="unit3" type="object" value="0"/>
    <property name="unit4" type="object" value="0"/>
   </properties>
  </object>
  <object id="81" name="greatBritain" type="ownership" gid="123" x="276.633" y="685.341" width="64" height="64">
   <properties>
    <property name="productionCenter" type="object" value="67"/>
    <property name="terrainModifier" type="object" value="0"/>
    <property name="unit1" type="object" value="97"/>
    <property name="unit2" type="object" value="97"/>
    <property name="unit3" type="object" value="0"/>
    <property name="unit4" type="object" value="0"/>
   </properties>
  </object>
  <object id="82" name="greatBritain" type="ownership" gid="123" x="385.876" y="685.341" width="64" height="64">
   <properties>
    <property name="productionCenter" type="object" value="56"/>
    <property name="terrainModifier" type="object" value="0"/>
    <property name="unit1" type="object" value="97"/>
    <property name="unit2" type="object" value="97"/>
    <property name="unit3" type="object" value="0"/>
    <property name="unit4" type="object" value="0"/>
   </properties>
  </object>
  <object id="83" name="germany" type="ownership" gid="134" x="328.147" y="335.793" width="64" height="64">
   <properties>
    <property name="productionCenter" type="object" value="64"/>
    <property name="terrainModifier" type="object" value="0"/>
    <property name="unit1" type="object" value="97"/>
    <property name="unit2" type="object" value="97"/>
    <property name="unit3" type="object" value="0"/>
    <property name="unit4" type="object" value="0"/>
   </properties>
  </object>
  <object id="84" name="germany" type="ownership" gid="134" x="439.785" y="463.489" width="64" height="64">
   <properties>
    <property name="productionCenter" type="object" value="58"/>
    <property name="terrainModifier" type="object" value="0"/>
    <property name="unit1" type="object" value="97"/>
    <property name="unit2" type="object" value="97"/>
    <property name="unit3" type="object" value="0"/>
    <property name="unit4" type="object" value="0"/>
   </properties>
  </object>
  <object id="85" name="germany" type="ownership" gid="134" x="549.129" y="270.034" width="64" height="64">
   <properties>
    <property name="productionCenter" type="object" value="59"/>
    <property name="terrainModifier" type="object" value="0"/>
    <property name="unit1" type="object" value="98"/>
    <property name="unit2" type="object" value="98"/>
    <property name="unit3" type="object" value="0"/>
    <property name="unit4" type="object" value="0"/>
   </properties>
  </object>
  <object id="86" name="germany" type="ownership" gid="134" x="933.744" y="173.689" width="64" height="64">
   <properties>
    <property name="productionCenter" type="object" value="70"/>
    <property name="terrainModifier" type="object" value="0"/>
    <property name="unit1" type="object" value="98"/>
    <property name="unit2" type="object" value="98"/>
    <property name="unit3" type="object" value="0"/>
    <property name="unit4" type="object" value="0"/>
   </properties>
  </object>
  <object id="87" name="germany" type="ownership" gid="134" x="767.816" y="398.494" width="64" height="64">
   <properties>
    <property name="productionCenter" type="object" value="66"/>
    <property name="terrainModifier" type="object" value="0"/>
    <property name="unit1" type="object" value="98"/>
    <property name="unit2" type="object" value="98"/>
    <property name="unit3" type="object" value="0"/>
    <property name="unit4" type="object" value="0"/>
   </properties>
  </object>
  <object id="88" name="germany" type="ownership" gid="134" x="715.056" y="558.304" width="64" height="64">
   <properties>
    <property name="productionCenter" type="object" value="61"/>
    <property name="terrainModifier" type="object" value="0"/>
    <property name="unit1" type="object" value="98"/>
    <property name="unit2" type="object" value="98"/>
    <property name="unit3" type="object" value="0"/>
    <property name="unit4" type="object" value="0"/>
   </properties>
  </object>
  <object id="89" name="germany" type="ownership" gid="134" x="877.16" y="781.58" width="64" height="64">
   <properties>
    <property name="productionCenter" type="object" value="71"/>
    <property name="terrainModifier" type="object" value="0"/>
    <property name="unit1" type="object" value="98"/>
    <property name="unit2" type="object" value="98"/>
    <property name="unit3" type="object" value="0"/>
    <property name="unit4" type="object" value="0"/>
   </properties>
  </object>
  <object id="90" name="germany" type="ownership" gid="134" x="934.846" y="1068.96" width="64" height="64">
   <properties>
    <property name="productionCenter" type="object" value="68"/>
    <property name="terrainModifier" type="object" value="0"/>
    <property name="unit1" type="object" value="98"/>
    <property name="unit2" type="object" value="98"/>
    <property name="unit3" type="object" value="0"/>
    <property name="unit4" type="object" value="0"/>
   </properties>
  </object>
  <object id="91" name="germany" type="ownership" gid="134" x="712.92" y="1134.31" width="64" height="64">
   <properties>
    <property name="productionCenter" type="object" value="69"/>
    <property name="terrainModifier" type="object" value="0"/>
    <property name="unit1" type="object" value="98"/>
    <property name="unit2" type="object" value="98"/>
    <property name="unit3" type="object" value="0"/>
    <property name="unit4" type="object" value="0"/>
   </properties>
  </object>
  <object id="92" name="germany" type="ownership" gid="134" x="328.914" y="1167" width="64" height="64">
   <properties>
    <property name="productionCenter" type="object" value="54"/>
    <property name="terrainModifier" type="object" value="0"/>
    <property name="unit1" type="object" value="97"/>
    <property name="unit2" type="object" value="97"/>
    <property name="unit3" type="object" value="0"/>
    <property name="unit4" type="object" value="0"/>
   </properties>
  </object>
  <object id="93" name="germany" type="ownership" gid="134" x="273.36" y="1069.5" width="64" height="64">
   <properties>
    <property name="productionCenter" type="object" value="53"/>
    <property name="terrainModifier" type="object" value="0"/>
    <property name="unit1" type="object" value="97"/>
    <property name="unit2" type="object" value="97"/>
    <property name="unit3" type="object" value="0"/>
    <property name="unit4" type="object" value="0"/>
   </properties>
  </object>
  <object id="94" name="france" type="ownershipRegion" x="0.875657" y="2.62697">
   <polygon points="0,0 120.841,2.62697 122.592,123.468 178.634,155.867 177.758,224.168 235.552,251.313 219.79,285.464 159.37,316.112 0,387.04"/>
  </object>
  <object id="95" name="greatBritain" type="ownershipRegion" x="0" y="394.046">
   <polygon points="0,0 1.75131,915.937 411.897,915.937 234.785,740.055 216.087,653.438 256.863,568.138 560.034,367.077 509.632,158.494 396.673,24.5184 321.281,-26.3663 236.938,-69.9146 221.541,-102.452"/>
  </object>
  <object id="96" name="germany" type="ownershipRegion" x="1116.68" y="1.25894">
   <polygon points="0,0 -993.806,-0.251788 -991.792,123.88 -936.147,156.612 -936.902,224.846 -878.487,252.039 -894.602,287.038 -877.273,321.202 -794.339,363.902 -718.602,416.709 -606.808,549.149 -553.234,760.334 -854.51,960.539 -895.626,1046.25 -878.638,1130.87 -701.752,1307.87 -566.019,1309.55 0.503575,1309.55"/>
  </object>
  <object id="97" name="infantry" type="unit" gid="115" x="-133.946" y="593.579" width="64" height="64">
   <properties>
    <property name="boost1" value="defence"/>
    <property name="boost2" value=""/>
    <property name="boost3" value=""/>
    <property name="experienceRank" value="rookies"/>
    <property name="fatigue" type="float" value="1"/>
    <property name="health" type="float" value="1"/>
    <property name="isDefence" type="bool" value="true"/>
    <property name="movementPoints" type="float" value="1"/>
   </properties>
  </object>
  <object id="98" name="infantry" type="unit" gid="115" x="1149.57" y="702.263" width="64" height="64">
   <properties>
    <property name="boost1" value="defence"/>
    <property name="boost2" value=""/>
    <property name="boost3" value=""/>
    <property name="experienceRank" value="rookies"/>
    <property name="fatigue" type="float" value="1"/>
    <property name="health" type="float" value="1"/>
    <property name="isDefence" type="bool" value="true"/>
    <property name="movementPoints" type="float" value="1"/>
   </properties>
  </object>
  <object id="99" name="tank" type="unit" gid="113" x="-241.314" y="405.247" width="64" height="64">
   <properties>
    <property name="boost1" value="commander"/>
    <property name="boost2" value=""/>
    <property name="boost3" value=""/>
    <property name="experienceRank" value="rookies"/>
    <property name="fatigue" type="float" value="1"/>
    <property name="health" type="float" value="1"/>
    <property name="isDefence" type="bool" value="false"/>
    <property name="movementPoints" type="float" value="1"/>
   </properties>
  </object>
  <object id="100" name="machineGunnersCart" type="unit" gid="112" x="-241.314" y="494.663" width="64" height="64">
   <properties>
    <property name="boost1" value=""/>
    <property name="boost2" value=""/>
    <property name="boost3" value=""/>
    <property name="experienceRank" value="rookies"/>
    <property name="fatigue" type="float" value="1"/>
    <property name="health" type="float" value="1"/>
    <property name="isDefence" type="bool" value="false"/>
    <property name="movementPoints" type="float" value="1"/>
   </properties>
  </object>
  <object id="101" name="machineGuns" type="unit" gid="111" x="-241.314" y="584.079" width="64" height="64">
   <properties>
    <property name="boost1" value="transport"/>
    <property name="boost2" value=""/>
    <property name="boost3" value=""/>
    <property name="experienceRank" value="rookies"/>
    <property name="fatigue" type="float" value="1"/>
    <property name="health" type="float" value="1"/>
    <property name="isDefence" type="bool" value="false"/>
    <property name="movementPoints" type="float" value="1"/>
   </properties>
  </object>
  <object id="102" name="artillery" type="unit" gid="110" x="-241.314" y="684.444" width="64" height="64">
   <properties>
    <property name="boost1" value="transport"/>
    <property name="boost2" value=""/>
    <property name="boost3" value=""/>
    <property name="experienceRank" value="rookies"/>
    <property name="fatigue" type="float" value="1"/>
    <property name="health" type="float" value="1"/>
    <property name="isDefence" type="bool" value="false"/>
    <property name="movementPoints" type="float" value="1"/>
   </properties>
  </object>
  <object id="103" name="armoredCar" type="unit" gid="109" x="-241.314" y="786.634" width="64" height="64">
   <properties>
    <property name="boost1" value=""/>
    <property name="boost2" value=""/>
    <property name="boost3" value=""/>
    <property name="experienceRank" value="rookies"/>
    <property name="fatigue" type="float" value="1"/>
    <property name="health" type="float" value="1"/>
    <property name="isDefence" type="bool" value="false"/>
    <property name="movementPoints" type="float" value="1"/>
   </properties>
  </object>
  <object id="104" name="infantry" type="unit" gid="115" x="-238.068" y="878.271" width="64" height="64">
   <properties>
    <property name="boost1" value="transport"/>
    <property name="boost2" value=""/>
    <property name="boost3" value=""/>
    <property name="experienceRank" value="rookies"/>
    <property name="fatigue" type="float" value="1"/>
    <property name="health" type="float" value="1"/>
    <property name="isDefence" type="bool" value="false"/>
    <property name="movementPoints" type="float" value="1"/>
   </properties>
  </object>
  <object id="105" name="france" type="ownership" gid="135" x="66.8493" y="91.5703" width="54.8327" height="50.249">
   <properties>
    <property name="productionCenter" type="object" value="0"/>
    <property name="terrainModifier" type="object" value="0"/>
    <property name="unit1" type="object" value="99"/>
    <property name="unit2" type="object" value="103"/>
    <property name="unit3" type="object" value="100"/>
    <property name="unit4" type="object" value="100"/>
   </properties>
  </object>
  <object id="107" name="france" type="ownership" gid="135" x="14.0928" y="118.119" width="54.8327" height="50.249">
   <properties>
    <property name="productionCenter" type="object" value="0"/>
    <property name="terrainModifier" type="object" value="0"/>
    <property name="unit1" type="object" value="104"/>
    <property name="unit2" type="object" value="104"/>
    <property name="unit3" type="object" value="101"/>
    <property name="unit4" type="object" value="102"/>
   </properties>
  </object>
  <object id="108" name="france" type="ownership" gid="135" x="9.88802" y="182.848" width="54.8327" height="50.249">
   <properties>
    <property name="productionCenter" type="object" value="0"/>
    <property name="terrainModifier" type="object" value="0"/>
    <property name="unit1" type="object" value="104"/>
    <property name="unit2" type="object" value="104"/>
    <property name="unit3" type="object" value="101"/>
    <property name="unit4" type="object" value="102"/>
   </properties>
  </object>
  <object id="109" name="tank" type="unit" gid="113" x="-246.183" y="317.573" width="64" height="64">
   <properties>
    <property name="boost1" value=""/>
    <property name="boost2" value=""/>
    <property name="boost3" value=""/>
    <property name="experienceRank" value="rookies"/>
    <property name="fatigue" type="float" value="1"/>
    <property name="health" type="float" value="1"/>
    <property name="isDefence" type="bool" value="false"/>
    <property name="movementPoints" type="float" value="1"/>
   </properties>
  </object>
  <object id="110" name="greatBritain" type="ownership" gid="123" x="9.63323" y="574.998" width="64" height="64">
   <properties>
    <property name="productionCenter" type="object" value="0"/>
    <property name="terrainModifier" type="object" value="0"/>
    <property name="unit1" type="object" value="99"/>
    <property name="unit2" type="object" value="103"/>
    <property name="unit3" type="object" value="100"/>
    <property name="unit4" type="object" value="100"/>
   </properties>
  </object>
  <object id="111" name="greatBritain" type="ownership" gid="123" x="6.33987" y="640.656" width="64" height="64">
   <properties>
    <property name="productionCenter" type="object" value="0"/>
    <property name="terrainModifier" type="object" value="0"/>
    <property name="unit1" type="object" value="109"/>
    <property name="unit2" type="object" value="103"/>
    <property name="unit3" type="object" value="100"/>
    <property name="unit4" type="object" value="100"/>
   </properties>
  </object>
  <object id="112" name="greatBritain" type="ownership" gid="123" x="61.2194" y="553.951" width="64" height="64">
   <properties>
    <property name="productionCenter" type="object" value="0"/>
    <property name="terrainModifier" type="object" value="0"/>
    <property name="unit1" type="object" value="104"/>
    <property name="unit2" type="object" value="104"/>
    <property name="unit3" type="object" value="102"/>
    <property name="unit4" type="object" value="101"/>
   </properties>
  </object>
  <object id="113" name="greatBritain" type="ownership" gid="123" x="63.4389" y="610.402" width="64" height="64">
   <properties>
    <property name="productionCenter" type="object" value="0"/>
    <property name="terrainModifier" type="object" value="0"/>
    <property name="unit1" type="object" value="104"/>
    <property name="unit2" type="object" value="104"/>
    <property name="unit3" type="object" value="102"/>
    <property name="unit4" type="object" value="101"/>
   </properties>
  </object>
  <object id="114" name="greatBritain" type="ownership" gid="123" x="61.6833" y="671.658" width="64" height="64">
   <properties>
    <property name="productionCenter" type="object" value="0"/>
    <property name="terrainModifier" type="object" value="0"/>
    <property name="unit1" type="object" value="104"/>
    <property name="unit2" type="object" value="104"/>
    <property name="unit3" type="object" value="102"/>
    <property name="unit4" type="object" value="101"/>
   </properties>
  </object>
  <object id="115" name="greatBritain" type="ownership" gid="123" x="10.5" y="1278.66" width="64" height="64">
   <properties>
    <property name="productionCenter" type="object" value="0"/>
    <property name="terrainModifier" type="object" value="0"/>
    <property name="unit1" type="object" value="99"/>
    <property name="unit2" type="object" value="103"/>
    <property name="unit3" type="object" value="100"/>
    <property name="unit4" type="object" value="100"/>
   </properties>
  </object>
  <object id="116" name="greatBritain" type="ownership" gid="123" x="56.4511" y="1318.47" width="64" height="64">
   <properties>
    <property name="productionCenter" type="object" value="0"/>
    <property name="terrainModifier" type="object" value="0"/>
    <property name="unit1" type="object" value="109"/>
    <property name="unit2" type="object" value="103"/>
    <property name="unit3" type="object" value="100"/>
    <property name="unit4" type="object" value="100"/>
   </properties>
  </object>
  <object id="117" name="greatBritain" type="ownership" gid="123" x="175.853" y="1311.95" width="64" height="64">
   <properties>
    <property name="productionCenter" type="object" value="0"/>
    <property name="terrainModifier" type="object" value="0"/>
    <property name="unit1" type="object" value="104"/>
    <property name="unit2" type="object" value="104"/>
    <property name="unit3" type="object" value="102"/>
    <property name="unit4" type="object" value="101"/>
   </properties>
  </object>
  <object id="118" name="greatBritain" type="ownership" gid="123" x="114.817" y="1284.06" width="64" height="64">
   <properties>
    <property name="productionCenter" type="object" value="0"/>
    <property name="terrainModifier" type="object" value="0"/>
    <property name="unit1" type="object" value="104"/>
    <property name="unit2" type="object" value="104"/>
    <property name="unit3" type="object" value="102"/>
    <property name="unit4" type="object" value="101"/>
   </properties>
  </object>
  <object id="119" name="greatBritain" type="ownership" gid="123" x="6.06091" y="1214.22" width="64" height="64">
   <properties>
    <property name="productionCenter" type="object" value="0"/>
    <property name="terrainModifier" type="object" value="0"/>
    <property name="unit1" type="object" value="104"/>
    <property name="unit2" type="object" value="104"/>
    <property name="unit3" type="object" value="102"/>
    <property name="unit4" type="object" value="101"/>
   </properties>
  </object>
  <object id="121" name="machineGunnersCart" type="unit" gid="112" x="1276.86" y="511.448" width="64" height="64">
   <properties>
    <property name="boost1" value=""/>
    <property name="boost2" value=""/>
    <property name="boost3" value=""/>
    <property name="experienceRank" value="rookies"/>
    <property name="fatigue" type="float" value="1"/>
    <property name="health" type="float" value="1"/>
    <property name="isDefence" type="bool" value="false"/>
    <property name="movementPoints" type="float" value="1"/>
   </properties>
  </object>
  <object id="122" name="machineGuns" type="unit" gid="111" x="1276.86" y="600.864" width="64" height="64">
   <properties>
    <property name="boost1" value="transport"/>
    <property name="boost2" value=""/>
    <property name="boost3" value=""/>
    <property name="experienceRank" value="rookies"/>
    <property name="fatigue" type="float" value="1"/>
    <property name="health" type="float" value="1"/>
    <property name="isDefence" type="bool" value="false"/>
    <property name="movementPoints" type="float" value="1"/>
   </properties>
  </object>
  <object id="123" name="artillery" type="unit" gid="110" x="1276.86" y="701.229" width="64" height="64">
   <properties>
    <property name="boost1" value="transport"/>
    <property name="boost2" value=""/>
    <property name="boost3" value=""/>
    <property name="experienceRank" value="rookies"/>
    <property name="fatigue" type="float" value="1"/>
    <property name="health" type="float" value="1"/>
    <property name="isDefence" type="bool" value="false"/>
    <property name="movementPoints" type="float" value="1"/>
   </properties>
  </object>
  <object id="124" name="armoredCar" type="unit" gid="109" x="1276.86" y="803.419" width="64" height="64">
   <properties>
    <property name="boost1" value="commander"/>
    <property name="boost2" value=""/>
    <property name="boost3" value=""/>
    <property name="experienceRank" value="rookies"/>
    <property name="fatigue" type="float" value="1"/>
    <property name="health" type="float" value="1"/>
    <property name="isDefence" type="bool" value="false"/>
    <property name="movementPoints" type="float" value="1"/>
   </properties>
  </object>
  <object id="125" name="infantry" type="unit" gid="115" x="1276.12" y="993.525" width="64" height="64">
   <properties>
    <property name="boost1" value="transport"/>
    <property name="boost2" value=""/>
    <property name="boost3" value=""/>
    <property name="experienceRank" value="elite"/>
    <property name="fatigue" type="float" value="1"/>
    <property name="health" type="float" value="1"/>
    <property name="isDefence" type="bool" value="false"/>
    <property name="movementPoints" type="float" value="1"/>
   </properties>
  </object>
  <object id="127" name="armoredCar" type="unit" gid="109" x="1273.39" y="896.809" width="64" height="64">
   <properties>
    <property name="boost1" value=""/>
    <property name="boost2" value=""/>
    <property name="boost3" value=""/>
    <property name="experienceRank" value="rookies"/>
    <property name="fatigue" type="float" value="1"/>
    <property name="health" type="float" value="1"/>
    <property name="isDefence" type="bool" value="false"/>
    <property name="movementPoints" type="float" value="1"/>
   </properties>
  </object>
  <object id="128" name="germany" type="ownership" gid="134" x="993.948" y="387.162" width="64" height="64">
   <properties>
    <property name="productionCenter" type="object" value="0"/>
    <property name="terrainModifier" type="object" value="0"/>
    <property name="unit1" type="object" value="124"/>
    <property name="unit2" type="object" value="127"/>
    <property name="unit3" type="object" value="121"/>
    <property name="unit4" type="object" value="121"/>
   </properties>
  </object>
  <object id="131" name="germany" type="ownership" gid="134" x="938.06" y="417.767" width="64" height="64">
   <properties>
    <property name="productionCenter" type="object" value="0"/>
    <property name="terrainModifier" type="object" value="0"/>
    <property name="unit1" type="object" value="127"/>
    <property name="unit2" type="object" value="127"/>
    <property name="unit3" type="object" value="121"/>
    <property name="unit4" type="object" value="121"/>
   </properties>
  </object>
  <object id="132" name="germany" type="ownership" gid="134" x="1051.17" y="420.428" width="64" height="64">
   <properties>
    <property name="productionCenter" type="object" value="0"/>
    <property name="terrainModifier" type="object" value="0"/>
    <property name="unit1" type="object" value="127"/>
    <property name="unit2" type="object" value="127"/>
    <property name="unit3" type="object" value="121"/>
    <property name="unit4" type="object" value="121"/>
   </properties>
  </object>
  <object id="133" name="germany" type="ownership" gid="134" x="996.609" y="453.695" width="64" height="64">
   <properties>
    <property name="productionCenter" type="object" value="0"/>
    <property name="terrainModifier" type="object" value="0"/>
    <property name="unit1" type="object" value="125"/>
    <property name="unit2" type="object" value="125"/>
    <property name="unit3" type="object" value="123"/>
    <property name="unit4" type="object" value="122"/>
   </properties>
  </object>
  <object id="134" name="germany" type="ownership" gid="134" x="938.06" y="476.317" width="64" height="64">
   <properties>
    <property name="productionCenter" type="object" value="0"/>
    <property name="terrainModifier" type="object" value="0"/>
    <property name="unit1" type="object" value="125"/>
    <property name="unit2" type="object" value="125"/>
    <property name="unit3" type="object" value="123"/>
    <property name="unit4" type="object" value="122"/>
   </properties>
  </object>
  <object id="135" name="germany" type="ownership" gid="134" x="880.841" y="448.373" width="64" height="64">
   <properties>
    <property name="productionCenter" type="object" value="0"/>
    <property name="terrainModifier" type="object" value="0"/>
    <property name="unit1" type="object" value="125"/>
    <property name="unit2" type="object" value="125"/>
    <property name="unit3" type="object" value="123"/>
    <property name="unit4" type="object" value="122"/>
   </properties>
  </object>
  <object id="136" name="germany" type="ownership" gid="134" x="721.237" y="160.082" width="64" height="64">
   <properties>
    <property name="productionCenter" type="object" value="0"/>
    <property name="terrainModifier" type="object" value="0"/>
    <property name="unit1" type="object" value="124"/>
    <property name="unit2" type="object" value="127"/>
    <property name="unit3" type="object" value="121"/>
    <property name="unit4" type="object" value="121"/>
   </properties>
  </object>
  <object id="137" name="germany" type="ownership" gid="134" x="608.5" y="98.5354" width="64" height="64">
   <properties>
    <property name="productionCenter" type="object" value="0"/>
    <property name="terrainModifier" type="object" value="0"/>
    <property name="unit1" type="object" value="127"/>
    <property name="unit2" type="object" value="127"/>
    <property name="unit3" type="object" value="121"/>
    <property name="unit4" type="object" value="121"/>
   </properties>
  </object>
  <object id="138" name="germany" type="ownership" gid="134" x="721.61" y="221.772" width="64" height="64">
   <properties>
    <property name="productionCenter" type="object" value="0"/>
    <property name="terrainModifier" type="object" value="0"/>
    <property name="unit1" type="object" value="127"/>
    <property name="unit2" type="object" value="127"/>
    <property name="unit3" type="object" value="121"/>
    <property name="unit4" type="object" value="121"/>
   </properties>
  </object>
  <object id="139" name="germany" type="ownership" gid="134" x="662.464" y="196.356" width="64" height="64">
   <properties>
    <property name="productionCenter" type="object" value="0"/>
    <property name="terrainModifier" type="object" value="0"/>
    <property name="unit1" type="object" value="125"/>
    <property name="unit2" type="object" value="125"/>
    <property name="unit3" type="object" value="123"/>
    <property name="unit4" type="object" value="122"/>
   </properties>
  </object>
  <object id="140" name="germany" type="ownership" gid="134" x="618.128" y="225.855" width="64" height="64">
   <properties>
    <property name="productionCenter" type="object" value="0"/>
    <property name="terrainModifier" type="object" value="0"/>
    <property name="unit1" type="object" value="125"/>
    <property name="unit2" type="object" value="125"/>
    <property name="unit3" type="object" value="123"/>
    <property name="unit4" type="object" value="122"/>
   </properties>
  </object>
  <object id="141" name="germany" type="ownership" gid="134" x="612.715" y="168.111" width="64" height="64">
   <properties>
    <property name="productionCenter" type="object" value="0"/>
    <property name="terrainModifier" type="object" value="0"/>
    <property name="unit1" type="object" value="125"/>
    <property name="unit2" type="object" value="125"/>
    <property name="unit3" type="object" value="123"/>
    <property name="unit4" type="object" value="122"/>
   </properties>
  </object>
  <object id="142" name="germany" type="ownership" gid="134" x="880.045" y="962.152" width="64" height="64">
   <properties>
    <property name="productionCenter" type="object" value="0"/>
    <property name="terrainModifier" type="object" value="0"/>
    <property name="unit1" type="object" value="124"/>
    <property name="unit2" type="object" value="127"/>
    <property name="unit3" type="object" value="121"/>
    <property name="unit4" type="object" value="121"/>
   </properties>
  </object>
  <object id="143" name="germany" type="ownership" gid="134" x="777.855" y="973.913" width="64" height="64">
   <properties>
    <property name="productionCenter" type="object" value="0"/>
    <property name="terrainModifier" type="object" value="0"/>
    <property name="unit1" type="object" value="127"/>
    <property name="unit2" type="object" value="127"/>
    <property name="unit3" type="object" value="121"/>
    <property name="unit4" type="object" value="121"/>
   </properties>
  </object>
  <object id="144" name="germany" type="ownership" gid="134" x="885.043" y="1022.88" width="64" height="64">
   <properties>
    <property name="productionCenter" type="object" value="0"/>
    <property name="terrainModifier" type="object" value="0"/>
    <property name="unit1" type="object" value="127"/>
    <property name="unit2" type="object" value="127"/>
    <property name="unit3" type="object" value="121"/>
    <property name="unit4" type="object" value="121"/>
   </properties>
  </object>
  <object id="145" name="germany" type="ownership" gid="134" x="829.944" y="996.381" width="64" height="64">
   <properties>
    <property name="productionCenter" type="object" value="0"/>
    <property name="terrainModifier" type="object" value="0"/>
    <property name="unit1" type="object" value="125"/>
    <property name="unit2" type="object" value="125"/>
    <property name="unit3" type="object" value="123"/>
    <property name="unit4" type="object" value="122"/>
   </properties>
  </object>
  <object id="146" name="germany" type="ownership" gid="134" x="777.317" y="1027.08" width="64" height="64">
   <properties>
    <property name="productionCenter" type="object" value="0"/>
    <property name="terrainModifier" type="object" value="0"/>
    <property name="unit1" type="object" value="125"/>
    <property name="unit2" type="object" value="125"/>
    <property name="unit3" type="object" value="123"/>
    <property name="unit4" type="object" value="122"/>
   </properties>
  </object>
  <object id="147" name="germany" type="ownership" gid="134" x="724.405" y="993.751" width="64" height="64">
   <properties>
    <property name="productionCenter" type="object" value="0"/>
    <property name="terrainModifier" type="object" value="0"/>
    <property name="unit1" type="object" value="125"/>
    <property name="unit2" type="object" value="125"/>
    <property name="unit3" type="object" value="123"/>
    <property name="unit4" type="object" value="122"/>
   </properties>
  </object>
 </objectgroup>
 <objectgroup id="4" name="Templates">
  <object id="1" name="level2" type="navalBase" gid="96" x="177.606" y="-718.954" width="64" height="64">
   <properties>
    <property name="name_en" value=""/>
    <property name="name_ru" value=""/>
   </properties>
  </object>
  <object id="2" name="level1" type="navalBase" gid="95" x="177.606" y="-800.294" width="64" height="64">
   <properties>
    <property name="name_en" value=""/>
    <property name="name_ru" value=""/>
   </properties>
  </object>
  <object id="3" name="level3" type="navalBase" gid="97" x="177.606" y="-631.193" width="64" height="64">
   <properties>
    <property name="name_en" value=""/>
    <property name="name_ru" value=""/>
   </properties>
  </object>
  <object id="4" name="level1" type="airField" gid="98" x="100.789" y="-718.874" width="64" height="64">
   <properties>
    <property name="name_en" value=""/>
    <property name="name_ru" value=""/>
   </properties>
  </object>
  <object id="5" name="level2" type="airField" gid="99" x="100.786" y="-637.248" width="64" height="64">
   <properties>
    <property name="name_en" value=""/>
    <property name="name_ru" value=""/>
   </properties>
  </object>
  <object id="6" name="level1" type="factory" gid="100" x="21.7785" y="-799.994" width="64" height="64">
   <properties>
    <property name="name_en" value=""/>
    <property name="name_ru" value=""/>
   </properties>
  </object>
  <object id="7" name="level2" type="factory" gid="101" x="21.7755" y="-722.304" width="64" height="64">
   <properties>
    <property name="name_en" value=""/>
    <property name="name_ru" value=""/>
   </properties>
  </object>
  <object id="8" name="level3" type="factory" gid="102" x="21.7755" y="-632.572" width="64" height="64">
   <properties>
    <property name="name_en" value=""/>
    <property name="name_ru" value=""/>
   </properties>
  </object>
  <object id="9" name="level4" type="factory" gid="103" x="21.7755" y="-555.005" width="64" height="64">
   <properties>
    <property name="name_en" value=""/>
    <property name="name_ru" value=""/>
   </properties>
  </object>
  <object id="10" name="level2" type="city" gid="105" x="-51.7045" y="-721.474" width="64" height="64">
   <properties>
    <property name="name_en" value=""/>
    <property name="name_ru" value=""/>
   </properties>
  </object>
  <object id="11" name="level1" type="city" gid="104" x="-51.7095" y="-796.904" width="64" height="64">
   <properties>
    <property name="name_en" value=""/>
    <property name="name_ru" value=""/>
   </properties>
  </object>
  <object id="12" name="level3" type="city" gid="106" x="-51.7045" y="-643.071" width="64" height="64">
   <properties>
    <property name="name_en" value=""/>
    <property name="name_ru" value=""/>
   </properties>
  </object>
  <object id="13" name="level4" type="city" gid="107" x="-51.7045" y="-556.069" width="64" height="64">
   <properties>
    <property name="name_en" value=""/>
    <property name="name_ru" value=""/>
   </properties>
  </object>
  <object id="14" name="capital" type="city" gid="108" x="-51.7045" y="-480.015" width="64" height="64">
   <properties>
    <property name="name_en" value=""/>
    <property name="name_ru" value=""/>
   </properties>
  </object>
  <object id="15" name="antiAirGun" type="terrainModifier" gid="94" x="328.495" y="-551.106" width="64" height="64"/>
  <object id="16" name="trench" type="terrainModifier" gid="91" x="331.854" y="-808.344" width="64" height="64"/>
  <object id="17" name="barbedWire" type="terrainModifier" gid="93" x="331.338" y="-632.885" width="64" height="64"/>
  <object id="18" name="seaMine" type="terrainModifier" gid="89" x="328.155" y="-441.815" width="64" height="64"/>
  <object id="19" name="landMine" type="terrainModifier" gid="90" x="329.007" y="-351.682" width="64" height="64"/>
  <object id="20" name="infantry" type="unit" gid="115" x="517.758" y="-800.704" width="64" height="64">
   <properties>
    <property name="boost1" value=""/>
    <property name="boost2" value=""/>
    <property name="boost3" value=""/>
    <property name="experienceRank" value="rookies"/>
    <property name="fatigue" type="float" value="1"/>
    <property name="health" type="float" value="1"/>
    <property name="isDefence" type="bool" value="false"/>
    <property name="movementPoints" type="float" value="1"/>
   </properties>
  </object>
  <object id="21" name="cavalry" type="unit" gid="114" x="517.756" y="-687.57" width="64" height="64">
   <properties>
    <property name="boost1" value=""/>
    <property name="boost2" value=""/>
    <property name="boost3" value=""/>
    <property name="experienceRank" value="rookies"/>
    <property name="fatigue" type="float" value="1"/>
    <property name="health" type="float" value="1"/>
    <property name="isDefence" type="bool" value="false"/>
    <property name="movementPoints" type="float" value="1"/>
   </properties>
  </object>
  <object id="22" name="tank" type="unit" gid="113" x="517.756" y="-572.606" width="64" height="64">
   <properties>
    <property name="boost1" value=""/>
    <property name="boost2" value=""/>
    <property name="boost3" value=""/>
    <property name="experienceRank" value="rookies"/>
    <property name="fatigue" type="float" value="1"/>
    <property name="health" type="float" value="1"/>
    <property name="isDefence" type="bool" value="false"/>
    <property name="movementPoints" type="float" value="1"/>
   </properties>
  </object>
  <object id="23" name="machineGunnersCart" type="unit" gid="112" x="517.756" y="-483.19" width="64" height="64">
   <properties>
    <property name="boost1" value=""/>
    <property name="boost2" value=""/>
    <property name="boost3" value=""/>
    <property name="experienceRank" value="rookies"/>
    <property name="fatigue" type="float" value="1"/>
    <property name="health" type="float" value="1"/>
    <property name="isDefence" type="bool" value="false"/>
    <property name="movementPoints" type="float" value="1"/>
   </properties>
  </object>
  <object id="24" name="machineGuns" type="unit" gid="111" x="517.756" y="-393.774" width="64" height="64">
   <properties>
    <property name="boost1" value=""/>
    <property name="boost2" value=""/>
    <property name="boost3" value=""/>
    <property name="experienceRank" value="rookies"/>
    <property name="fatigue" type="float" value="1"/>
    <property name="health" type="float" value="1"/>
    <property name="isDefence" type="bool" value="false"/>
    <property name="movementPoints" type="float" value="1"/>
   </properties>
  </object>
  <object id="25" name="artillery" type="unit" gid="110" x="517.756" y="-293.409" width="64" height="64">
   <properties>
    <property name="boost1" value=""/>
    <property name="boost2" value=""/>
    <property name="boost3" value=""/>
    <property name="experienceRank" value="rookies"/>
    <property name="fatigue" type="float" value="1"/>
    <property name="health" type="float" value="1"/>
    <property name="isDefence" type="bool" value="false"/>
    <property name="movementPoints" type="float" value="1"/>
   </properties>
  </object>
  <object id="26" name="armoredCar" type="unit" gid="109" x="517.756" y="-191.219" width="64" height="64">
   <properties>
    <property name="boost1" value=""/>
    <property name="boost2" value=""/>
    <property name="boost3" value=""/>
    <property name="experienceRank" value="rookies"/>
    <property name="fatigue" type="float" value="1"/>
    <property name="health" type="float" value="1"/>
    <property name="isDefence" type="bool" value="false"/>
    <property name="movementPoints" type="float" value="1"/>
   </properties>
  </object>
  <object id="27" name="carrier" type="unit" gid="119" x="713.94" y="-795.774" width="64" height="64">
   <properties>
    <property name="boost1" value=""/>
    <property name="boost2" value=""/>
    <property name="boost3" value=""/>
    <property name="experienceRank" value="rookies"/>
    <property name="fatigue" type="float" value="1"/>
    <property name="health" type="float" value="1"/>
    <property name="isDefence" type="bool" value="false"/>
    <property name="movementPoints" type="float" value="1"/>
    <property name="unit1" type="object" value="0"/>
    <property name="unit2" type="object" value="0"/>
    <property name="unit3" type="object" value="0"/>
    <property name="unit4" type="object" value="0"/>
   </properties>
  </object>
  <object id="28" name="battleship" type="unit" gid="116" x="713.936" y="-474.34" width="64" height="64">
   <properties>
    <property name="boost1" value=""/>
    <property name="boost2" value=""/>
    <property name="boost3" value=""/>
    <property name="experienceRank" value="rookies"/>
    <property name="fatigue" type="float" value="1"/>
    <property name="health" type="float" value="1"/>
    <property name="isDefence" type="bool" value="false"/>
    <property name="movementPoints" type="float" value="1"/>
   </properties>
  </object>
  <object id="29" name="cruiser" type="unit" gid="117" x="713.936" y="-576.56" width="64" height="64">
   <properties>
    <property name="boost1" value=""/>
    <property name="boost2" value=""/>
    <property name="boost3" value=""/>
    <property name="experienceRank" value="rookies"/>
    <property name="fatigue" type="float" value="1"/>
    <property name="health" type="float" value="1"/>
    <property name="isDefence" type="bool" value="false"/>
    <property name="movementPoints" type="float" value="1"/>
   </properties>
  </object>
  <object id="30" name="destroyer" type="unit" gid="118" x="713.936" y="-679.672" width="64" height="64">
   <properties>
    <property name="boost1" value=""/>
    <property name="boost2" value=""/>
    <property name="boost3" value=""/>
    <property name="experienceRank" value="rookies"/>
    <property name="fatigue" type="float" value="1"/>
    <property name="health" type="float" value="1"/>
    <property name="isDefence" type="bool" value="false"/>
    <property name="movementPoints" type="float" value="1"/>
   </properties>
  </object>
  <object id="31" name="austriaHungary" type="ownership" gid="139" x="849.946" y="-800.214" width="64" height="64">
   <properties>
    <property name="productionCenter" type="object" value="0"/>
    <property name="terrainModifier" type="object" value="0"/>
    <property name="unit1" type="object" value="0"/>
    <property name="unit2" type="object" value="0"/>
    <property name="unit3" type="object" value="0"/>
    <property name="unit4" type="object" value="0"/>
   </properties>
  </object>
  <object id="32" name="usa" type="ownership" gid="120" x="1128.46" y="-538.084" width="64" height="64">
   <properties>
    <property name="productionCenter" type="object" value="0"/>
    <property name="terrainModifier" type="object" value="0"/>
    <property name="unit1" type="object" value="0"/>
    <property name="unit2" type="object" value="0"/>
    <property name="unit3" type="object" value="0"/>
    <property name="unit4" type="object" value="0"/>
   </properties>
  </object>
  <object id="33" name="usSouth" type="ownership" gid="121" x="1208.71" y="-800.214" width="64" height="64">
   <properties>
    <property name="productionCenter" type="object" value="0"/>
    <property name="terrainModifier" type="object" value="0"/>
    <property name="unit1" type="object" value="0"/>
    <property name="unit2" type="object" value="0"/>
    <property name="unit3" type="object" value="0"/>
    <property name="unit4" type="object" value="0"/>
   </properties>
  </object>
  <object id="34" name="usNorth" type="ownership" gid="122" x="1134.37" y="-449.654" width="64" height="64">
   <properties>
    <property name="productionCenter" type="object" value="0"/>
    <property name="terrainModifier" type="object" value="0"/>
    <property name="unit1" type="object" value="0"/>
    <property name="unit2" type="object" value="0"/>
    <property name="unit3" type="object" value="0"/>
    <property name="unit4" type="object" value="0"/>
   </properties>
  </object>
  <object id="35" name="greatBritain" type="ownership" gid="123" x="955.977" y="-709.244" width="64" height="64">
   <properties>
    <property name="productionCenter" type="object" value="0"/>
    <property name="terrainModifier" type="object" value="0"/>
    <property name="unit1" type="object" value="0"/>
    <property name="unit2" type="object" value="0"/>
    <property name="unit3" type="object" value="0"/>
    <property name="unit4" type="object" value="0"/>
   </properties>
  </object>
  <object id="36" name="turkey" type="ownership" gid="124" x="1134.38" y="-623.444" width="64" height="64">
   <properties>
    <property name="productionCenter" type="object" value="0"/>
    <property name="terrainModifier" type="object" value="0"/>
    <property name="unit1" type="object" value="0"/>
    <property name="unit2" type="object" value="0"/>
    <property name="unit3" type="object" value="0"/>
    <property name="unit4" type="object" value="0"/>
   </properties>
  </object>
  <object id="37" name="serbia" type="ownership" gid="125" x="1128.36" y="-709.244" width="64" height="64">
   <properties>
    <property name="productionCenter" type="object" value="0"/>
    <property name="terrainModifier" type="object" value="0"/>
    <property name="unit1" type="object" value="0"/>
    <property name="unit2" type="object" value="0"/>
    <property name="unit3" type="object" value="0"/>
    <property name="unit4" type="object" value="0"/>
   </properties>
  </object>
  <object id="38" name="russia" type="ownership" gid="126" x="1050.98" y="-449.654" width="64" height="64">
   <properties>
    <property name="productionCenter" type="object" value="0"/>
    <property name="terrainModifier" type="object" value="0"/>
    <property name="unit1" type="object" value="0"/>
    <property name="unit2" type="object" value="0"/>
    <property name="unit3" type="object" value="0"/>
    <property name="unit4" type="object" value="0"/>
   </properties>
  </object>
  <object id="39" name="romania" type="ownership" gid="127" x="1127.51" y="-800.214" width="64" height="64">
   <properties>
    <property name="productionCenter" type="object" value="0"/>
    <property name="terrainModifier" type="object" value="0"/>
    <property name="unit1" type="object" value="0"/>
    <property name="unit2" type="object" value="0"/>
    <property name="unit3" type="object" value="0"/>
    <property name="unit4" type="object" value="0"/>
   </properties>
  </object>
  <object id="40" name="montenegro" type="ownership" gid="128" x="1047.34" y="-538.084" width="64" height="64">
   <properties>
    <property name="productionCenter" type="object" value="0"/>
    <property name="terrainModifier" type="object" value="0"/>
    <property name="unit1" type="object" value="0"/>
    <property name="unit2" type="object" value="0"/>
    <property name="unit3" type="object" value="0"/>
    <property name="unit4" type="object" value="0"/>
   </properties>
  </object>
  <object id="41" name="mongolia" type="ownership" gid="129" x="1042.85" y="-623.444" width="64" height="64">
   <properties>
    <property name="productionCenter" type="object" value="0"/>
    <property name="terrainModifier" type="object" value="0"/>
    <property name="unit1" type="object" value="0"/>
    <property name="unit2" type="object" value="0"/>
    <property name="unit3" type="object" value="0"/>
    <property name="unit4" type="object" value="0"/>
   </properties>
  </object>
  <object id="42" name="mexico" type="ownership" gid="130" x="1045.36" y="-709.244" width="64" height="64">
   <properties>
    <property name="productionCenter" type="object" value="0"/>
    <property name="terrainModifier" type="object" value="0"/>
    <property name="unit1" type="object" value="0"/>
    <property name="unit2" type="object" value="0"/>
    <property name="unit3" type="object" value="0"/>
    <property name="unit4" type="object" value="0"/>
   </properties>
  </object>
  <object id="43" name="korea" type="ownership" gid="131" x="1045.57" y="-800.214" width="64" height="64">
   <properties>
    <property name="productionCenter" type="object" value="0"/>
    <property name="terrainModifier" type="object" value="0"/>
    <property name="unit1" type="object" value="0"/>
    <property name="unit2" type="object" value="0"/>
    <property name="unit3" type="object" value="0"/>
    <property name="unit4" type="object" value="0"/>
   </properties>
  </object>
  <object id="44" name="japan" type="ownership" gid="132" x="959.439" y="-449.654" width="64" height="64">
   <properties>
    <property name="productionCenter" type="object" value="0"/>
    <property name="terrainModifier" type="object" value="0"/>
    <property name="unit1" type="object" value="0"/>
    <property name="unit2" type="object" value="0"/>
    <property name="unit3" type="object" value="0"/>
    <property name="unit4" type="object" value="0"/>
   </properties>
  </object>
  <object id="45" name="italy" type="ownership" gid="133" x="955.679" y="-538.084" width="64" height="64">
   <properties>
    <property name="productionCenter" type="object" value="0"/>
    <property name="terrainModifier" type="object" value="0"/>
    <property name="unit1" type="object" value="0"/>
    <property name="unit2" type="object" value="0"/>
    <property name="unit3" type="object" value="0"/>
    <property name="unit4" type="object" value="0"/>
   </properties>
  </object>
  <object id="46" name="germany" type="ownership" gid="134" x="957.964" y="-800.214" width="64" height="64">
   <properties>
    <property name="productionCenter" type="object" value="0"/>
    <property name="terrainModifier" type="object" value="0"/>
    <property name="unit1" type="object" value="0"/>
    <property name="unit2" type="object" value="0"/>
    <property name="unit3" type="object" value="0"/>
    <property name="unit4" type="object" value="0"/>
   </properties>
  </object>
  <object id="47" name="france" type="ownership" gid="135" x="853.158" y="-449.656" width="64" height="64">
   <properties>
    <property name="productionCenter" type="object" value="0"/>
    <property name="terrainModifier" type="object" value="0"/>
    <property name="unit1" type="object" value="0"/>
    <property name="unit2" type="object" value="0"/>
    <property name="unit3" type="object" value="0"/>
    <property name="unit4" type="object" value="0"/>
   </properties>
  </object>
  <object id="48" name="china" type="ownership" gid="136" x="853.221" y="-538.084" width="64" height="64">
   <properties>
    <property name="productionCenter" type="object" value="0"/>
    <property name="terrainModifier" type="object" value="0"/>
    <property name="unit1" type="object" value="0"/>
    <property name="unit2" type="object" value="0"/>
    <property name="unit3" type="object" value="0"/>
    <property name="unit4" type="object" value="0"/>
   </properties>
  </object>
  <object id="49" name="bulgaria" type="ownership" gid="137" x="851.506" y="-623.442" width="64" height="64">
   <properties>
    <property name="productionCenter" type="object" value="0"/>
    <property name="terrainModifier" type="object" value="0"/>
    <property name="unit1" type="object" value="0"/>
    <property name="unit2" type="object" value="0"/>
    <property name="unit3" type="object" value="0"/>
    <property name="unit4" type="object" value="0"/>
   </properties>
  </object>
  <object id="50" name="belgium" type="ownership" gid="138" x="847.866" y="-709.244" width="64" height="64">
   <properties>
    <property name="productionCenter" type="object" value="0"/>
    <property name="terrainModifier" type="object" value="0"/>
    <property name="unit1" type="object" value="0"/>
    <property name="unit2" type="object" value="0"/>
    <property name="unit3" type="object" value="0"/>
    <property name="unit4" type="object" value="0"/>
   </properties>
  </object>
  <object id="51" name="greece" type="ownership" gid="140" x="955.166" y="-623.444" width="64" height="64">
   <properties>
    <property name="productionCenter" type="object" value="0"/>
    <property name="terrainModifier" type="object" value="0"/>
    <property name="unit1" type="object" value="0"/>
    <property name="unit2" type="object" value="0"/>
    <property name="unit3" type="object" value="0"/>
    <property name="unit4" type="object" value="0"/>
   </properties>
  </object>
  <object id="52" name="landFort" type="terrainModifier" gid="92" x="327.226" y="-742.56" width="64" height="64"/>
 </objectgroup>
</map>
