<?xml version="1.0" encoding="UTF-8"?>
<map version="1.10" tiledversion="1.11.0" orientation="hexagonal" renderorder="right-up" width="25" height="30" tilewidth="74" tileheight="64" infinite="0" hexsidelength="37" staggeraxis="x" staggerindex="odd" nextlayerid="6" nextobjectid="81">
 <properties>
  <property name="metadata" value="{ &quot;version&quot;: 1, &quot;title&quot;: { &quot;en&quot;: &quot;South West Africa campaign&quot;, &quot;ru&quot;: &quot;Кампания в Юго-Западной Африке&quot; }, &quot;description&quot;: { &quot;en&quot;: &quot;The South West Africa campaign was a World War I offensive in which Great Britain forces invaded German South-West Africa, to stop German use of its ports and wireless stations. After fighting in harsh desert conditions, british troops occupied Windhoek and pushed the Germans into the northwest corner of the territory.\n\nThe campaign ended with a German surrender, becoming one of the first major Allied successes of the war and a victory won with relatively low casualties.&quot;, &quot;ru&quot;: &quot;Юго-Западная Африканская кампания — это наступление в Первой мировой войне, в ходе которого британские войска вторглись в Германскую Юго-Западную Африку, чтобы помешать Германии использовать её порты и радиостанции. После боев в суровых условиях пустыни британские войска заняли Виндхук и оттеснили немцев в северо-западный угол территории.\n\nКампания завершилась капитуляцией Германии, став одним из первых крупных успехов союзников в войне и победой, одержанной с относительно небольшими потерями.&quot; }, &quot;dates&quot;: { &quot;from&quot;: &quot;1914-09-15&quot;, &quot;to&quot;: &quot;1915-07-09&quot; }, &quot;params&quot;: { &quot;land_only_ai&quot;: true }, &quot;nations&quot;: [ { &quot;code&quot;: &quot;germany&quot;, &quot;aggressiveness&quot;: &quot;aggressive&quot;, &quot;startMoney&quot;: 1500, &quot;startIndustryPoints&quot;: 750 }, { &quot;code&quot;: &quot;greatBritain&quot;, &quot;aggressiveness&quot;: &quot;aggressive&quot;, &quot;startMoney&quot;: 2000, &quot;startIndustryPoints&quot;: 1000 } ], &quot;diplomacy&quot;: [ { &quot;firstNation&quot;: &quot;germany&quot;, &quot;secondNation&quot;: &quot;greatBritain&quot;, &quot;relationship&quot;: &quot;war&quot; } ] }"/>
 </properties>
 <tileset firstgid="1" name="terrain_atlas" tilewidth="74" tileheight="64" tilecount="88" columns="8">
  <image source="../../../images/tiles/terrain_atlas_new.png" width="592" height="704"/>
 </tileset>
 <tileset firstgid="89" source="../../game_objects.tsx"/>
 <tileset firstgid="143" name="TempBackground" tilewidth="982" tileheight="1452" tilecount="1" columns="1">
  <image source="../../../images/temp_backgrounds/South_West_Africa_campaign.png" width="982" height="1452"/>
 </tileset>
 <objectgroup id="3" name="TempBackground" visible="0">
  <object id="1" gid="143" x="0" y="1948.89" width="1393.02" height="1947.96"/>
 </objectgroup>
 <layer id="4" name="Terrain" width="25" height="30">
  <data encoding="csv">
2,3,3,3,3,3,3,3,26,18,26,26,26,26,26,20,26,26,26,26,26,26,26,28,26,
2,2,3,3,3,3,3,3,26,26,26,26,28,26,20,19,19,26,26,27,18,26,27,19,26,
2,2,2,3,3,3,3,3,3,3,3,3,26,26,26,26,26,20,26,27,26,26,26,26,26,
2,2,2,2,3,3,3,3,3,3,3,3,3,3,26,3,26,26,26,26,26,26,26,26,26,
2,2,2,2,3,3,3,3,3,3,3,3,3,3,3,3,3,26,26,27,26,26,26,26,26,
2,2,2,2,3,3,3,3,23,3,3,3,3,3,3,3,26,26,20,26,26,19,26,26,18,
2,2,2,2,2,3,3,3,3,3,3,3,3,3,3,3,3,26,26,26,28,26,26,28,26,
2,2,2,2,2,2,3,3,3,3,3,3,3,3,3,3,3,3,26,26,26,26,26,26,26,
2,2,2,2,2,2,3,3,3,3,3,3,3,3,3,3,3,3,26,26,26,26,18,26,26,
2,2,2,2,2,2,3,3,3,3,3,3,28,3,3,3,3,3,3,3,3,3,26,3,26,
2,2,2,2,2,2,2,3,3,3,3,3,3,3,3,3,28,3,3,3,3,3,3,3,3,
2,2,2,2,2,2,2,2,28,28,3,3,3,3,3,3,3,3,3,3,3,3,28,3,24,
2,2,2,2,2,2,2,2,28,28,3,3,3,3,3,3,3,3,3,3,3,3,3,76,24,
2,2,2,2,2,2,2,2,28,3,3,3,3,3,3,3,3,25,3,3,3,3,73,81,82,
2,2,2,2,2,2,2,2,2,3,3,3,23,28,3,3,28,3,3,3,3,3,76,80,79,
2,2,2,2,2,2,2,2,2,3,3,3,3,3,3,3,3,3,3,3,3,3,77,73,82,
2,2,2,2,2,2,2,2,2,3,3,3,3,3,3,3,3,3,3,3,3,3,3,3,76,
2,2,2,2,2,2,2,2,2,3,3,3,3,3,3,3,3,28,3,3,3,28,3,3,3,
2,2,2,2,2,2,2,2,2,2,3,3,3,3,3,3,3,3,3,3,3,3,23,74,73,
2,2,2,2,2,2,2,2,2,2,3,3,3,3,3,3,3,3,3,3,3,73,75,80,78,
2,2,2,2,2,2,2,2,2,2,3,3,3,3,3,3,3,3,3,3,3,77,79,78,80,
2,2,2,2,2,2,2,2,2,2,3,3,3,3,3,23,3,3,3,3,3,75,80,82,80,
2,2,2,2,2,2,2,2,2,2,3,28,3,3,24,28,3,3,25,28,3,3,74,73,79,
2,2,2,2,2,2,2,2,2,2,2,3,3,3,3,3,3,3,3,3,3,3,3,3,74,
2,2,2,2,2,2,2,2,2,2,2,3,3,3,3,3,3,3,3,3,3,3,3,3,3,
2,2,2,2,2,2,2,2,2,2,2,2,3,3,3,3,3,3,3,3,3,3,3,3,3,
2,2,2,2,2,2,2,2,2,2,2,2,3,3,3,3,3,3,3,3,3,24,3,3,3,
2,2,2,2,2,2,2,2,2,2,2,2,2,2,3,3,3,3,3,3,28,25,3,3,3,
2,2,2,2,2,2,2,2,2,2,2,2,2,2,3,3,3,3,3,3,3,3,3,3,3,
2,2,2,2,2,2,2,2,2,2,2,2,2,2,2,2,28,3,3,3,3,3,3,3,3
</data>
 </layer>
 <layer id="1" name="RoadsAndRivers" width="25" height="30">
  <data encoding="csv">
0,0,0,0,0,0,0,0,0,0,0,0,0,0,0,0,0,0,0,0,0,0,0,0,0,
0,0,0,0,0,0,0,0,0,0,0,0,0,0,0,0,0,0,0,0,0,0,0,0,0,
0,0,0,0,0,0,0,0,0,0,0,0,0,0,0,0,0,0,0,0,0,0,0,0,0,
0,0,0,0,0,0,0,0,0,0,0,0,0,0,0,0,0,61,0,0,0,0,0,0,0,
0,0,0,0,0,0,0,0,0,0,0,0,0,0,0,0,0,53,0,0,0,0,0,0,0,
0,0,0,0,0,0,0,0,0,0,0,0,0,0,0,0,0,53,0,0,0,0,0,0,0,
0,0,0,0,0,0,0,0,0,0,0,0,0,0,0,0,0,52,0,0,0,0,0,0,0,
0,0,0,0,0,0,0,0,0,0,0,0,0,0,0,50,50,0,0,0,0,0,0,0,0,
0,0,0,0,0,0,0,0,0,0,0,0,0,50,50,0,0,0,0,0,0,0,0,0,0,
0,0,0,0,0,0,0,0,0,0,0,50,68,49,0,68,0,0,0,0,0,0,0,0,0,
0,0,0,0,0,0,0,0,0,50,50,0,0,0,69,0,71,0,0,0,0,0,0,0,0,
0,0,0,0,0,0,0,0,59,0,0,0,0,0,0,0,53,0,0,0,0,0,0,0,0,
0,0,0,0,0,0,0,0,0,0,0,0,0,0,0,0,53,0,0,0,0,0,0,0,0,
0,0,0,0,0,0,0,0,0,0,0,0,0,0,0,0,53,0,0,0,0,0,0,0,0,
0,0,0,0,0,0,0,0,0,0,0,0,0,0,0,0,53,0,0,0,0,0,0,0,0,
0,0,0,0,0,0,0,0,0,0,0,0,0,0,0,0,53,0,0,0,0,0,0,0,0,
0,0,0,0,0,0,0,0,0,0,0,0,0,0,0,0,53,0,0,0,0,0,0,0,0,
0,0,0,0,0,0,0,0,0,0,0,0,0,0,0,0,54,49,0,0,0,0,0,0,0,
0,0,0,0,0,0,0,0,0,0,0,0,0,0,0,0,0,0,48,0,0,0,0,0,0,
0,0,0,0,0,0,0,0,0,0,0,0,0,0,0,0,0,0,54,48,0,0,0,0,0,
0,0,0,0,0,0,0,0,0,0,0,0,0,0,0,0,0,0,0,53,0,0,0,0,0,
0,0,0,0,0,0,0,0,0,0,0,0,0,0,0,0,0,0,0,53,0,0,0,0,0,
0,0,0,0,0,0,0,0,0,0,0,60,0,68,0,68,0,68,0,55,0,0,0,0,0,
0,0,0,0,0,0,0,0,0,0,0,0,69,0,69,0,69,0,69,0,71,0,0,0,0,
0,0,0,0,0,0,0,0,0,0,0,0,0,0,0,0,0,0,0,0,53,0,0,0,0,
0,0,0,0,0,0,0,0,0,0,0,0,0,0,0,0,0,0,0,0,53,0,0,0,0,
0,0,0,0,0,0,0,0,0,0,0,0,0,0,0,0,0,0,0,0,53,0,0,0,0,
0,0,0,0,0,0,0,0,0,0,0,0,0,0,0,0,0,0,0,0,58,0,0,0,0,
0,0,0,0,0,0,0,0,0,0,0,0,0,0,0,0,0,0,0,0,0,0,0,0,0,
0,0,0,0,0,0,0,0,0,0,0,0,0,0,0,0,0,0,0,0,0,0,0,0,0
</data>
 </layer>
 <objectgroup id="3" name="GameObjects">
  <object id="1" name="greatBritain" type="ownership" gid="123" x="610.815" y="1507" width="64" height="64">
   <properties>
    <property name="productionCenter" type="object" value="22"/>
    <property name="terrainModifier" type="object" value="0"/>
    <property name="unit1" type="object" value="66"/>
    <property name="unit2" type="object" value="65"/>
    <property name="unit3" type="object" value="0"/>
    <property name="unit4" type="object" value="0"/>
   </properties>
  </object>
  <object id="2" name="greatBritain" type="ownership" gid="123" x="885.302" y="1916.39" width="64" height="64">
   <properties>
    <property name="productionCenter" type="object" value="20"/>
    <property name="terrainModifier" type="object" value="0"/>
    <property name="unit1" type="object" value="62"/>
    <property name="unit2" type="object" value="62"/>
    <property name="unit3" type="object" value="0"/>
    <property name="unit4" type="object" value="0"/>
   </properties>
  </object>
  <object id="3" name="greatBritain" type="ownership" gid="123" x="442.243" y="899.378" width="64" height="64">
   <properties>
    <property name="productionCenter" type="object" value="26"/>
    <property name="terrainModifier" type="object" value="0"/>
    <property name="unit1" type="object" value="63"/>
    <property name="unit2" type="object" value="63"/>
    <property name="unit3" type="object" value="0"/>
    <property name="unit4" type="object" value="0"/>
   </properties>
  </object>
  <object id="4" name="greatBritain" type="ownership" gid="123" x="445.419" y="767.332" width="64" height="64">
   <properties>
    <property name="productionCenter" type="object" value="27"/>
    <property name="terrainModifier" type="object" value="0"/>
    <property name="unit1" type="object" value="61"/>
    <property name="unit2" type="object" value="61"/>
    <property name="unit3" type="object" value="0"/>
    <property name="unit4" type="object" value="0"/>
   </properties>
  </object>
  <object id="20" name="level1" type="city" gid="104" x="879.777" y="2026.53" width="64" height="64">
   <properties>
    <property name="name_en" value="Port Nolloth"/>
    <property name="name_ru" value="Порт-Ноллот"/>
   </properties>
  </object>
  <object id="22" name="level2" type="city" gid="105" x="545.221" y="1538.03" width="64" height="64">
   <properties>
    <property name="name_en" value="Lüderitz Bay"/>
    <property name="name_ru" value="Людерицбухта"/>
   </properties>
  </object>
  <object id="24" name="level1" type="factory" gid="100" x="1116.49" y="1473.02" width="64" height="64">
   <properties>
    <property name="name_en" value="Keetmanshoop"/>
    <property name="name_ru" value="Китмансхуп"/>
   </properties>
  </object>
  <object id="25" name="germany" type="ownership" gid="134" x="1105.61" y="1794.35" width="64" height="64">
   <properties>
    <property name="productionCenter" type="object" value="47"/>
    <property name="terrainModifier" type="object" value="0"/>
    <property name="unit1" type="object" value="62"/>
    <property name="unit2" type="object" value="62"/>
    <property name="unit3" type="object" value="0"/>
    <property name="unit4" type="object" value="0"/>
   </properties>
  </object>
  <object id="26" name="level1" type="factory" gid="100" x="386.918" y="929.541" width="64" height="64">
   <properties>
    <property name="name_en" value="Botha"/>
    <property name="name_ru" value="Бота"/>
   </properties>
  </object>
  <object id="27" name="level2" type="factory" gid="101" x="384.876" y="806.273" width="64" height="64">
   <properties>
    <property name="name_en" value="Swakopmund"/>
    <property name="name_ru" value="Свакопмунд"/>
   </properties>
  </object>
  <object id="28" name="germany" type="ownership" gid="134" x="1054.72" y="1510.88" width="64" height="64">
   <properties>
    <property name="productionCenter" type="object" value="24"/>
    <property name="terrainModifier" type="object" value="0"/>
    <property name="unit1" type="object" value="64"/>
    <property name="unit2" type="object" value="64"/>
    <property name="unit3" type="object" value="0"/>
    <property name="unit4" type="object" value="0"/>
   </properties>
  </object>
  <object id="29" name="level2" type="factory" gid="101" x="997.518" y="713.14" width="64" height="64">
   <properties>
    <property name="name_en" value="Windhuk"/>
    <property name="name_ru" value="Виндхук"/>
   </properties>
  </object>
  <object id="30" name="germany" type="ownership" gid="134" x="834.586" y="1506.36" width="64" height="64">
   <properties>
    <property name="productionCenter" type="object" value="48"/>
    <property name="terrainModifier" type="object" value="0"/>
    <property name="unit1" type="object" value="62"/>
    <property name="unit2" type="object" value="62"/>
    <property name="unit3" type="object" value="0"/>
    <property name="unit4" type="object" value="0"/>
   </properties>
  </object>
  <object id="31" name="germany" type="ownership" gid="134" x="943.062" y="1185.93" width="64" height="64">
   <properties>
    <property name="productionCenter" type="object" value="49"/>
    <property name="terrainModifier" type="object" value="0"/>
    <property name="unit1" type="object" value="62"/>
    <property name="unit2" type="object" value="62"/>
    <property name="unit3" type="object" value="0"/>
    <property name="unit4" type="object" value="0"/>
   </properties>
  </object>
  <object id="32" name="germany" type="ownership" gid="134" x="1160.06" y="1185.92" width="64" height="64">
   <properties>
    <property name="productionCenter" type="object" value="51"/>
    <property name="terrainModifier" type="object" value="0"/>
    <property name="unit1" type="object" value="62"/>
    <property name="unit2" type="object" value="62"/>
    <property name="unit3" type="object" value="0"/>
    <property name="unit4" type="object" value="0"/>
   </properties>
  </object>
  <object id="35" name="germany" type="ownership" gid="134" x="723.072" y="995.811" width="64" height="64">
   <properties>
    <property name="productionCenter" type="object" value="44"/>
    <property name="terrainModifier" type="object" value="0"/>
    <property name="unit1" type="object" value="62"/>
    <property name="unit2" type="object" value="62"/>
    <property name="unit3" type="object" value="0"/>
    <property name="unit4" type="object" value="0"/>
   </properties>
  </object>
  <object id="36" name="germany" type="ownership" gid="134" x="885.641" y="958.192" width="64" height="64">
   <properties>
    <property name="productionCenter" type="object" value="50"/>
    <property name="terrainModifier" type="object" value="0"/>
    <property name="unit1" type="object" value="62"/>
    <property name="unit2" type="object" value="62"/>
    <property name="unit3" type="object" value="0"/>
    <property name="unit4" type="object" value="0"/>
   </properties>
  </object>
  <object id="37" name="germany" type="ownership" gid="134" x="884.297" y="704.262" width="64" height="64">
   <properties>
    <property name="productionCenter" type="object" value="29"/>
    <property name="terrainModifier" type="object" value="0"/>
    <property name="unit1" type="object" value="61"/>
    <property name="unit2" type="object" value="61"/>
    <property name="unit3" type="object" value="0"/>
    <property name="unit4" type="object" value="0"/>
   </properties>
  </object>
  <object id="38" name="germany" type="ownership" gid="134" x="1213.47" y="771.439" width="64" height="64">
   <properties>
    <property name="productionCenter" type="object" value="43"/>
    <property name="terrainModifier" type="object" value="0"/>
    <property name="unit1" type="object" value="62"/>
    <property name="unit2" type="object" value="62"/>
    <property name="unit3" type="object" value="0"/>
    <property name="unit4" type="object" value="0"/>
   </properties>
  </object>
  <object id="39" name="germany" type="ownership" gid="134" x="671.051" y="643.991" width="64" height="64">
   <properties>
    <property name="productionCenter" type="object" value="52"/>
    <property name="terrainModifier" type="object" value="0"/>
    <property name="unit1" type="object" value="62"/>
    <property name="unit2" type="object" value="62"/>
    <property name="unit3" type="object" value="0"/>
    <property name="unit4" type="object" value="0"/>
   </properties>
  </object>
  <object id="40" name="germany" type="ownership" gid="134" x="942.07" y="483.921" width="64" height="64">
   <properties>
    <property name="productionCenter" type="object" value="54"/>
    <property name="terrainModifier" type="object" value="0"/>
    <property name="unit1" type="object" value="59"/>
    <property name="unit2" type="object" value="59"/>
    <property name="unit3" type="object" value="0"/>
    <property name="unit4" type="object" value="0"/>
   </properties>
  </object>
  <object id="41" name="germany" type="ownership" gid="134" x="938.039" y="289.107" width="64" height="64">
   <properties>
    <property name="productionCenter" type="object" value="45"/>
    <property name="terrainModifier" type="object" value="0"/>
    <property name="unit1" type="object" value="61"/>
    <property name="unit2" type="object" value="60"/>
    <property name="unit3" type="object" value="0"/>
    <property name="unit4" type="object" value="0"/>
   </properties>
  </object>
  <object id="42" name="germany" type="ownership" gid="134" x="1048.21" y="101.011" width="64" height="64">
   <properties>
    <property name="productionCenter" type="object" value="46"/>
    <property name="terrainModifier" type="object" value="0"/>
    <property name="unit1" type="object" value="59"/>
    <property name="unit2" type="object" value="59"/>
    <property name="unit3" type="object" value="0"/>
    <property name="unit4" type="object" value="0"/>
   </properties>
  </object>
  <object id="43" name="level1" type="city" gid="104" x="1269.8" y="820.259" width="64" height="64">
   <properties>
    <property name="name_en" value="Gobabis"/>
    <property name="name_ru" value="Гобабис"/>
   </properties>
  </object>
  <object id="44" name="level1" type="city" gid="104" x="668.07" y="1049.71" width="64" height="64">
   <properties>
    <property name="name_en" value="Nauchas"/>
    <property name="name_ru" value="Начас"/>
   </properties>
  </object>
  <object id="45" name="level2" type="city" gid="105" x="885.818" y="232.575" width="64" height="64">
   <properties>
    <property name="name_en" value="Otavi"/>
    <property name="name_ru" value="Отави"/>
   </properties>
  </object>
  <object id="46" name="level1" type="city" gid="104" x="1062.63" y="-4.74792" width="64" height="64">
   <properties>
    <property name="name_en" value="Tsumeb"/>
    <property name="name_ru" value="Цумеб"/>
   </properties>
  </object>
  <object id="47" name="level1" type="city" gid="104" x="1122.8" y="1875.66" width="64" height="64">
   <properties>
    <property name="name_en" value="Warmbad"/>
    <property name="name_ru" value="Вармбад"/>
   </properties>
  </object>
  <object id="48" name="level1" type="city" gid="104" x="828.538" y="1573.38" width="64" height="64">
   <properties>
    <property name="name_en" value="Bethanien"/>
    <property name="name_ru" value="Бетанен"/>
   </properties>
  </object>
  <object id="49" name="level1" type="city" gid="104" x="892.695" y="1153.73" width="64" height="64">
   <properties>
    <property name="name_en" value="Gibeon"/>
    <property name="name_ru" value="Гибеон"/>
   </properties>
  </object>
  <object id="50" name="level1" type="city" gid="104" x="944.884" y="992.755" width="64" height="64">
   <properties>
    <property name="name_en" value="Rehoboth"/>
    <property name="name_ru" value="Рехобот"/>
   </properties>
  </object>
  <object id="51" name="level1" type="city" gid="104" x="1214.7" y="1152.68" width="64" height="64">
   <properties>
    <property name="name_en" value="Gochas"/>
    <property name="name_ru" value="Гочас"/>
   </properties>
  </object>
  <object id="52" name="level1" type="city" gid="104" x="612.641" y="592.35" width="64" height="64">
   <properties>
    <property name="name_en" value="Karibib"/>
    <property name="name_ru" value="Карибиб"/>
   </properties>
  </object>
  <object id="54" name="level1" type="city" gid="104" x="998.863" y="512.306" width="64" height="64">
   <properties>
    <property name="name_en" value="Waterberg"/>
    <property name="name_ru" value="Ватерберх"/>
   </properties>
  </object>
  <object id="55" name="greatBritain" type="ownershipRegion" x="1388.93" y="1946.7">
   <polygon points="0,0 -504.19,5.49526 -497.321,-64.5693 -550.9,-93.4194 -516.554,-120.896 -277.511,-81.0551 -218.437,-53.5788 -178.596,-54.9526 -137.382,-79.6813 -100.289,-60.4479 -17.8596,-89.298"/>
  </object>
  <object id="57" name="greatBritain" type="ownershipRegion" x="456.473" y="895.485">
   <polygon points="0,0 1.99551,-192.068 39.4113,-192.068 95.2856,-158.643 93.789,-32.9259 37.9147,0.997755"/>
  </object>
  <object id="58" name="germany" type="ownershipRegion" x="1390.87" y="2.49439">
   <polygon points="0,0 -15.4949,1598.55 -112.186,1631.49 -110.892,1694.12 -16.7052,1723.42 -17.9596,1852.83 -102.27,1882.26 -138.189,1863.31 -179.097,1887.25 -220.504,1889.25 -278.374,1862.81 -518.833,1820.9 -554.253,1850.34 -592.667,1852.33 -652.532,1724.12 -726.865,1689.7 -730.357,1627.34 -780.743,1592.42 -767.274,1502.12 -728.86,1500.62 -711.399,1467.7 -729.359,1438.26 -768.77,1434.77 -799.202,1466.7 -842.105,1438.26 -838.613,1370.42 -840.11,1182.34 -894.487,1148.42 -894.986,894.986 -838.613,863.058 -837.116,732.851 -894.487,699.426 -934.398,699.426 -964.829,730.856 -1004.74,700.424 -1006.73,636.069 -1055.13,599.651 -1060.61,476.927 -1110.5,438.014 -1115.99,381.142 -1169.37,347.219 -1170.87,221.003 -1222.25,184.086 -1225.74,125.717 -1335.5,61.3619 -1318.53,30.9304 -1239.71,-2.49439"/>
  </object>
  <object id="59" name="infantry" type="unit" gid="115" x="1161.74" y="294.672" width="64" height="64">
   <properties>
    <property name="boost1" value=""/>
    <property name="boost2" value=""/>
    <property name="boost3" value=""/>
    <property name="experienceRank" value="rookies"/>
    <property name="fatigue" type="float" value="1"/>
    <property name="health" type="float" value="1"/>
    <property name="isDefence" type="bool" value="true"/>
    <property name="movementPoints" type="float" value="1"/>
   </properties>
  </object>
  <object id="60" name="machineGuns" type="unit" gid="111" x="789.894" y="237.331" width="64" height="64">
   <properties>
    <property name="boost1" value=""/>
    <property name="boost2" value=""/>
    <property name="boost3" value=""/>
    <property name="experienceRank" value="rookies"/>
    <property name="fatigue" type="float" value="1"/>
    <property name="health" type="float" value="1"/>
    <property name="isDefence" type="bool" value="true"/>
    <property name="movementPoints" type="float" value="1"/>
   </properties>
  </object>
  <object id="61" name="artillery" type="unit" gid="110" x="800.092" y="296.984" width="64" height="64">
   <properties>
    <property name="boost1" value=""/>
    <property name="boost2" value=""/>
    <property name="boost3" value=""/>
    <property name="experienceRank" value="rookies"/>
    <property name="fatigue" type="float" value="1"/>
    <property name="health" type="float" value="1"/>
    <property name="isDefence" type="bool" value="true"/>
    <property name="movementPoints" type="float" value="1"/>
   </properties>
  </object>
  <object id="62" name="infantry" type="unit" gid="115" x="807.649" y="832.519" width="64" height="64">
   <properties>
    <property name="boost1" value=""/>
    <property name="boost2" value=""/>
    <property name="boost3" value=""/>
    <property name="experienceRank" value="rookies"/>
    <property name="fatigue" type="float" value="1"/>
    <property name="health" type="float" value="1"/>
    <property name="isDefence" type="bool" value="true"/>
    <property name="movementPoints" type="float" value="1"/>
   </properties>
  </object>
  <object id="63" name="machineGunnersCart" type="unit" gid="112" x="351.704" y="992.396" width="64" height="64">
   <properties>
    <property name="boost1" value=""/>
    <property name="boost2" value=""/>
    <property name="boost3" value=""/>
    <property name="experienceRank" value="rookies"/>
    <property name="fatigue" type="float" value="1"/>
    <property name="health" type="float" value="1"/>
    <property name="isDefence" type="bool" value="true"/>
    <property name="movementPoints" type="float" value="1"/>
   </properties>
  </object>
  <object id="64" name="machineGunnersCart" type="unit" gid="112" x="1164.12" y="1537.16" width="64" height="64">
   <properties>
    <property name="boost1" value=""/>
    <property name="boost2" value=""/>
    <property name="boost3" value=""/>
    <property name="experienceRank" value="rookies"/>
    <property name="fatigue" type="float" value="1"/>
    <property name="health" type="float" value="1"/>
    <property name="isDefence" type="bool" value="true"/>
    <property name="movementPoints" type="float" value="1"/>
   </properties>
  </object>
  <object id="65" name="machineGuns" type="unit" gid="111" x="480.428" y="1527.47" width="64" height="64">
   <properties>
    <property name="boost1" value=""/>
    <property name="boost2" value=""/>
    <property name="boost3" value=""/>
    <property name="experienceRank" value="rookies"/>
    <property name="fatigue" type="float" value="1"/>
    <property name="health" type="float" value="1"/>
    <property name="isDefence" type="bool" value="true"/>
    <property name="movementPoints" type="float" value="1"/>
   </properties>
  </object>
  <object id="66" name="artillery" type="unit" gid="110" x="490.626" y="1587.12" width="64" height="64">
   <properties>
    <property name="boost1" value=""/>
    <property name="boost2" value=""/>
    <property name="boost3" value=""/>
    <property name="experienceRank" value="rookies"/>
    <property name="fatigue" type="float" value="1"/>
    <property name="health" type="float" value="1"/>
    <property name="isDefence" type="bool" value="true"/>
    <property name="movementPoints" type="float" value="1"/>
   </properties>
  </object>
  <object id="67" name="greatBritain" type="ownershipRegion" x="1375.93" y="1604.94">
   <polygon points="0,0 -94.2418,30.6286 -92.8282,89.5297 5.1833,120.158"/>
  </object>
  <object id="68" name="infantry" type="unit" gid="115" x="944.741" y="1631.3" width="64" height="64">
   <properties>
    <property name="boost1" value=""/>
    <property name="boost2" value=""/>
    <property name="boost3" value=""/>
    <property name="experienceRank" value="rookies"/>
    <property name="fatigue" type="float" value="1"/>
    <property name="health" type="float" value="1"/>
    <property name="isDefence" type="bool" value="false"/>
    <property name="movementPoints" type="float" value="1"/>
   </properties>
  </object>
  <object id="69" name="cavalry" type="unit" gid="114" x="947.759" y="1709.19" width="64" height="64">
   <properties>
    <property name="boost1" value=""/>
    <property name="boost2" value=""/>
    <property name="boost3" value=""/>
    <property name="experienceRank" value="rookies"/>
    <property name="fatigue" type="float" value="1"/>
    <property name="health" type="float" value="1"/>
    <property name="isDefence" type="bool" value="false"/>
    <property name="movementPoints" type="float" value="1"/>
   </properties>
  </object>
  <object id="70" name="machineGuns" type="unit" gid="111" x="1013.21" y="1628.62" width="64" height="64">
   <properties>
    <property name="boost1" value=""/>
    <property name="boost2" value=""/>
    <property name="boost3" value=""/>
    <property name="experienceRank" value="rookies"/>
    <property name="fatigue" type="float" value="1"/>
    <property name="health" type="float" value="1"/>
    <property name="isDefence" type="bool" value="false"/>
    <property name="movementPoints" type="float" value="1"/>
   </properties>
  </object>
  <object id="71" name="artillery" type="unit" gid="110" x="1010.19" y="1694.75" width="64" height="64">
   <properties>
    <property name="boost1" value=""/>
    <property name="boost2" value=""/>
    <property name="boost3" value=""/>
    <property name="experienceRank" value="rookies"/>
    <property name="fatigue" type="float" value="1"/>
    <property name="health" type="float" value="1"/>
    <property name="isDefence" type="bool" value="false"/>
    <property name="movementPoints" type="float" value="1"/>
   </properties>
  </object>
  <object id="72" name="greatBritain" type="ownership" gid="123" x="1275.02" y="1693.91" width="64" height="64">
   <properties>
    <property name="productionCenter" type="object" value="0"/>
    <property name="terrainModifier" type="object" value="0"/>
    <property name="unit1" type="object" value="69"/>
    <property name="unit2" type="object" value="69"/>
    <property name="unit3" type="object" value="69"/>
    <property name="unit4" type="object" value="69"/>
   </properties>
  </object>
  <object id="73" name="greatBritain" type="ownership" gid="123" x="995.087" y="1918.46" width="64" height="64">
   <properties>
    <property name="productionCenter" type="object" value="0"/>
    <property name="terrainModifier" type="object" value="0"/>
    <property name="unit1" type="object" value="69"/>
    <property name="unit2" type="object" value="69"/>
    <property name="unit3" type="object" value="69"/>
    <property name="unit4" type="object" value="69"/>
   </properties>
  </object>
  <object id="74" name="greatBritain" type="ownership" gid="123" x="1327.38" y="1669.74" width="64" height="64">
   <properties>
    <property name="productionCenter" type="object" value="0"/>
    <property name="terrainModifier" type="object" value="0"/>
    <property name="unit1" type="object" value="68"/>
    <property name="unit2" type="object" value="68"/>
    <property name="unit3" type="object" value="70"/>
    <property name="unit4" type="object" value="71"/>
   </properties>
  </object>
  <object id="75" name="greatBritain" type="ownership" gid="123" x="1325.39" y="1729.69" width="64" height="64">
   <properties>
    <property name="productionCenter" type="object" value="0"/>
    <property name="terrainModifier" type="object" value="0"/>
    <property name="unit1" type="object" value="68"/>
    <property name="unit2" type="object" value="68"/>
    <property name="unit3" type="object" value="70"/>
    <property name="unit4" type="object" value="71"/>
   </properties>
  </object>
  <object id="76" name="greatBritain" type="ownership" gid="123" x="938.698" y="1953.7" width="64" height="64">
   <properties>
    <property name="productionCenter" type="object" value="0"/>
    <property name="terrainModifier" type="object" value="0"/>
    <property name="unit1" type="object" value="68"/>
    <property name="unit2" type="object" value="68"/>
    <property name="unit3" type="object" value="70"/>
    <property name="unit4" type="object" value="71"/>
   </properties>
  </object>
  <object id="77" name="greatBritain" type="ownership" gid="123" x="1047.45" y="1952.69" width="64" height="64">
   <properties>
    <property name="productionCenter" type="object" value="0"/>
    <property name="terrainModifier" type="object" value="0"/>
    <property name="unit1" type="object" value="68"/>
    <property name="unit2" type="object" value="68"/>
    <property name="unit3" type="object" value="70"/>
    <property name="unit4" type="object" value="71"/>
   </properties>
  </object>
  <object id="78" name="greatBritain" type="ownership" gid="123" x="447.279" y="830.461" width="64" height="64">
   <properties>
    <property name="productionCenter" type="object" value="0"/>
    <property name="terrainModifier" type="object" value="0"/>
    <property name="unit1" type="object" value="69"/>
    <property name="unit2" type="object" value="69"/>
    <property name="unit3" type="object" value="69"/>
    <property name="unit4" type="object" value="69"/>
   </properties>
  </object>
  <object id="79" name="greatBritain" type="ownership" gid="123" x="494.62" y="811.239" width="64" height="64">
   <properties>
    <property name="productionCenter" type="object" value="0"/>
    <property name="terrainModifier" type="object" value="0"/>
    <property name="unit1" type="object" value="68"/>
    <property name="unit2" type="object" value="68"/>
    <property name="unit3" type="object" value="70"/>
    <property name="unit4" type="object" value="71"/>
   </properties>
  </object>
  <object id="80" name="greatBritain" type="ownership" gid="123" x="498.696" y="871.753" width="64" height="64">
   <properties>
    <property name="productionCenter" type="object" value="0"/>
    <property name="terrainModifier" type="object" value="0"/>
    <property name="unit1" type="object" value="68"/>
    <property name="unit2" type="object" value="68"/>
    <property name="unit3" type="object" value="70"/>
    <property name="unit4" type="object" value="71"/>
   </properties>
  </object>
 </objectgroup>
 <objectgroup id="5" name="Templates">
  <object id="460" name="level2" type="navalBase" gid="96" x="412.534" y="-717.093" width="64" height="64">
   <properties>
    <property name="name_en" value=""/>
    <property name="name_ru" value=""/>
   </properties>
  </object>
  <object id="461" name="level1" type="navalBase" gid="95" x="412.534" y="-798.432" width="64" height="64">
   <properties>
    <property name="name_en" value=""/>
    <property name="name_ru" value=""/>
   </properties>
  </object>
  <object id="462" name="level3" type="navalBase" gid="97" x="412.534" y="-629.332" width="64" height="64">
   <properties>
    <property name="name_en" value=""/>
    <property name="name_ru" value=""/>
   </properties>
  </object>
  <object id="463" name="level1" type="airField" gid="98" x="335.717" y="-717.013" width="64" height="64">
   <properties>
    <property name="name_en" value=""/>
    <property name="name_ru" value=""/>
   </properties>
  </object>
  <object id="464" name="level2" type="airField" gid="99" x="335.714" y="-635.387" width="64" height="64">
   <properties>
    <property name="name_en" value=""/>
    <property name="name_ru" value=""/>
   </properties>
  </object>
  <object id="465" name="level1" type="factory" gid="100" x="256.707" y="-798.132" width="64" height="64">
   <properties>
    <property name="name_en" value=""/>
    <property name="name_ru" value=""/>
   </properties>
  </object>
  <object id="466" name="level2" type="factory" gid="101" x="256.704" y="-720.443" width="64" height="64">
   <properties>
    <property name="name_en" value=""/>
    <property name="name_ru" value=""/>
   </properties>
  </object>
  <object id="467" name="level3" type="factory" gid="102" x="256.704" y="-630.711" width="64" height="64">
   <properties>
    <property name="name_en" value=""/>
    <property name="name_ru" value=""/>
   </properties>
  </object>
  <object id="468" name="level4" type="factory" gid="103" x="256.704" y="-553.144" width="64" height="64">
   <properties>
    <property name="name_en" value=""/>
    <property name="name_ru" value=""/>
   </properties>
  </object>
  <object id="470" name="level2" type="city" gid="105" x="183.224" y="-719.613" width="64" height="64">
   <properties>
    <property name="name_en" value=""/>
    <property name="name_ru" value=""/>
   </properties>
  </object>
  <object id="471" name="level1" type="city" gid="104" x="183.219" y="-795.042" width="64" height="64">
   <properties>
    <property name="name_en" value=""/>
    <property name="name_ru" value=""/>
   </properties>
  </object>
  <object id="472" name="level3" type="city" gid="106" x="183.224" y="-641.21" width="64" height="64">
   <properties>
    <property name="name_en" value=""/>
    <property name="name_ru" value=""/>
   </properties>
  </object>
  <object id="473" name="level4" type="city" gid="107" x="183.224" y="-554.208" width="64" height="64">
   <properties>
    <property name="name_en" value=""/>
    <property name="name_ru" value=""/>
   </properties>
  </object>
  <object id="474" name="capital" type="city" gid="108" x="183.224" y="-478.154" width="64" height="64">
   <properties>
    <property name="name_en" value=""/>
    <property name="name_ru" value=""/>
   </properties>
  </object>
  <object id="475" name="antiAirGun" type="terrainModifier" gid="94" x="563.423" y="-549.245" width="64" height="64"/>
  <object id="476" name="trench" type="terrainModifier" gid="91" x="566.782" y="-806.482" width="64" height="64"/>
  <object id="477" name="landFort" type="terrainModifier" gid="92" x="565.131" y="-725.583" width="64" height="64"/>
  <object id="478" name="barbedWire" type="terrainModifier" gid="93" x="566.266" y="-631.024" width="64" height="64"/>
  <object id="479" name="seaMine" type="terrainModifier" gid="89" x="563.083" y="-439.954" width="64" height="64"/>
  <object id="480" name="landMine" type="terrainModifier" gid="90" x="563.935" y="-349.821" width="64" height="64"/>
  <object id="481" name="infantry" type="unit" gid="115" x="752.686" y="-798.842" width="64" height="64">
   <properties>
    <property name="boost1" value=""/>
    <property name="boost2" value=""/>
    <property name="boost3" value=""/>
    <property name="experienceRank" value="rookies"/>
    <property name="fatigue" type="float" value="1"/>
    <property name="health" type="float" value="1"/>
    <property name="isDefence" type="bool" value="false"/>
    <property name="movementPoints" type="float" value="1"/>
   </properties>
  </object>
  <object id="483" name="cavalry" type="unit" gid="114" x="752.684" y="-685.709" width="64" height="64">
   <properties>
    <property name="boost1" value=""/>
    <property name="boost2" value=""/>
    <property name="boost3" value=""/>
    <property name="experienceRank" value="rookies"/>
    <property name="fatigue" type="float" value="1"/>
    <property name="health" type="float" value="1"/>
    <property name="isDefence" type="bool" value="false"/>
    <property name="movementPoints" type="float" value="1"/>
   </properties>
  </object>
  <object id="484" name="tank" type="unit" gid="113" x="752.684" y="-570.745" width="64" height="64">
   <properties>
    <property name="boost1" value=""/>
    <property name="boost2" value=""/>
    <property name="boost3" value=""/>
    <property name="experienceRank" value="rookies"/>
    <property name="fatigue" type="float" value="1"/>
    <property name="health" type="float" value="1"/>
    <property name="isDefence" type="bool" value="false"/>
    <property name="movementPoints" type="float" value="1"/>
   </properties>
  </object>
  <object id="485" name="machineGunnersCart" type="unit" gid="112" x="752.684" y="-481.329" width="64" height="64">
   <properties>
    <property name="boost1" value=""/>
    <property name="boost2" value=""/>
    <property name="boost3" value=""/>
    <property name="experienceRank" value="rookies"/>
    <property name="fatigue" type="float" value="1"/>
    <property name="health" type="float" value="1"/>
    <property name="isDefence" type="bool" value="false"/>
    <property name="movementPoints" type="float" value="1"/>
   </properties>
  </object>
  <object id="486" name="machineGuns" type="unit" gid="111" x="752.684" y="-391.913" width="64" height="64">
   <properties>
    <property name="boost1" value=""/>
    <property name="boost2" value=""/>
    <property name="boost3" value=""/>
    <property name="experienceRank" value="rookies"/>
    <property name="fatigue" type="float" value="1"/>
    <property name="health" type="float" value="1"/>
    <property name="isDefence" type="bool" value="false"/>
    <property name="movementPoints" type="float" value="1"/>
   </properties>
  </object>
  <object id="487" name="artillery" type="unit" gid="110" x="752.684" y="-291.548" width="64" height="64">
   <properties>
    <property name="boost1" value=""/>
    <property name="boost2" value=""/>
    <property name="boost3" value=""/>
    <property name="experienceRank" value="rookies"/>
    <property name="fatigue" type="float" value="1"/>
    <property name="health" type="float" value="1"/>
    <property name="isDefence" type="bool" value="false"/>
    <property name="movementPoints" type="float" value="1"/>
   </properties>
  </object>
  <object id="488" name="armoredCar" type="unit" gid="109" x="752.684" y="-189.358" width="64" height="64">
   <properties>
    <property name="boost1" value=""/>
    <property name="boost2" value=""/>
    <property name="boost3" value=""/>
    <property name="experienceRank" value="rookies"/>
    <property name="fatigue" type="float" value="1"/>
    <property name="health" type="float" value="1"/>
    <property name="isDefence" type="bool" value="false"/>
    <property name="movementPoints" type="float" value="1"/>
   </properties>
  </object>
  <object id="489" name="carrier" type="unit" gid="119" x="948.868" y="-793.912" width="64" height="64">
   <properties>
    <property name="boost1" value=""/>
    <property name="boost2" value=""/>
    <property name="boost3" value=""/>
    <property name="experienceRank" value="rookies"/>
    <property name="fatigue" type="float" value="1"/>
    <property name="health" type="float" value="1"/>
    <property name="isDefence" type="bool" value="false"/>
    <property name="movementPoints" type="float" value="1"/>
    <property name="unit1" type="object" value="0"/>
    <property name="unit2" type="object" value="0"/>
    <property name="unit3" type="object" value="0"/>
    <property name="unit4" type="object" value="0"/>
   </properties>
  </object>
  <object id="490" name="battleship" type="unit" gid="116" x="948.868" y="-472.479" width="64" height="64">
   <properties>
    <property name="boost1" value=""/>
    <property name="boost2" value=""/>
    <property name="boost3" value=""/>
    <property name="experienceRank" value="rookies"/>
    <property name="fatigue" type="float" value="1"/>
    <property name="health" type="float" value="1"/>
    <property name="isDefence" type="bool" value="false"/>
    <property name="movementPoints" type="float" value="1"/>
   </properties>
  </object>
  <object id="491" name="cruiser" type="unit" gid="117" x="948.868" y="-574.699" width="64" height="64">
   <properties>
    <property name="boost1" value=""/>
    <property name="boost2" value=""/>
    <property name="boost3" value=""/>
    <property name="experienceRank" value="rookies"/>
    <property name="fatigue" type="float" value="1"/>
    <property name="health" type="float" value="1"/>
    <property name="isDefence" type="bool" value="false"/>
    <property name="movementPoints" type="float" value="1"/>
   </properties>
  </object>
  <object id="492" name="destroyer" type="unit" gid="118" x="948.868" y="-677.811" width="64" height="64">
   <properties>
    <property name="boost1" value=""/>
    <property name="boost2" value=""/>
    <property name="boost3" value=""/>
    <property name="experienceRank" value="rookies"/>
    <property name="fatigue" type="float" value="1"/>
    <property name="health" type="float" value="1"/>
    <property name="isDefence" type="bool" value="false"/>
    <property name="movementPoints" type="float" value="1"/>
   </properties>
  </object>
  <object id="494" name="austriaHungary" type="ownership" gid="139" x="1084.88" y="-798.352" width="64" height="64">
   <properties>
    <property name="productionCenter" type="object" value="0"/>
    <property name="terrainModifier" type="object" value="0"/>
    <property name="unit1" type="object" value="0"/>
    <property name="unit2" type="object" value="0"/>
    <property name="unit3" type="object" value="0"/>
    <property name="unit4" type="object" value="0"/>
   </properties>
  </object>
  <object id="495" name="usa" type="ownership" gid="120" x="1363.4" y="-536.223" width="64" height="64">
   <properties>
    <property name="productionCenter" type="object" value="0"/>
    <property name="terrainModifier" type="object" value="0"/>
    <property name="unit1" type="object" value="0"/>
    <property name="unit2" type="object" value="0"/>
    <property name="unit3" type="object" value="0"/>
    <property name="unit4" type="object" value="0"/>
   </properties>
  </object>
  <object id="496" name="usSouth" type="ownership" gid="121" x="1443.64" y="-798.352" width="64" height="64">
   <properties>
    <property name="productionCenter" type="object" value="0"/>
    <property name="terrainModifier" type="object" value="0"/>
    <property name="unit1" type="object" value="0"/>
    <property name="unit2" type="object" value="0"/>
    <property name="unit3" type="object" value="0"/>
    <property name="unit4" type="object" value="0"/>
   </properties>
  </object>
  <object id="497" name="usNorth" type="ownership" gid="122" x="1369.3" y="-447.793" width="64" height="64">
   <properties>
    <property name="productionCenter" type="object" value="0"/>
    <property name="terrainModifier" type="object" value="0"/>
    <property name="unit1" type="object" value="0"/>
    <property name="unit2" type="object" value="0"/>
    <property name="unit3" type="object" value="0"/>
    <property name="unit4" type="object" value="0"/>
   </properties>
  </object>
  <object id="498" name="greatBritain" type="ownership" gid="123" x="1190.91" y="-707.383" width="64" height="64">
   <properties>
    <property name="productionCenter" type="object" value="0"/>
    <property name="terrainModifier" type="object" value="0"/>
    <property name="unit1" type="object" value="0"/>
    <property name="unit2" type="object" value="0"/>
    <property name="unit3" type="object" value="0"/>
    <property name="unit4" type="object" value="0"/>
   </properties>
  </object>
  <object id="499" name="turkey" type="ownership" gid="124" x="1369.31" y="-621.583" width="64" height="64">
   <properties>
    <property name="productionCenter" type="object" value="0"/>
    <property name="terrainModifier" type="object" value="0"/>
    <property name="unit1" type="object" value="0"/>
    <property name="unit2" type="object" value="0"/>
    <property name="unit3" type="object" value="0"/>
    <property name="unit4" type="object" value="0"/>
   </properties>
  </object>
  <object id="500" name="serbia" type="ownership" gid="125" x="1363.29" y="-707.383" width="64" height="64">
   <properties>
    <property name="productionCenter" type="object" value="0"/>
    <property name="terrainModifier" type="object" value="0"/>
    <property name="unit1" type="object" value="0"/>
    <property name="unit2" type="object" value="0"/>
    <property name="unit3" type="object" value="0"/>
    <property name="unit4" type="object" value="0"/>
   </properties>
  </object>
  <object id="501" name="russia" type="ownership" gid="126" x="1285.92" y="-447.793" width="64" height="64">
   <properties>
    <property name="productionCenter" type="object" value="0"/>
    <property name="terrainModifier" type="object" value="0"/>
    <property name="unit1" type="object" value="0"/>
    <property name="unit2" type="object" value="0"/>
    <property name="unit3" type="object" value="0"/>
    <property name="unit4" type="object" value="0"/>
   </properties>
  </object>
  <object id="502" name="romania" type="ownership" gid="127" x="1362.45" y="-798.352" width="64" height="64">
   <properties>
    <property name="productionCenter" type="object" value="0"/>
    <property name="terrainModifier" type="object" value="0"/>
    <property name="unit1" type="object" value="0"/>
    <property name="unit2" type="object" value="0"/>
    <property name="unit3" type="object" value="0"/>
    <property name="unit4" type="object" value="0"/>
   </properties>
  </object>
  <object id="503" name="montenegro" type="ownership" gid="128" x="1282.27" y="-536.223" width="64" height="64">
   <properties>
    <property name="productionCenter" type="object" value="0"/>
    <property name="terrainModifier" type="object" value="0"/>
    <property name="unit1" type="object" value="0"/>
    <property name="unit2" type="object" value="0"/>
    <property name="unit3" type="object" value="0"/>
    <property name="unit4" type="object" value="0"/>
   </properties>
  </object>
  <object id="504" name="mongolia" type="ownership" gid="129" x="1277.79" y="-621.583" width="64" height="64">
   <properties>
    <property name="productionCenter" type="object" value="0"/>
    <property name="terrainModifier" type="object" value="0"/>
    <property name="unit1" type="object" value="0"/>
    <property name="unit2" type="object" value="0"/>
    <property name="unit3" type="object" value="0"/>
    <property name="unit4" type="object" value="0"/>
   </properties>
  </object>
  <object id="505" name="mexico" type="ownership" gid="130" x="1280.29" y="-707.383" width="64" height="64">
   <properties>
    <property name="productionCenter" type="object" value="0"/>
    <property name="terrainModifier" type="object" value="0"/>
    <property name="unit1" type="object" value="0"/>
    <property name="unit2" type="object" value="0"/>
    <property name="unit3" type="object" value="0"/>
    <property name="unit4" type="object" value="0"/>
   </properties>
  </object>
  <object id="506" name="korea" type="ownership" gid="131" x="1280.51" y="-798.352" width="64" height="64">
   <properties>
    <property name="productionCenter" type="object" value="0"/>
    <property name="terrainModifier" type="object" value="0"/>
    <property name="unit1" type="object" value="0"/>
    <property name="unit2" type="object" value="0"/>
    <property name="unit3" type="object" value="0"/>
    <property name="unit4" type="object" value="0"/>
   </properties>
  </object>
  <object id="507" name="japan" type="ownership" gid="132" x="1194.37" y="-447.793" width="64" height="64">
   <properties>
    <property name="productionCenter" type="object" value="0"/>
    <property name="terrainModifier" type="object" value="0"/>
    <property name="unit1" type="object" value="0"/>
    <property name="unit2" type="object" value="0"/>
    <property name="unit3" type="object" value="0"/>
    <property name="unit4" type="object" value="0"/>
   </properties>
  </object>
  <object id="508" name="italy" type="ownership" gid="133" x="1190.61" y="-536.223" width="64" height="64">
   <properties>
    <property name="productionCenter" type="object" value="0"/>
    <property name="terrainModifier" type="object" value="0"/>
    <property name="unit1" type="object" value="0"/>
    <property name="unit2" type="object" value="0"/>
    <property name="unit3" type="object" value="0"/>
    <property name="unit4" type="object" value="0"/>
   </properties>
  </object>
  <object id="509" name="germany" type="ownership" gid="134" x="1192.89" y="-798.352" width="64" height="64">
   <properties>
    <property name="productionCenter" type="object" value="0"/>
    <property name="terrainModifier" type="object" value="0"/>
    <property name="unit1" type="object" value="0"/>
    <property name="unit2" type="object" value="0"/>
    <property name="unit3" type="object" value="0"/>
    <property name="unit4" type="object" value="0"/>
   </properties>
  </object>
  <object id="510" name="france" type="ownership" gid="135" x="1088.09" y="-447.795" width="64" height="64">
   <properties>
    <property name="productionCenter" type="object" value="0"/>
    <property name="terrainModifier" type="object" value="0"/>
    <property name="unit1" type="object" value="0"/>
    <property name="unit2" type="object" value="0"/>
    <property name="unit3" type="object" value="0"/>
    <property name="unit4" type="object" value="0"/>
   </properties>
  </object>
  <object id="511" name="china" type="ownership" gid="136" x="1088.15" y="-536.223" width="64" height="64">
   <properties>
    <property name="productionCenter" type="object" value="0"/>
    <property name="terrainModifier" type="object" value="0"/>
    <property name="unit1" type="object" value="0"/>
    <property name="unit2" type="object" value="0"/>
    <property name="unit3" type="object" value="0"/>
    <property name="unit4" type="object" value="0"/>
   </properties>
  </object>
  <object id="512" name="bulgaria" type="ownership" gid="137" x="1086.44" y="-621.581" width="64" height="64">
   <properties>
    <property name="productionCenter" type="object" value="0"/>
    <property name="terrainModifier" type="object" value="0"/>
    <property name="unit1" type="object" value="0"/>
    <property name="unit2" type="object" value="0"/>
    <property name="unit3" type="object" value="0"/>
    <property name="unit4" type="object" value="0"/>
   </properties>
  </object>
  <object id="513" name="belgium" type="ownership" gid="138" x="1082.8" y="-707.383" width="64" height="64">
   <properties>
    <property name="productionCenter" type="object" value="0"/>
    <property name="terrainModifier" type="object" value="0"/>
    <property name="unit1" type="object" value="0"/>
    <property name="unit2" type="object" value="0"/>
    <property name="unit3" type="object" value="0"/>
    <property name="unit4" type="object" value="0"/>
   </properties>
  </object>
  <object id="514" name="greece" type="ownership" gid="140" x="1190.1" y="-621.583" width="64" height="64">
   <properties>
    <property name="productionCenter" type="object" value="0"/>
    <property name="terrainModifier" type="object" value="0"/>
    <property name="unit1" type="object" value="0"/>
    <property name="unit2" type="object" value="0"/>
    <property name="unit3" type="object" value="0"/>
    <property name="unit4" type="object" value="0"/>
   </properties>
  </object>
 </objectgroup>
</map>
